M190 S70.000000
M109 S210.000000
;This G-Code has been generated specifically for the LulzBot Mini with standard extruder
M73 P0 ; clear GLCD progress bar
M75 ; Start GLCD Timer
G26 ; clear potential 'probe fail' condition
M107 ; disable fans
M420 S0 ; disable leveling matrix
G90 ; absolute positioning
M82 ; set extruder to absolute mode
G92 E0 ; set extruder position to 0
M140 S?material_bed_temperature? ; start bed heating up
G28 ; home all axes
G0 X0 Y187 Z156 F200 ; move away from endstops
M109 R?material_soften_temperature? ;
G1 E-30 F75 ; retract filament
M109 R?material_wipe_temperature? ; wait for extruder to reach wiping temp
G1 X45 Y173 F11520 ; move above wiper pad
G1 Z0 F1200 ; push nozzle into wiper
G1 X42 Y173 Z2 F4000             ; wiping
G1 X52 Y171 Z2 F4000             ; wiping
G1 X42 Y173 Z2 F4000               ; wiping
G1 X52 Y171 F4000                  ; wiping
G1 X42 Y173 F4000                  ; wiping
G1 X52 Y171 F4000                  ; wiping
G1 X42 Y173 F4000                  ; wiping
G1 X52 Y171 F4000                  ; wiping
G1 X57 Y173 F4000                  ; wiping
G1 X77 Y171 F4000                  ; wiping
G1 X57 Y173 F4000                  ; wiping
G1 X77 Y171 F4000                  ; wiping
G1 X57 Y173 F4000                  ; wiping
G1 X87 Y171 F4000                  ; wiping
G1 X77 Y173 F4000                  ; wiping
G1 X97 Y171 F4000                  ; wiping
G1 X77 Y173 F4000                  ; wiping
G1 X97 Y171 F4000                  ; wiping
G1 X77 Y173 F4000                  ; wiping
G1 X97 Y171 F4000                  ; wiping
G1 X107 Y173 F4000                 ; wiping
G1 X97 Y171 F4000                  ; wiping
G1 X107 Y173 F4000                 ; wiping
G1 X97 Y171 F4000                  ; wiping
G1 X107 Y173 F4000                 ; wiping
G1 X112 Y171 Z2 F1000           ; wiping
G1 Z10 ; raise extruder
G28 X0 Y0 ; home X and Y
G0 X0 Y187 F200 ; move away from endstops
M109 R?material_probe_temperature? ; wait for extruder to reach probe temp
M204 S300 ; set probing acceleration
G29 ; start auto-leveling sequence
M420 S1              ; enable leveling matrix
M425 Z			     ; use measured Z backlash for compensation
M425 Z F0		     ; turn off measured Z backlash compensation. (if activated in the quality settings, this command will automatically be ignored)
M204 S2000 ; restore standard acceleration
G28 X0 Y0 ; re-home to account for build variance of earlier mini builds
G0 X0 Y187 F200 ; move away from endstops
G0 Y152 F4000 ; move in front of wiper pad
G4 S1 ; pause
M400 ; wait for moves to finish
M117 Heating... ; progress indicator message on LCD
M109 R?material_print_temperature? ; wait for extruder to reach printing temp
M190 S?material_bed_temperature_layer_0? ; wait for bed to reach printing temp
G1 Z2 E0 F75 ; prime tiny bit of filament into the nozzle
M117 Mini Printing... ; progress indicator message on LCD

;Layer count: 88
;LAYER:0
M107
G0 F9000 X54.950 Y43.850 Z0.300
;TYPE:SKIRT
G1 F1200 X103.350 Y43.850 E1.13804
G1 X103.350 Y67.750 E1.70000
G1 X102.750 Y67.750 E1.71411
G1 X102.750 Y69.971 E1.76633
G1 X107.150 Y74.375 E1.91271
G1 X107.150 Y74.571 E1.91732
G1 X107.350 Y74.771 E1.92397
G1 X107.350 Y85.224 E2.16976
G1 X102.750 Y89.829 E2.32280
G1 X102.750 Y92.250 E2.37973
G1 X103.350 Y92.250 E2.39383
G1 X103.350 Y116.350 E2.96050
G1 X54.950 Y116.350 E4.09854
G1 X54.950 Y87.628 E4.77389
G1 X52.750 Y85.428 E4.84704
G1 X52.750 Y85.229 E4.85172
G1 X52.550 Y85.029 E4.85837
G1 X52.550 Y74.577 E5.10413
G1 X54.950 Y72.173 E5.18401
G1 X54.950 Y43.850 E5.84997
G0 F9000 X55.450 Y44.350
G1 F1200 X102.850 Y44.350 E6.96450
G1 X102.850 Y67.250 E7.50295
G1 X102.250 Y67.250 E7.51706
G1 X102.250 Y70.177 E7.58588
G1 X106.650 Y74.582 E7.73227
G1 X106.650 Y74.779 E7.73691
G1 X106.850 Y74.979 E7.74356
G1 X106.850 Y85.017 E7.97958
G1 X102.250 Y89.622 E8.13263
G1 X102.250 Y92.750 E8.20618
G1 X102.850 Y92.750 E8.22028
G1 X102.850 Y115.850 E8.76344
G1 X55.450 Y115.850 E9.87796
G1 X55.450 Y87.420 E10.54644
G1 X53.250 Y85.220 E10.61960
G1 X53.250 Y85.021 E10.62428
G1 X53.050 Y84.821 E10.63093
G1 X53.050 Y74.783 E10.86696
G1 X55.450 Y72.380 E10.94681
G1 X55.450 Y44.350 E11.60589
G0 F9000 X55.950 Y44.850
G1 F1200 X102.350 Y44.850 E12.69690
G1 X102.350 Y66.750 E13.21184
G1 X101.750 Y66.750 E13.22595
G1 X101.750 Y70.385 E13.31142
G1 X106.150 Y74.789 E13.45779
G1 X106.150 Y74.986 E13.46243
G1 X106.350 Y75.186 E13.46908
G1 X106.350 Y84.810 E13.69537
G1 X101.898 Y89.267 E13.84349
G1 X101.750 Y89.341 E13.84738
G1 X101.750 Y93.250 E13.93930
G1 X102.350 Y93.250 E13.95340
G1 X102.350 Y115.350 E14.47305
G1 X55.950 Y115.350 E15.56406
G1 X55.950 Y87.213 E16.22565
G1 X53.750 Y85.013 E16.29880
G1 X53.750 Y84.814 E16.30348
G1 X53.550 Y84.614 E16.31013
G1 X53.550 Y74.990 E16.53643
G1 X55.950 Y72.587 E16.61628
G1 X55.950 Y44.850 E17.26847
G0 F9000 X56.450 Y45.350
G1 F1200 X101.850 Y45.350 E18.33597
G1 X101.850 Y66.250 E18.82739
G1 X101.250 Y66.250 E18.84150
G1 X101.250 Y70.592 E18.94359
G1 X105.650 Y74.996 E19.08997
G1 X105.650 Y75.193 E19.09460
G1 X105.850 Y75.393 E19.10126
G1 X105.850 Y84.604 E19.31784
G1 X101.602 Y88.856 E19.45916
G1 X101.250 Y89.032 E19.46841
G1 X101.250 Y93.750 E19.57935
G1 X101.850 Y93.750 E19.59346
G1 X101.850 Y114.850 E20.08958
G1 X56.450 Y114.850 E21.15708
G1 X56.450 Y87.006 E21.81179
G1 X54.250 Y84.806 E21.88494
G1 X54.250 Y84.607 E21.88962
G1 X54.050 Y84.407 E21.89627
G1 X54.050 Y75.197 E22.11283
G1 X56.450 Y72.793 E22.19270
G1 X56.450 Y45.350 E22.83797
G0 F9000 X56.950 Y45.850
G1 F1200 X101.350 Y45.850 E23.88196
G1 X101.350 Y65.750 E24.34987
G1 X100.750 Y65.750 E24.36398
G1 X100.750 Y70.799 E24.48270
G1 X105.150 Y75.203 E24.62908
G1 X105.150 Y75.400 E24.63371
G1 X105.350 Y75.600 E24.64036
G1 X105.350 Y84.397 E24.84720
G1 X101.306 Y88.445 E24.98174
G1 X100.750 Y88.723 E24.99636
G1 X100.750 Y94.250 E25.12632
G1 X101.350 Y94.250 E25.14043
G1 X101.350 Y114.350 E25.61304
G1 X56.950 Y114.350 E26.65703
G1 X56.950 Y86.799 E27.30484
G1 X54.750 Y84.599 E27.37800
G1 X54.750 Y84.400 E27.38267
G1 X54.550 Y84.200 E27.38932
G1 X54.550 Y75.404 E27.59615
G1 X56.950 Y73.001 E27.67600
G1 X56.950 Y45.850 E28.31441
G0 F9000 X57.450 Y46.350
G1 F1200 X100.850 Y46.350 E29.33488
G1 X100.850 Y65.250 E29.77928
G1 X100.250 Y65.250 E29.79339
G1 X100.250 Y71.006 E29.92873
G1 X104.650 Y75.410 E30.07511
G1 X104.650 Y75.607 E30.07974
G1 X104.850 Y75.807 E30.08639
G1 X104.850 Y84.190 E30.28350
G1 X101.010 Y88.034 E30.41126
G1 X100.250 Y88.414 E30.43124
G1 X100.250 Y94.750 E30.58022
G1 X100.850 Y94.750 E30.59433
G1 X100.850 Y113.850 E31.04343
G1 X57.450 Y113.850 E32.06390
G1 X57.450 Y86.592 E32.70482
G1 X55.250 Y84.392 E32.77798
G1 X55.250 Y84.193 E32.78266
G1 X55.050 Y83.993 E32.78931
G1 X55.050 Y75.611 E32.98640
G1 X57.450 Y73.208 E33.06625
G1 X57.450 Y46.350 E33.69777
G0 F9000 X57.950 Y46.850
G1 F1200 X100.350 Y46.850 E34.69473
G1 X100.350 Y64.750 E35.11562
G1 X99.750 Y64.750 E35.12973
G1 X99.750 Y71.213 E35.28169
G1 X104.150 Y75.617 E35.42807
G1 X104.150 Y75.814 E35.43270
G1 X104.350 Y76.014 E35.43935
G1 X104.350 Y83.983 E35.62673
G1 X100.713 Y87.623 E35.74772
G1 X99.750 Y88.104 E35.77303
G1 X99.750 Y95.250 E35.94105
G1 X100.350 Y95.250 E35.95516
G1 X100.350 Y113.350 E36.38075
G1 X57.950 Y113.350 E37.37771
G1 X57.950 Y86.385 E38.01174
G1 X55.750 Y84.185 E38.08490
G1 X55.750 Y83.986 E38.08958
G1 X55.550 Y83.786 E38.09623
G1 X55.550 Y75.818 E38.28358
G1 X57.950 Y73.415 E38.36344
G1 X57.950 Y46.850 E38.98807
G0 F9000 X58.450 Y47.350
G1 F1200 X99.850 Y47.350 E39.96151
G1 X99.850 Y64.250 E40.35889
G1 X99.250 Y64.250 E40.37299
G1 X99.250 Y71.578 E40.54530
G1 X99.440 Y71.610 E40.54983
G1 X103.650 Y75.824 E40.68989
G1 X103.650 Y76.021 E40.69452
G1 X103.850 Y76.221 E40.70117
G1 X103.850 Y83.776 E40.87881
G1 X100.417 Y87.212 E40.99302
G1 X99.250 Y87.795 E41.02369
G1 X99.250 Y95.750 E41.21074
G1 X99.850 Y95.750 E41.22485
G1 X99.850 Y112.850 E41.62693
G1 X58.450 Y112.850 E42.60037
G1 X58.450 Y86.178 E43.22752
G1 X56.250 Y83.978 E43.30067
G1 X56.250 Y83.779 E43.30535
G1 X56.050 Y83.579 E43.31200
G1 X56.050 Y76.025 E43.48962
G1 X58.450 Y73.622 E43.56948
G1 X58.450 Y47.350 E44.18722
G0 F9000 X58.950 Y47.850
G1 F1200 X99.350 Y47.850 E45.13715
G1 X99.350 Y63.750 E45.51101
G1 X98.750 Y63.750 E45.52512
G1 X98.750 Y72.001 E45.71912
G1 X99.200 Y72.076 E45.72985
G1 X103.150 Y76.031 E45.86128
G1 X103.150 Y76.228 E45.86591
G1 X103.350 Y76.428 E45.87256
G1 X103.350 Y83.569 E46.04047
G1 X100.121 Y86.801 E46.14789
G1 X98.750 Y87.485 E46.18392
G1 X98.750 Y96.250 E46.39001
G1 X99.350 Y96.250 E46.40412
G1 X99.350 Y112.350 E46.78268
G1 X58.950 Y112.350 E47.73262
G1 X58.950 Y85.970 E48.35290
G1 X56.750 Y83.771 E48.42603
G1 X56.750 Y83.572 E48.43071
G1 X56.550 Y83.372 E48.43736
G1 X56.550 Y76.232 E48.60525
G1 X58.950 Y73.828 E48.68512
G1 X58.950 Y47.850 E49.29595
G0 F9000 X59.450 Y48.350
G1 F1200 X98.850 Y48.350 E50.22237
G1 X98.850 Y63.250 E50.57271
G1 X98.250 Y63.250 E50.58682
G1 X98.250 Y72.425 E50.80256
G1 X98.959 Y72.543 E50.81946
G1 X102.650 Y76.238 E50.94226
G1 X102.650 Y76.435 E50.94689
G1 X102.850 Y76.635 E50.95354
G1 X102.850 Y83.362 E51.11171
G1 X99.825 Y86.390 E51.21235
G1 X98.250 Y87.176 E51.25374
G1 X98.250 Y96.750 E51.47886
G1 X98.850 Y96.750 E51.49296
G1 X98.850 Y111.850 E51.84801
G1 X59.450 Y111.850 E52.77443
G1 X59.450 Y85.764 E53.38780
G1 X57.250 Y83.564 E53.46095
G1 X57.250 Y83.365 E53.46563
G1 X57.050 Y83.165 E53.47228
G1 X57.050 Y76.439 E53.63043
G1 X59.450 Y74.035 E53.71031
G1 X59.450 Y48.350 E54.31424
G0 F9000 X59.950 Y48.850
G1 F1200 X98.350 Y48.850 E55.21715
G1 X98.350 Y62.750 E55.54398
G1 X97.750 Y62.750 E55.55809
G1 X97.750 Y72.849 E55.79555
G1 X98.719 Y73.010 E55.81865
G1 X102.150 Y76.445 E55.93280
G1 X102.150 Y76.642 E55.93744
G1 X102.350 Y76.842 E55.94409
G1 X102.350 Y83.155 E56.09253
G1 X99.529 Y85.979 E56.18638
G1 X97.990 Y86.747 E56.22682
G1 X97.750 Y86.827 E56.23277
G1 X97.750 Y97.250 E56.47785
G1 X98.350 Y97.250 E56.49196
G1 X98.350 Y111.350 E56.82349
G1 X59.950 Y111.350 E57.72640
G1 X59.950 Y97.250 E58.05794
G1 X60.750 Y97.250 E58.07675
G1 X60.750 Y96.750 E58.08850
G1 X59.950 Y96.750 E58.10731
G1 X59.950 Y85.557 E58.37050
G1 X57.750 Y83.357 E58.44365
G1 X57.750 Y83.158 E58.44833
G1 X57.550 Y82.958 E58.45498
G1 X57.550 Y76.646 E58.60340
G1 X59.950 Y74.241 E58.68329
G1 X59.950 Y63.250 E58.94172
G1 X60.750 Y63.250 E58.96053
G1 X60.750 Y62.750 E58.97229
G1 X59.950 Y62.750 E58.99110
G1 X59.950 Y48.850 E59.31793
G0 F9000 X60.450 Y49.350
G1 F1200 X97.850 Y49.350 E60.19733
G1 X97.850 Y62.250 E60.50065
G1 X97.250 Y62.250 E60.51475
G1 X97.250 Y73.273 E60.77394
G1 X98.479 Y73.477 E60.80323
G1 X101.650 Y76.652 E60.90874
G1 X101.650 Y76.850 E60.91340
G1 X101.850 Y77.050 E60.92005
G1 X101.850 Y82.948 E61.05873
G1 X99.233 Y85.568 E61.14580
G1 X97.799 Y86.284 E61.18349
G1 X97.250 Y86.467 E61.19710
G1 X97.250 Y97.750 E61.46240
G1 X97.850 Y97.750 E61.47651
G1 X97.850 Y110.850 E61.78453
G1 X60.450 Y110.850 E62.66392
G1 X60.450 Y97.750 E62.97194
G1 X61.250 Y97.750 E62.99076
G1 X61.250 Y96.250 E63.02603
G1 X60.450 Y96.250 E63.04484
G1 X60.450 Y85.349 E63.30115
G1 X58.250 Y83.149 E63.37431
G1 X58.250 Y82.950 E63.37899
G1 X58.050 Y82.750 E63.38564
G1 X58.050 Y76.852 E63.52432
G1 X60.450 Y74.449 E63.60418
G1 X60.450 Y63.750 E63.85574
G1 X61.250 Y63.750 E63.87455
G1 X61.250 Y62.250 E63.90982
G1 X60.450 Y62.250 E63.92863
G1 X60.450 Y49.350 E64.23195
G0 F9000 X60.950 Y49.850
G1 F1200 X97.350 Y49.850 E65.08783
G1 X97.350 Y61.750 E65.36764
G1 X96.750 Y61.750 E65.38175
G1 X96.750 Y73.697 E65.66266
G1 X98.238 Y73.944 E65.69813
G1 X101.150 Y76.859 E65.79501
G1 X101.150 Y77.057 E65.79967
G1 X101.350 Y77.257 E65.80632
G1 X101.350 Y82.741 E65.93526
G1 X98.936 Y85.157 E66.01557
G1 X97.607 Y85.821 E66.05050
G1 X96.750 Y86.107 E66.07174
G1 X96.750 Y98.250 E66.35726
G1 X97.350 Y98.250 E66.37137
G1 X97.350 Y110.350 E66.65588
G1 X60.950 Y110.350 E67.51176
G1 X60.950 Y98.250 E67.79627
G1 X61.750 Y98.250 E67.81508
G1 X61.750 Y95.750 E67.87387
G1 X60.950 Y95.750 E67.89268
G1 X60.950 Y85.143 E68.14208
G1 X58.750 Y82.942 E68.21525
G1 X58.750 Y82.743 E68.21993
G1 X58.550 Y82.543 E68.22658
G1 X58.550 Y77.059 E68.35553
G1 X60.763 Y74.843 E68.42917
G1 X60.950 Y74.750 E68.43408
G1 X60.950 Y64.250 E68.68097
G1 X61.750 Y64.250 E68.69978
G1 X61.750 Y61.750 E68.75856
G1 X60.950 Y61.750 E68.77737
G1 X60.950 Y49.850 E69.05718
G0 F9000 X61.450 Y50.350
G1 F1200 X96.850 Y50.350 E69.88954
G1 X96.850 Y61.250 E70.14584
G1 X96.250 Y61.250 E70.15995
G1 X96.250 Y74.121 E70.46258
G1 X97.998 Y74.411 E70.50425
G1 X100.650 Y77.066 E70.59248
G1 X100.650 Y77.264 E70.59714
G1 X100.850 Y77.464 E70.60379
G1 X100.850 Y82.534 E70.72300
G1 X98.640 Y84.746 E70.79652
G1 X97.415 Y85.358 E70.82872
G1 X96.250 Y85.747 E70.85760
G1 X96.250 Y98.750 E71.16334
G1 X96.850 Y98.750 E71.17745
G1 X96.850 Y109.850 E71.43845
G1 X61.450 Y109.850 E72.27081
G1 X61.450 Y98.750 E72.53181
G1 X62.250 Y98.750 E72.55062
G1 X62.250 Y95.250 E72.63292
G1 X61.450 Y95.250 E72.65173
G1 X61.450 Y84.935 E72.89427
G1 X59.250 Y82.735 E72.96742
G1 X59.250 Y82.536 E72.97210
G1 X59.050 Y82.336 E72.97875
G1 X59.050 Y77.266 E73.09796
G1 X61.059 Y75.254 E73.16482
G1 X61.450 Y75.059 E73.17509
G1 X61.450 Y64.750 E73.41749
G1 X62.250 Y64.750 E73.43630
G1 X62.250 Y61.250 E73.51860
G1 X61.450 Y61.250 E73.53741
G1 X61.450 Y50.350 E73.79370
G0 F9000 X61.950 Y50.850
G1 F1200 X96.350 Y50.850 E74.60255
G1 X96.350 Y60.750 E74.83534
G1 X95.750 Y60.750 E74.84944
G1 X95.750 Y74.544 E75.17378
G1 X97.758 Y74.878 E75.22165
G1 X100.150 Y77.273 E75.30124
G1 X100.150 Y77.471 E75.30589
G1 X100.350 Y77.671 E75.31254
G1 X100.350 Y82.327 E75.42202
G1 X98.344 Y84.335 E75.48876
G1 X97.223 Y84.895 E75.51822
G1 X95.861 Y85.350 E75.55199
G1 X95.750 Y85.350 E75.55460
G1 X95.750 Y99.250 E75.88143
G1 X96.350 Y99.250 E75.89554
G1 X96.350 Y109.350 E76.13302
G1 X61.950 Y109.350 E76.94188
G1 X61.950 Y99.250 E77.17936
G1 X62.750 Y99.250 E77.19817
G1 X62.750 Y94.750 E77.30398
G1 X61.950 Y94.750 E77.32279
G1 X61.950 Y84.728 E77.55844
G1 X59.750 Y82.528 E77.63160
G1 X59.750 Y82.329 E77.63628
G1 X59.550 Y82.129 E77.64293
G1 X59.550 Y77.473 E77.75240
G1 X61.355 Y75.665 E77.81247
G1 X61.950 Y75.368 E77.82811
G1 X61.950 Y65.250 E78.06602
G1 X62.750 Y65.250 E78.08483
G1 X62.750 Y60.750 E78.19064
G1 X61.950 Y60.750 E78.20945
G1 X61.950 Y50.850 E78.44223
G0 F9000 X62.450 Y51.350
G1 F1200 X95.850 Y51.350 E79.22757
G1 X95.850 Y60.250 E79.43684
G1 X95.250 Y60.250 E79.45094
G1 X95.250 Y74.968 E79.79701
G1 X97.517 Y75.345 E79.85105
G1 X99.650 Y77.480 E79.92201
G1 X99.650 Y77.678 E79.92666
G1 X99.850 Y77.878 E79.93332
G1 X99.850 Y82.120 E80.03306
G1 X98.048 Y83.924 E80.09301
G1 X97.031 Y84.432 E80.11974
G1 X95.780 Y84.850 E80.15076
G1 X95.250 Y84.850 E80.16322
G1 X95.250 Y99.750 E80.51357
G1 X95.850 Y99.750 E80.52767
G1 X95.850 Y108.850 E80.74164
G1 X62.450 Y108.850 E81.52698
G1 X62.450 Y99.750 E81.74095
G1 X63.250 Y99.750 E81.75976
G1 X63.250 Y94.250 E81.88909
G1 X62.450 Y94.250 E81.90790
G1 X62.450 Y84.439 E82.13859
G1 X62.347 Y84.418 E82.14106
G1 X60.250 Y82.321 E82.21079
G1 X60.250 Y82.122 E82.21547
G1 X60.050 Y81.922 E82.22212
G1 X60.050 Y77.680 E82.32186
G1 X61.652 Y76.076 E82.37517
G1 X62.450 Y75.677 E82.39614
G1 X62.450 Y65.750 E82.62956
G1 X63.250 Y65.750 E82.64837
G1 X63.250 Y60.250 E82.77769
G1 X62.450 Y60.250 E82.79650
G1 X62.450 Y51.350 E83.00577
G0 F9000 X62.950 Y51.850
G1 F1200 X95.350 Y51.850 E83.76760
G1 X95.350 Y59.750 E83.95335
G1 X94.750 Y59.750 E83.96746
G1 X94.750 Y75.450 E84.33662
G1 X95.100 Y75.450 E84.34485
G1 X97.277 Y75.812 E84.39674
G1 X99.150 Y77.687 E84.45905
G1 X99.150 Y77.885 E84.46371
G1 X99.350 Y78.085 E84.47036
G1 X99.350 Y81.913 E84.56037
G1 X97.752 Y83.513 E84.61354
G1 X96.839 Y83.969 E84.63754
G1 X95.699 Y84.350 E84.66580
G1 X94.750 Y84.350 E84.68811
G1 X94.750 Y100.250 E85.06197
G1 X95.350 Y100.250 E85.07608
G1 X95.350 Y108.350 E85.26654
G1 X62.950 Y108.350 E86.02836
G1 X62.950 Y100.250 E86.21882
G1 X63.750 Y100.250 E86.23763
G1 X63.750 Y93.750 E86.39047
G1 X62.950 Y93.750 E86.40928
G1 X62.950 Y84.028 E86.63787
G1 X62.593 Y83.957 E86.64643
G1 X60.750 Y82.114 E86.70772
G1 X60.750 Y81.915 E86.71240
G1 X60.550 Y81.715 E86.71905
G1 X60.550 Y77.887 E86.80905
G1 X61.948 Y76.487 E86.85557
G1 X62.950 Y75.986 E86.88192
G1 X62.950 Y66.250 E87.11084
G1 X63.750 Y66.250 E87.12965
G1 X63.750 Y59.750 E87.28249
G1 X62.950 Y59.750 E87.30130
G1 X62.950 Y51.850 E87.48705
G0 F9000 X63.450 Y52.350
G1 F1200 X94.850 Y52.350 E88.22537
G1 X94.850 Y59.250 E88.38761
G1 X94.250 Y59.250 E88.40171
G1 X94.250 Y75.950 E88.79439
G1 X95.059 Y75.950 E88.81341
G1 X97.037 Y76.279 E88.86056
G1 X98.650 Y77.894 E88.91423
G1 X98.650 Y78.092 E88.91888
G1 X98.850 Y78.292 E88.92553
G1 X98.850 Y81.706 E89.00581
G1 X97.455 Y83.102 E89.05221
G1 X96.648 Y83.506 E89.07343
G1 X95.617 Y83.850 E89.09899
G1 X94.250 Y83.850 E89.13113
G1 X94.250 Y100.750 E89.52850
G1 X94.850 Y100.750 E89.54261
G1 X94.850 Y107.850 E89.70955
G1 X63.450 Y107.850 E90.44787
G1 X63.450 Y100.750 E90.61481
G1 X64.250 Y100.750 E90.63362
G1 X64.250 Y93.250 E90.80997
G1 X63.450 Y93.250 E90.82878
G1 X63.450 Y83.619 E91.05524
G1 X62.840 Y83.497 E91.06986
G1 X61.250 Y81.907 E91.12274
G1 X61.250 Y81.708 E91.12741
G1 X61.050 Y81.508 E91.13406
G1 X61.050 Y78.094 E91.21434
G1 X62.244 Y76.898 E91.25408
G1 X63.450 Y76.295 E91.28578
G1 X63.450 Y66.750 E91.51021
G1 X64.250 Y66.750 E91.52902
G1 X64.250 Y59.250 E91.70537
G1 X63.450 Y59.250 E91.72418
G1 X63.450 Y52.350 E91.88642
G0 F9000 X63.950 Y52.850
G1 F1200 X94.350 Y52.850 E92.60123
G1 X94.350 Y58.750 E92.73995
G1 X93.750 Y58.750 E92.75406
G1 X93.750 Y76.450 E93.17024
G1 X95.018 Y76.450 E93.20006
G1 X96.796 Y76.746 E93.24244
G1 X98.150 Y78.101 E93.28748
G1 X98.150 Y78.299 E93.29214
G1 X98.350 Y78.499 E93.29879
G1 X98.350 Y81.499 E93.36933
G1 X97.159 Y82.691 E93.40895
G1 X96.456 Y83.043 E93.42743
G1 X95.536 Y83.350 E93.45024
G1 X93.750 Y83.350 E93.49223
G1 X93.750 Y101.250 E93.91312
G1 X94.350 Y101.250 E93.92723
G1 X94.350 Y107.350 E94.07066
G1 X63.950 Y107.350 E94.78546
G1 X63.950 Y101.250 E94.92889
G1 X64.750 Y101.250 E94.94770
G1 X64.750 Y92.750 E95.14756
G1 X63.950 Y92.750 E95.16637
G1 X63.950 Y83.208 E95.39074
G1 X63.086 Y83.036 E95.41145
G1 X61.750 Y81.700 E95.45588
G1 X61.750 Y81.501 E95.46056
G1 X61.550 Y81.301 E95.46721
G1 X61.550 Y78.301 E95.53775
G1 X62.541 Y77.309 E95.57072
G1 X63.746 Y76.707 E95.60239
G1 X63.950 Y76.673 E95.60725
G1 X63.950 Y67.250 E95.82882
G1 X64.750 Y67.250 E95.84763
G1 X64.750 Y58.750 E96.04749
G1 X63.950 Y58.750 E96.06630
G1 X63.950 Y52.850 E96.20503
G0 F9000 X64.450 Y53.350
G1 F1200 X93.850 Y53.350 E96.89631
G1 X93.850 Y58.250 E97.01153
G1 X93.250 Y58.250 E97.02564
G1 X93.250 Y76.950 E97.46533
G1 X94.977 Y76.950 E97.50594
G1 X96.556 Y77.213 E97.54358
G1 X97.650 Y78.308 E97.57998
G1 X97.650 Y78.506 E97.58463
G1 X97.850 Y78.706 E97.59128
G1 X97.850 Y81.292 E97.65209
G1 X96.863 Y82.280 E97.68492
G1 X96.264 Y82.580 E97.70068
G1 X95.455 Y82.850 E97.72073
G1 X93.250 Y82.850 E97.77258
G1 X93.250 Y101.750 E98.21698
G1 X93.850 Y101.750 E98.23108
G1 X93.850 Y106.850 E98.35100
G1 X64.450 Y106.850 E99.04229
G1 X64.450 Y101.750 E99.16221
G1 X65.250 Y101.750 E99.18102
G1 X65.250 Y92.250 E99.40439
G1 X64.450 Y92.250 E99.42320
G1 X64.450 Y82.798 E99.64545
G1 X63.333 Y82.575 E99.67223
G1 X62.250 Y81.493 E99.70823
G1 X62.250 Y81.294 E99.71291
G1 X62.050 Y81.094 E99.71956
G1 X62.050 Y78.508 E99.78036
G1 X62.837 Y77.720 E99.80655
G1 X63.902 Y77.188 E99.83454
G1 X64.450 Y77.096 E99.84761
G1 X64.450 Y67.750 E100.06736
G1 X65.250 Y67.750 E100.08617
G1 X65.250 Y58.250 E100.30955
G1 X64.450 Y58.250 E100.32836
G1 X64.450 Y53.350 E100.44357
G1 F2400 E95.94357
G0 F9000 X66.250 Y58.750
;TYPE:WALL-INNER
G1 F2400 E100.44357
G1 F1200 X92.250 Y58.750 E101.05491
G1 X92.250 Y101.250 E102.05423
G1 X66.250 Y101.250 E102.66557
G1 X66.250 Y92.750 E102.86543
G1 X69.750 Y92.750 E102.94773
G1 X69.750 Y98.750 E103.08881
G1 X75.250 Y98.750 E103.21813
G1 X75.250 Y92.750 E103.35921
G1 X90.750 Y92.750 E103.72366
G1 X90.750 Y67.250 E104.32325
G1 X75.250 Y67.250 E104.68770
G1 X75.250 Y61.250 E104.82878
G1 X69.750 Y61.250 E104.95811
G1 X69.750 Y67.250 E105.09918
G1 X66.250 Y67.250 E105.18148
G1 X66.250 Y58.750 E105.38134
G0 F9000 X65.750 Y58.250
;TYPE:WALL-OUTER
G1 F1200 X92.750 Y58.250 E106.01620
G1 X92.750 Y101.750 E107.03902
G1 X65.750 Y101.750 E107.67388
G1 X65.750 Y92.250 E107.89725
G1 X70.250 Y92.250 E108.00306
G1 X70.250 Y98.250 E108.14414
G1 X74.750 Y98.250 E108.24995
G1 X74.750 Y92.250 E108.39103
G1 X90.250 Y92.250 E108.75549
G1 X90.250 Y67.750 E109.33156
G1 X74.750 Y67.750 E109.69601
G1 X74.750 Y61.750 E109.83709
G1 X70.250 Y61.750 E109.94290
G1 X70.250 Y67.750 E110.08398
G1 X65.750 Y67.750 E110.18979
G1 X65.750 Y58.250 E110.41317
G0 F9000 X66.424 Y58.999
;TYPE:SKIN
G1 F1200 X69.574 Y62.149 E110.51791
G0 F9000 X69.574 Y62.856
G1 F1200 X66.424 Y59.706 E110.62266
G0 F9000 X67.057 Y58.925
G1 F1200 X69.574 Y61.442 E110.70636
G0 F9000 X69.913 Y61.074
G1 F1200 X67.764 Y58.925 E110.77782
G0 F9000 X68.471 Y58.925
G1 F1200 X70.620 Y61.074 E110.84928
G0 F9000 X71.327 Y61.074
G1 F1200 X69.178 Y58.925 E110.92074
G0 F9000 X69.885 Y58.925
G1 F1200 X72.035 Y61.074 E110.99221
G0 F9000 X72.742 Y61.074
G1 F1200 X70.592 Y58.925 E111.06369
G0 F9000 X71.299 Y58.925
G1 F1200 X73.449 Y61.074 E111.13517
G0 F9000 X74.156 Y61.074
G1 F1200 X72.006 Y58.925 E111.20664
G0 F9000 X72.713 Y58.925
G1 F1200 X74.863 Y61.074 E111.27812
G0 F9000 X75.424 Y61.635
G1 F1200 X80.863 Y67.074 E111.45898
G0 F9000 X80.156 Y67.074
G1 F1200 X75.424 Y62.342 E111.61633
G0 F9000 X75.424 Y63.049
G1 F1200 X79.449 Y67.074 E111.75017
G0 F9000 X78.741 Y67.074
G1 F1200 X75.424 Y63.756 E111.86049
G0 F9000 X75.424 Y64.464
G1 F1200 X78.034 Y67.074 E111.94728
G0 F9000 X77.327 Y67.074
G1 F1200 X75.424 Y65.171 E112.01056
G0 F9000 X75.424 Y65.878
G1 F1200 X76.620 Y67.074 E112.05033
G0 F9000 X75.913 Y67.074
G1 F1200 X75.424 Y66.585 E112.06659
G0 F9000 X75.141 Y61.359
G0 X69.859 Y61.359
G0 X69.574 Y66.392
G1 F1200 X66.424 Y63.242 E112.17134
G0 F9000 X66.424 Y63.949
G1 F1200 X69.549 Y67.074 E112.27525
G0 F9000 X68.842 Y67.074
G1 F1200 X66.424 Y64.656 E112.35566
G0 F9000 X66.424 Y65.363
G1 F1200 X68.135 Y67.074 E112.41255
G0 F9000 X67.427 Y67.074
G1 F1200 X66.424 Y66.070 E112.44592
G0 F9000 X66.424 Y66.777
G1 F1200 X66.720 Y67.074 E112.45578
G0 F9000 X69.574 Y65.685
G1 F1200 X66.424 Y62.535 E112.56052
G0 F9000 X66.424 Y61.828
G1 F1200 X69.574 Y64.978 E112.66527
G0 F9000 X69.574 Y64.271
G1 F1200 X66.424 Y61.120 E112.77003
G0 F9000 X66.424 Y60.413
G1 F1200 X69.574 Y63.563 E112.87478
G0 F9000 X69.859 Y61.359
G0 X73.421 Y58.925
G1 F1200 X81.570 Y67.074 E113.14576
G0 F9000 X82.277 Y67.074
G1 F1200 X74.128 Y58.925 E113.41673
G0 F9000 X74.835 Y58.925
G1 F1200 X82.984 Y67.074 E113.68771
G0 F9000 X83.691 Y67.074
G1 F1200 X75.542 Y58.925 E113.95868
G0 F9000 X76.249 Y58.925
G1 F1200 X84.398 Y67.074 E114.22966
G0 F9000 X85.105 Y67.074
G1 F1200 X76.956 Y58.925 E114.50064
G0 F9000 X77.663 Y58.925
G1 F1200 X85.813 Y67.074 E114.77163
G0 F9000 X86.520 Y67.074
G1 F1200 X78.370 Y58.925 E115.04262
G0 F9000 X79.077 Y58.925
G1 F1200 X87.227 Y67.074 E115.31361
G0 F9000 X87.934 Y67.074
G1 F1200 X79.784 Y58.925 E115.58461
G0 F9000 X80.492 Y58.925
G1 F1200 X88.641 Y67.074 E115.85558
G0 F9000 X89.348 Y67.074
G1 F1200 X81.199 Y58.925 E116.12656
G0 F9000 X81.906 Y58.925
G1 F1200 X90.055 Y67.074 E116.39754
G0 F9000 X90.762 Y67.074
G1 F1200 X82.613 Y58.925 E116.66851
G0 F9000 X83.320 Y58.925
G1 F1200 X92.075 Y67.680 E116.95964
G0 F9000 X92.075 Y68.387
G1 F1200 X90.924 Y67.235 E116.99793
G0 F9000 X90.924 Y67.943
G1 F1200 X92.075 Y69.094 E117.03620
G0 F9000 X92.075 Y69.801
G1 F1200 X90.924 Y68.650 E117.07448
G0 F9000 X90.924 Y69.357
G1 F1200 X92.075 Y70.508 E117.11275
G0 F9000 X92.075 Y71.215
G1 F1200 X90.924 Y70.064 E117.15102
G0 F9000 X90.924 Y70.771
G1 F1200 X92.075 Y71.922 E117.18930
G0 F9000 X92.075 Y72.629
G1 F1200 X90.924 Y71.478 E117.22757
G0 F9000 X90.924 Y72.185
G1 F1200 X92.075 Y73.336 E117.26585
G0 F9000 X92.075 Y74.043
G1 F1200 X90.924 Y72.892 E117.30412
G0 F9000 X90.924 Y73.599
G1 F1200 X92.075 Y74.751 E117.34241
G0 F9000 X92.075 Y75.458
G1 F1200 X90.924 Y74.307 E117.38068
G0 F9000 X90.924 Y75.014
G1 F1200 X92.075 Y76.165 E117.41896
G0 F9000 X92.075 Y76.872
G1 F1200 X90.924 Y75.721 E117.45723
G0 F9000 X90.924 Y76.428
G1 F1200 X92.075 Y77.579 E117.49551
G0 F9000 X92.075 Y78.286
G1 F1200 X90.924 Y77.135 E117.53378
G0 F9000 X90.924 Y77.842
G1 F1200 X92.075 Y78.993 E117.57205
G0 F9000 X92.075 Y79.700
G1 F1200 X90.924 Y78.549 E117.61033
G0 F9000 X90.924 Y79.256
G1 F1200 X92.075 Y80.407 E117.64860
G0 F9000 X92.075 Y81.115
G1 F1200 X90.924 Y79.963 E117.68689
G0 F9000 X92.075 Y66.972
G1 F1200 X84.027 Y58.925 E117.95449
G0 F9000 X84.734 Y58.925
G1 F1200 X92.075 Y66.265 E118.19858
G0 F9000 X92.075 Y65.558
G1 F1200 X85.441 Y58.925 E118.41917
G0 F9000 X86.148 Y58.925
G1 F1200 X92.075 Y64.851 E118.61624
G0 F9000 X92.075 Y64.144
G1 F1200 X86.856 Y58.925 E118.78978
G0 F9000 X87.563 Y58.925
G1 F1200 X92.075 Y63.437 E118.93982
G0 F9000 X92.075 Y62.730
G1 F1200 X88.270 Y58.925 E119.06635
G0 F9000 X88.977 Y58.925
G1 F1200 X92.075 Y62.023 E119.16936
G0 F9000 X92.075 Y61.316
G1 F1200 X89.684 Y58.925 E119.24887
G0 F9000 X90.391 Y58.925
G1 F1200 X92.075 Y60.608 E119.30485
G0 F9000 X92.075 Y59.901
G1 F1200 X91.098 Y58.925 E119.33732
G0 F9000 X91.805 Y58.925
G1 F1200 X92.075 Y59.194 E119.34628
G0 F9000 X90.924 Y80.670
G1 F1200 X92.075 Y81.822 E119.38457
G0 F9000 X92.075 Y82.529
G1 F1200 X90.924 Y81.378 E119.42285
G0 F9000 X90.924 Y82.085
G1 F1200 X92.075 Y83.236 E119.46112
G0 F9000 X92.075 Y83.943
G1 F1200 X90.924 Y82.792 E119.49940
G0 F9000 X90.924 Y83.499
G1 F1200 X92.075 Y84.650 E119.53767
G0 F9000 X92.075 Y85.357
G1 F1200 X90.924 Y84.206 E119.57594
G0 F9000 X90.924 Y84.913
G1 F1200 X92.075 Y86.064 E119.61422
G0 F9000 X92.075 Y86.771
G1 F1200 X90.924 Y85.620 E119.65249
G0 F9000 X90.924 Y86.327
G1 F1200 X92.075 Y87.479 E119.69078
G0 F9000 X92.075 Y88.186
G1 F1200 X90.924 Y87.034 E119.72907
G0 F9000 X90.924 Y87.742
G1 F1200 X92.075 Y88.893 E119.76735
G0 F9000 X92.075 Y89.600
G1 F1200 X90.924 Y88.449 E119.80562
G0 F9000 X90.924 Y89.156
G1 F1200 X92.075 Y90.307 E119.84389
G0 F9000 X92.075 Y91.014
G1 F1200 X90.924 Y89.863 E119.88217
G0 F9000 X90.924 Y90.570
G1 F1200 X92.075 Y91.721 E119.92044
G0 F9000 X92.075 Y92.428
G1 F1200 X90.924 Y91.277 E119.95871
G0 F9000 X90.924 Y91.984
G1 F1200 X92.075 Y93.135 E119.99699
G0 F9000 X92.075 Y93.842
G1 F1200 X90.924 Y92.691 E120.03526
G0 F9000 X90.449 Y92.924
G1 F1200 X92.075 Y94.550 E120.08933
G0 F9000 X92.075 Y95.257
G1 F1200 X89.742 Y92.924 E120.16691
G0 F9000 X89.035 Y92.924
G1 F1200 X92.075 Y95.964 E120.26800
G0 F9000 X92.075 Y96.671
G1 F1200 X88.328 Y92.924 E120.39260
G0 F9000 X87.621 Y92.924
G1 F1200 X92.075 Y97.378 E120.54070
G0 F9000 X92.075 Y98.085
G1 F1200 X86.914 Y92.924 E120.71232
G0 F9000 X86.206 Y92.924
G1 F1200 X92.075 Y98.792 E120.90746
G0 F9000 X92.075 Y99.499
G1 F1200 X85.499 Y92.924 E121.12612
G0 F9000 X84.792 Y92.924
G1 F1200 X92.075 Y100.206 E121.36828
G0 F9000 X92.075 Y100.914
G1 F1200 X84.085 Y92.924 E121.63397
G0 F9000 X83.378 Y92.924
G1 F1200 X91.527 Y101.073 E121.90494
G0 F9000 X90.820 Y101.073
G1 F1200 X82.671 Y92.924 E122.17592
G0 F9000 X81.964 Y92.924
G1 F1200 X90.113 Y101.073 E122.44690
G0 F9000 X89.406 Y101.073
G1 F1200 X81.257 Y92.924 E122.71787
G0 F9000 X80.550 Y92.924
G1 F1200 X88.699 Y101.073 E122.98885
G0 F9000 X87.992 Y101.073
G1 F1200 X79.842 Y92.924 E123.25984
G0 F9000 X79.135 Y92.924
G1 F1200 X87.285 Y101.073 E123.53083
G0 F9000 X86.578 Y101.073
G1 F1200 X78.428 Y92.924 E123.80183
G0 F9000 X77.721 Y92.924
G1 F1200 X85.871 Y101.073 E124.07282
G0 F9000 X85.163 Y101.073
G1 F1200 X77.014 Y92.924 E124.34380
G0 F9000 X76.307 Y92.924
G1 F1200 X84.456 Y101.073 E124.61477
G0 F9000 X83.749 Y101.073
G1 F1200 X75.600 Y92.924 E124.88575
G0 F9000 X75.424 Y93.456
G1 F1200 X83.042 Y101.073 E125.13905
G0 F9000 X82.335 Y101.073
G1 F1200 X75.424 Y94.163 E125.36884
G0 F9000 X75.424 Y94.870
G1 F1200 X81.628 Y101.073 E125.57513
G0 F9000 X80.921 Y101.073
G1 F1200 X75.424 Y95.577 E125.75790
G0 F9000 X75.424 Y96.284
G1 F1200 X80.214 Y101.073 E125.91716
G0 F9000 X79.507 Y101.073
G1 F1200 X75.424 Y96.991 E126.05292
G0 F9000 X75.424 Y97.698
G1 F1200 X78.799 Y101.073 E126.16514
G0 F9000 X78.092 Y101.073
G1 F1200 X75.424 Y98.405 E126.25386
G0 F9000 X75.236 Y98.924
G1 F1200 X77.385 Y101.073 E126.32532
G0 F9000 X76.678 Y101.073
G1 F1200 X74.529 Y98.924 E126.39678
G0 F9000 X73.822 Y98.924
G1 F1200 X75.971 Y101.073 E126.46824
G0 F9000 X75.264 Y101.073
G1 F1200 X73.115 Y98.924 E126.53970
G0 F9000 X72.408 Y98.924
G1 F1200 X74.557 Y101.073 E126.61116
G0 F9000 X73.850 Y101.073
G1 F1200 X71.701 Y98.924 E126.68262
G0 F9000 X70.994 Y98.924
G1 F1200 X73.143 Y101.073 E126.75408
G0 F9000 X72.436 Y101.073
G1 F1200 X70.287 Y98.924 E126.82554
G0 F9000 X69.580 Y98.924
G1 F1200 X71.728 Y101.073 E126.89699
G0 F9000 X71.021 Y101.073
G1 F1200 X66.424 Y96.476 E127.04985
G0 F9000 X66.424 Y95.769
G1 F1200 X69.575 Y98.919 E127.15461
G0 F9000 X69.575 Y98.212
G1 F1200 X66.424 Y95.062 E127.25937
G0 F9000 X66.424 Y94.355
G1 F1200 X69.575 Y97.505 E127.36414
G0 F9000 X69.575 Y96.798
G1 F1200 X66.424 Y93.648 E127.46890
G0 F9000 X66.424 Y92.941
G1 F1200 X69.575 Y96.091 E127.57366
G0 F9000 X69.575 Y95.384
G1 F1200 X67.115 Y92.924 E127.65546
G0 F9000 X67.822 Y92.924
G1 F1200 X69.575 Y94.677 E127.71375
G0 F9000 X69.575 Y93.970
G1 F1200 X68.529 Y92.924 E127.74854
G0 F9000 X69.236 Y92.924
G1 F1200 X69.575 Y93.263 E127.75981
G0 F9000 X66.424 Y97.184
G1 F1200 X70.314 Y101.073 E127.88915
G0 F9000 X69.607 Y101.073
G1 F1200 X66.424 Y97.891 E127.99497
G0 F9000 X66.424 Y98.598
G1 F1200 X68.900 Y101.073 E128.07729
G0 F9000 X68.193 Y101.073
G1 F1200 X66.424 Y99.305 E128.13610
G0 F9000 X66.424 Y100.012
G1 F1200 X67.486 Y101.073 E128.17139
G0 F9000 X66.779 Y101.073
G1 F1200 X66.424 Y100.719 E128.18318
G1 F2400 E123.68318
G0 F9000 X64.993 Y58.125
;TYPE:SUPPORT
G1 F2400 E128.18318
G1 F1200 X64.993 Y52.775 E128.30898
G0 F9000 X64.993 Y53.700
G0 X64.800 Y54.995
G0 X63.874 Y54.995
G1 F1200 X94.424 Y54.995 E129.02731
G0 F9000 X93.500 Y54.995
G0 X91.657 Y53.700
G0 X91.657 Y52.775
G1 F1200 X91.657 Y58.125 E129.15310
G0 F9000 X91.657 Y57.200
G0 X88.324 Y57.200
G0 X88.324 Y58.125
G1 F1200 X88.324 Y52.775 E129.27890
G0 F9000 X88.324 Y53.700
G0 X84.991 Y53.700
G0 X84.991 Y52.775
G1 F1200 X84.991 Y58.125 E129.40469
G0 F9000 X84.991 Y57.200
G0 X81.658 Y57.200
G0 X81.658 Y58.125
G1 F1200 X81.658 Y52.775 E129.53049
G0 F9000 X81.658 Y53.700
G0 X78.325 Y53.700
G0 X78.325 Y52.775
G1 F1200 X78.325 Y58.125 E129.65628
G0 F9000 X78.325 Y57.200
G0 X74.992 Y57.200
G0 X74.992 Y58.125
G1 F1200 X74.992 Y52.775 E129.78208
G0 F9000 X74.992 Y53.700
G0 X71.659 Y53.700
G0 X71.659 Y52.775
G1 F1200 X71.659 Y58.125 E129.90788
G0 F9000 X71.659 Y57.200
G0 X68.326 Y57.200
G0 X68.326 Y58.125
G1 F1200 X68.326 Y52.775 E130.03367
G1 F2400 E125.53367
G0 F9000 X68.326 Y67.875
G1 F2400 E130.03367
G1 F1200 X68.326 Y92.125 E130.60387
G0 F9000 X68.326 Y91.200
G0 X64.993 Y91.200
G0 X64.993 Y92.125
G1 F1200 X64.993 Y67.875 E131.17406
G0 F9000 X63.874 Y68.327
G1 F1200 X90.124 Y68.327 E131.79128
G0 F9000 X89.200 Y68.710
G0 X88.324 Y68.800
G0 X88.324 Y67.875
G1 F1200 X88.324 Y92.125 E132.36148
G0 F9000 X88.324 Y91.200
G0 X89.200 Y91.290
G0 X90.124 Y91.658
G1 F1200 X63.874 Y91.658 E132.97870
G0 F9000 X64.800 Y91.290
G0 X64.800 Y88.325
G0 X63.874 Y88.325
G1 F1200 X90.124 Y88.325 E133.59592
G0 F9000 X89.200 Y88.325
G0 X89.200 Y84.992
G0 X90.124 Y84.992
G1 F1200 X63.874 Y84.992 E134.21314
G0 F9000 X64.800 Y84.992
G0 X64.861 Y82.487
G0 X62.600 Y81.379
G0 X61.674 Y81.659
G1 F1200 X90.124 Y81.659 E134.88209
G0 F9000 X89.200 Y81.659
G0 X84.991 Y91.200
G0 X84.991 Y92.125
G1 F1200 X84.991 Y67.875 E135.45229
G0 F9000 X84.991 Y68.800
G0 X81.658 Y68.800
G0 X81.658 Y67.875
G1 F1200 X81.658 Y92.125 E136.02248
G0 F9000 X81.658 Y91.200
G0 X78.325 Y91.200
G0 X78.325 Y92.125
G1 F1200 X78.325 Y67.875 E136.59268
G0 F9000 X78.325 Y68.800
G0 X74.992 Y68.800
G0 X74.992 Y67.875
G1 F1200 X74.992 Y92.125 E137.16287
G0 F9000 X74.992 Y91.200
G0 X71.659 Y91.200
G0 X71.659 Y92.125
G1 F1200 X71.659 Y67.875 E137.73307
G0 F9000 X71.659 Y68.800
G0 X64.800 Y71.660
G0 X63.874 Y71.660
G1 F1200 X90.124 Y71.660 E138.35029
G0 F9000 X89.200 Y71.660
G0 X89.200 Y74.993
G0 X90.124 Y74.993
G1 F1200 X63.874 Y74.993 E138.96751
G0 F9000 X64.800 Y74.993
G0 X64.852 Y77.437
G0 X62.377 Y78.674
G0 X61.660 Y78.084
G1 F1200 X61.660 Y81.517 E139.04823
G0 F9000 X62.378 Y80.928
G0 X62.400 Y78.621
G0 X61.474 Y78.326
G1 F1200 X90.124 Y78.326 E139.72188
G1 F2400 E135.22188
G0 F9000 X92.874 Y78.326
G1 F2400 E139.72188
G1 F1200 X98.283 Y78.326 E139.84907
G0 F9000 X98.323 Y78.366
G1 F1200 X98.323 Y81.633 E139.92588
G0 F9000 X98.294 Y81.659
G1 F1200 X92.874 Y81.659 E140.05333
G0 F9000 X93.800 Y81.659
G0 X94.698 Y82.735
G0 X94.990 Y83.612
G1 F1200 X94.990 Y76.370 E140.22361
G1 F2400 E135.72361
G0 F9000 X91.657 Y101.875
G1 F2400 E140.22361
G1 F1200 X91.657 Y107.425 E140.35411
G0 F9000 X91.657 Y106.500
G0 X88.324 Y106.500
G0 X88.324 Y107.425
G1 F1200 X88.324 Y101.875 E140.48460
G0 F9000 X88.324 Y102.800
G0 X84.991 Y102.800
G0 X84.991 Y101.875
G1 F1200 X84.991 Y107.425 E140.61510
G0 F9000 X84.991 Y106.500
G0 X81.658 Y106.500
G0 X81.658 Y107.425
G1 F1200 X81.658 Y101.875 E140.74560
G0 F9000 X81.658 Y102.800
G0 X93.500 Y104.990
G0 X94.424 Y104.990
G1 F1200 X63.874 Y104.990 E141.46393
G0 F9000 X64.800 Y104.990
G0 X64.993 Y106.500
G0 X64.993 Y107.425
G1 F1200 X64.993 Y101.875 E141.59443
G0 F9000 X64.993 Y102.800
G0 X68.326 Y102.800
G0 X68.326 Y101.875
G1 F1200 X68.326 Y107.425 E141.72493
G0 F9000 X68.326 Y106.500
G0 X71.659 Y106.500
G0 X71.659 Y107.425
G1 F1200 X71.659 Y101.875 E141.85542
G0 F9000 X71.659 Y102.800
G0 X74.992 Y102.800
G0 X74.992 Y101.875
G1 F1200 X74.992 Y107.425 E141.98592
G0 F9000 X74.992 Y106.500
G0 X78.325 Y106.500
G0 X78.325 Y107.425
G1 F1200 X78.325 Y101.875 E142.11642
;LAYER:1
M106 S127
G0 F9000 X78.325 Y101.400 Z0.400
G0 X75.250 Y98.750
;TYPE:WALL-INNER
G1 F1620 X75.250 Y92.750 E142.16345
G1 X90.750 Y92.750 E142.28493
G1 X90.750 Y67.250 E142.48479
G1 X75.250 Y67.250 E142.60628
G1 X75.250 Y61.250 E142.65331
G1 X69.750 Y61.250 E142.69641
G1 X69.750 Y67.250 E142.74344
G1 X66.250 Y67.250 E142.77087
G1 X66.250 Y58.750 E142.83749
G1 X92.250 Y58.750 E143.04127
G1 X92.250 Y101.250 E143.37438
G1 X66.250 Y101.250 E143.57816
G1 X66.250 Y92.750 E143.64478
G1 X69.750 Y92.750 E143.67221
G1 X69.750 Y98.750 E143.71924
G1 X75.250 Y98.750 E143.76234
G0 F9000 X74.750 Y98.250
;TYPE:WALL-OUTER
G1 F1620 X74.750 Y92.250 E143.80937
G1 X90.250 Y92.250 E143.93086
G1 X90.250 Y67.750 E144.12288
G1 X74.750 Y67.750 E144.24436
G1 X74.750 Y61.750 E144.29139
G1 X70.250 Y61.750 E144.32666
G1 X70.250 Y67.750 E144.37369
G1 X65.750 Y67.750 E144.40896
G1 X65.750 Y58.250 E144.48342
G1 X92.750 Y58.250 E144.69503
G1 X92.750 Y101.750 E145.03598
G1 X65.750 Y101.750 E145.24759
G1 X65.750 Y92.250 E145.32205
G1 X70.250 Y92.250 E145.35732
G1 X70.250 Y98.250 E145.40435
G1 X74.750 Y98.250 E145.43962
G0 F9000 X74.670 Y98.924
;TYPE:SKIN
G1 F1620 X72.520 Y101.074 E145.46345
G0 F9000 X73.227 Y101.074
G1 F1620 X75.377 Y98.924 E145.48728
G0 F9000 X75.424 Y98.876
G1 F1620 X81.377 Y92.924 E145.55326
G0 F9000 X82.084 Y92.924
G1 F1620 X73.934 Y101.074 E145.64360
G0 F9000 X74.641 Y101.074
G1 F1620 X82.791 Y92.924 E145.73393
G0 F9000 X83.498 Y92.924
G1 F1620 X75.348 Y101.074 E145.82427
G0 F9000 X76.055 Y101.074
G1 F1620 X84.205 Y92.924 E145.91461
G0 F9000 X84.912 Y92.924
G1 F1620 X76.762 Y101.074 E146.00494
G0 F9000 X77.469 Y101.074
G1 F1620 X85.620 Y92.924 E146.09528
G0 F9000 X86.327 Y92.924
G1 F1620 X78.177 Y101.074 E146.18562
G0 F9000 X78.884 Y101.074
G1 F1620 X87.034 Y92.924 E146.27596
G0 F9000 X87.741 Y92.924
G1 F1620 X79.591 Y101.074 E146.36629
G0 F9000 X73.963 Y98.924
G1 F1620 X71.813 Y101.074 E146.39012
G0 F9000 X71.105 Y101.074
G1 F1620 X73.256 Y98.924 E146.41396
G0 F9000 X72.549 Y98.924
G1 F1620 X70.398 Y101.074 E146.43780
G0 F9000 X69.691 Y101.074
G1 F1620 X71.842 Y98.924 E146.46163
G0 F9000 X71.134 Y98.924
G1 F1620 X68.984 Y101.074 E146.48547
G0 F9000 X68.277 Y101.074
G1 F1620 X70.427 Y98.924 E146.50930
G0 F9000 X69.720 Y98.924
G1 F1620 X67.570 Y101.074 E146.53313
G0 F9000 X66.863 Y101.074
G1 F1620 X69.575 Y98.362 E146.56319
G0 F9000 X69.575 Y97.655
G1 F1620 X66.424 Y100.805 E146.59811
G0 F9000 X66.424 Y100.098
G1 F1620 X69.575 Y96.948 E146.63303
G0 F9000 X69.575 Y96.241
G1 F1620 X66.424 Y99.391 E146.66795
G0 F9000 X66.424 Y98.684
G1 F1620 X69.575 Y95.534 E146.70287
G0 F9000 X69.575 Y94.827
G1 F1620 X66.424 Y97.977 E146.73779
G0 F9000 X66.424 Y97.270
G1 F1620 X69.575 Y94.120 E146.77271
G0 F9000 X69.575 Y93.413
G1 F1620 X66.424 Y96.563 E146.80763
G0 F9000 X66.424 Y95.856
G1 F1620 X69.357 Y92.923 E146.84014
G0 F9000 X68.650 Y92.923
G1 F1620 X66.424 Y95.148 E146.86481
G0 F9000 X66.424 Y94.441
G1 F1620 X67.943 Y92.923 E146.88164
G0 F9000 X67.235 Y92.923
G1 F1620 X66.424 Y93.734 E146.89063
G0 F9000 X66.424 Y93.027
G1 F1620 X66.528 Y92.923 E146.89179
G0 F9000 X69.859 Y98.641
G0 X75.141 Y98.641
G0 X75.424 Y93.220
G1 F1620 X75.720 Y92.924 E146.89507
G0 F9000 X76.427 Y92.924
G1 F1620 X75.424 Y93.927 E146.90618
G0 F9000 X75.424 Y94.634
G1 F1620 X77.134 Y92.924 E146.92514
G0 F9000 X77.841 Y92.924
G1 F1620 X75.424 Y95.341 E146.95193
G0 F9000 X75.424 Y96.048
G1 F1620 X78.548 Y92.924 E146.98656
G0 F9000 X79.256 Y92.924
G1 F1620 X75.424 Y96.755 E147.02903
G0 F9000 X75.424 Y97.462
G1 F1620 X79.963 Y92.924 E147.07933
G0 F9000 X80.670 Y92.924
G1 F1620 X75.424 Y98.169 E147.13747
G0 F9000 X80.298 Y101.074
G1 F1620 X88.448 Y92.924 E147.22781
G0 F9000 X89.155 Y92.924
G1 F1620 X81.005 Y101.074 E147.31815
G0 F9000 X81.712 Y101.074
G1 F1620 X89.862 Y92.924 E147.40848
G0 F9000 X90.569 Y92.924
G1 F1620 X82.419 Y101.074 E147.49882
G0 F9000 X83.126 Y101.074
G1 F1620 X92.074 Y92.126 E147.59800
G0 F9000 X92.074 Y92.833
G1 F1620 X83.833 Y101.074 E147.68935
G0 F9000 X84.540 Y101.074
G1 F1620 X92.074 Y93.541 E147.77285
G0 F9000 X92.074 Y94.248
G1 F1620 X85.248 Y101.074 E147.84851
G0 F9000 X85.955 Y101.074
G1 F1620 X92.074 Y94.955 E147.91633
G0 F9000 X92.074 Y95.662
G1 F1620 X86.662 Y101.074 E147.97632
G0 F9000 X87.369 Y101.074
G1 F1620 X92.074 Y96.369 E148.02847
G0 F9000 X92.074 Y97.076
G1 F1620 X88.076 Y101.074 E148.07279
G0 F9000 X88.783 Y101.074
G1 F1620 X92.074 Y97.783 E148.10927
G0 F9000 X92.074 Y98.490
G1 F1620 X89.490 Y101.074 E148.13791
G0 F9000 X90.197 Y101.074
G1 F1620 X92.074 Y99.197 E148.15871
G0 F9000 X92.074 Y99.904
G1 F1620 X90.904 Y101.074 E148.17168
G0 F9000 X91.612 Y101.074
G1 F1620 X92.074 Y100.612 E148.17680
G0 F9000 X90.924 Y92.569
G1 F1620 X92.074 Y91.419 E148.18955
G0 F9000 X92.074 Y90.712
G1 F1620 X90.924 Y91.862 E148.20230
G0 F9000 X90.924 Y91.155
G1 F1620 X92.074 Y90.005 E148.21504
G0 F9000 X92.074 Y89.298
G1 F1620 X90.924 Y90.448 E148.22779
G0 F9000 X90.924 Y89.741
G1 F1620 X92.074 Y88.591 E148.24054
G0 F9000 X92.074 Y87.884
G1 F1620 X90.924 Y89.033 E148.25328
G0 F9000 X90.924 Y88.326
G1 F1620 X92.074 Y87.177 E148.26602
G0 F9000 X92.074 Y86.469
G1 F1620 X90.924 Y87.619 E148.27877
G0 F9000 X90.924 Y86.912
G1 F1620 X92.074 Y85.762 E148.29151
G0 F9000 X92.074 Y85.055
G1 F1620 X90.924 Y86.205 E148.30426
G0 F9000 X90.924 Y85.498
G1 F1620 X92.074 Y84.348 E148.31701
G0 F9000 X92.074 Y83.641
G1 F1620 X90.924 Y84.791 E148.32975
G0 F9000 X90.924 Y84.084
G1 F1620 X92.074 Y82.934 E148.34250
G0 F9000 X92.074 Y82.227
G1 F1620 X90.924 Y83.377 E148.35525
G0 F9000 X90.924 Y82.669
G1 F1620 X92.074 Y81.520 E148.36799
G0 F9000 X92.074 Y80.813
G1 F1620 X90.924 Y81.962 E148.38073
G0 F9000 X90.924 Y81.255
G1 F1620 X92.074 Y80.106 E148.39347
G0 F9000 X92.074 Y79.398
G1 F1620 X90.924 Y80.548 E148.40622
G0 F9000 X90.924 Y79.841
G1 F1620 X92.074 Y78.691 E148.41897
G0 F9000 X92.074 Y77.984
G1 F1620 X90.924 Y79.134 E148.43171
G0 F9000 X90.924 Y78.427
G1 F1620 X92.074 Y77.277 E148.44446
G0 F9000 X92.074 Y76.570
G1 F1620 X90.924 Y77.720 E148.45721
G0 F9000 X90.924 Y77.013
G1 F1620 X92.074 Y75.863 E148.46995
G0 F9000 X92.074 Y75.156
G1 F1620 X90.924 Y76.306 E148.48270
G0 F9000 X90.924 Y75.598
G1 F1620 X92.074 Y74.449 E148.49544
G0 F9000 X92.074 Y73.742
G1 F1620 X90.924 Y74.891 E148.50818
G0 F9000 X90.924 Y74.184
G1 F1620 X92.074 Y73.034 E148.52093
G0 F9000 X92.074 Y72.327
G1 F1620 X90.924 Y73.477 E148.53368
G0 F9000 X90.924 Y72.770
G1 F1620 X92.074 Y71.620 E148.54642
G0 F9000 X92.074 Y70.913
G1 F1620 X90.924 Y72.063 E148.55917
G0 F9000 X90.924 Y71.356
G1 F1620 X92.074 Y70.206 E148.57192
G0 F9000 X92.074 Y69.499
G1 F1620 X90.924 Y70.649 E148.58466
G0 F9000 X90.924 Y69.942
G1 F1620 X92.074 Y68.792 E148.59741
G0 F9000 X92.074 Y68.085
G1 F1620 X90.924 Y69.234 E148.61015
G0 F9000 X90.924 Y68.527
G1 F1620 X92.074 Y67.378 E148.62289
G0 F9000 X92.074 Y66.670
G1 F1620 X90.924 Y67.820 E148.63564
G0 F9000 X90.924 Y67.113
G1 F1620 X92.074 Y65.963 E148.64839
G0 F9000 X92.074 Y65.256
G1 F1620 X90.256 Y67.074 E148.66854
G0 F9000 X89.549 Y67.074
G1 F1620 X92.074 Y64.549 E148.69653
G0 F9000 X92.074 Y63.842
G1 F1620 X88.842 Y67.074 E148.73235
G0 F9000 X88.135 Y67.074
G1 F1620 X92.074 Y63.135 E148.77601
G0 F9000 X92.074 Y62.428
G1 F1620 X87.428 Y67.074 E148.82751
G0 F9000 X86.720 Y67.074
G1 F1620 X92.074 Y61.721 E148.88685
G0 F9000 X92.074 Y61.014
G1 F1620 X86.013 Y67.074 E148.95402
G0 F9000 X85.306 Y67.074
G1 F1620 X92.074 Y60.307 E149.02904
G0 F9000 X92.074 Y59.599
G1 F1620 X84.599 Y67.074 E149.11189
G0 F9000 X83.892 Y67.074
G1 F1620 X92.042 Y58.924 E149.20223
G0 F9000 X91.335 Y58.924
G1 F1620 X83.185 Y67.074 E149.29256
G0 F9000 X82.478 Y67.074
G1 F1620 X90.628 Y58.924 E149.38290
G0 F9000 X89.921 Y58.924
G1 F1620 X81.771 Y67.074 E149.47324
G0 F9000 X81.064 Y67.074
G1 F1620 X89.214 Y58.924 E149.56357
G0 F9000 X88.507 Y58.924
G1 F1620 X80.357 Y67.074 E149.65391
G0 F9000 X79.649 Y67.074
G1 F1620 X87.800 Y58.924 E149.74425
G0 F9000 X87.092 Y58.924
G1 F1620 X78.942 Y67.074 E149.83459
G0 F9000 X78.235 Y67.074
G1 F1620 X86.385 Y58.924 E149.92492
G0 F9000 X85.678 Y58.924
G1 F1620 X77.528 Y67.074 E150.01526
G0 F9000 X76.821 Y67.074
G1 F1620 X84.971 Y58.924 E150.10560
G0 F9000 X84.264 Y58.924
G1 F1620 X76.114 Y67.074 E150.19593
G0 F9000 X75.424 Y67.057
G1 F1620 X83.557 Y58.924 E150.28608
G0 F9000 X82.850 Y58.924
G1 F1620 X75.424 Y66.350 E150.36839
G0 F9000 X75.424 Y65.643
G1 F1620 X82.143 Y58.924 E150.44287
G0 F9000 X81.436 Y58.924
G1 F1620 X75.424 Y64.936 E150.50951
G0 F9000 X75.424 Y64.229
G1 F1620 X80.728 Y58.924 E150.56830
G0 F9000 X80.021 Y58.924
G1 F1620 X75.424 Y63.522 E150.61926
G0 F9000 X75.424 Y62.815
G1 F1620 X79.314 Y58.924 E150.66238
G0 F9000 X78.607 Y58.924
G1 F1620 X75.424 Y62.108 E150.69767
G0 F9000 X75.424 Y61.400
G1 F1620 X77.900 Y58.924 E150.72512
G0 F9000 X77.193 Y58.924
G1 F1620 X75.042 Y61.075 E150.74896
G0 F9000 X74.335 Y61.075
G1 F1620 X76.486 Y58.924 E150.77280
G0 F9000 X75.779 Y58.924
G1 F1620 X73.628 Y61.075 E150.79664
G0 F9000 X72.921 Y61.075
G1 F1620 X75.072 Y58.924 E150.82048
G0 F9000 X74.365 Y58.924
G1 F1620 X72.213 Y61.075 E150.84433
G0 F9000 X71.506 Y61.075
G1 F1620 X73.657 Y58.924 E150.86817
G0 F9000 X72.950 Y58.924
G1 F1620 X70.799 Y61.075 E150.89202
G0 F9000 X70.092 Y61.075
G1 F1620 X72.243 Y58.924 E150.91586
G0 F9000 X71.536 Y58.924
G1 F1620 X66.424 Y64.036 E150.97252
G0 F9000 X66.424 Y64.743
G1 F1620 X69.574 Y61.593 E151.00744
G0 F9000 X69.574 Y62.301
G1 F1620 X66.424 Y65.450 E151.04235
G0 F9000 X66.424 Y66.157
G1 F1620 X69.574 Y63.008 E151.07726
G0 F9000 X69.574 Y63.715
G1 F1620 X66.424 Y66.864 E151.11217
G0 F9000 X66.921 Y67.074
G1 F1620 X69.574 Y64.422 E151.14157
G0 F9000 X69.574 Y65.129
G1 F1620 X67.629 Y67.074 E151.16313
G0 F9000 X68.335 Y67.075
G1 F1620 X69.574 Y65.836 E151.17686
G0 F9000 X69.574 Y66.543
G1 F1620 X69.042 Y67.075 E151.18276
G0 F9000 X66.424 Y63.329
G1 F1620 X70.829 Y58.924 E151.23158
G0 F9000 X70.122 Y58.924
G1 F1620 X66.424 Y62.622 E151.27257
G0 F9000 X66.424 Y61.914
G1 F1620 X69.415 Y58.924 E151.30572
G0 F9000 X68.708 Y58.924
G1 F1620 X66.424 Y61.207 E151.33103
G0 F9000 X66.424 Y60.500
G1 F1620 X68.001 Y58.924 E151.34850
G0 F9000 X67.293 Y58.924
G1 F1620 X66.424 Y59.793 E151.35814
G0 F9000 X66.424 Y59.086
G1 F1620 X66.586 Y58.924 E151.35993
G1 F2400 E146.85993
G0 F9000 X64.993 Y102.625
;TYPE:SUPPORT
G1 F2400 E151.35993
G1 F1620 X64.993 Y106.675 E151.39167
G0 F9000 X64.993 Y106.500
G0 X68.326 Y106.500
G0 X68.326 Y106.675
G1 F1620 X68.326 Y102.625 E151.42342
G0 F9000 X68.326 Y102.800
G0 X71.659 Y102.800
G0 X71.659 Y102.625
G1 F1620 X71.659 Y106.675 E151.45516
G0 F9000 X71.659 Y106.500
G0 X74.992 Y106.500
G0 X74.992 Y106.675
G1 F1620 X74.992 Y102.625 E151.48690
G0 F9000 X74.992 Y102.800
G0 X78.325 Y102.800
G0 X78.325 Y102.625
G1 F1620 X78.325 Y106.675 E151.51865
G0 F9000 X78.325 Y106.500
G0 X81.658 Y106.500
G0 X81.658 Y106.675
G1 F1620 X81.658 Y102.625 E151.55039
G0 F9000 X81.658 Y102.800
G0 X84.991 Y102.800
G0 X84.991 Y102.625
G1 F1620 X84.991 Y106.675 E151.58213
G0 F9000 X84.991 Y106.500
G0 X88.324 Y106.500
G0 X88.324 Y106.675
G1 F1620 X88.324 Y102.625 E151.61387
G0 F9000 X88.324 Y102.800
G0 X91.657 Y102.800
G0 X91.657 Y102.625
G1 F1620 X91.657 Y106.675 E151.64562
G1 F2400 E147.14562
G0 F9000 X88.324 Y91.375
G1 F2400 E151.64562
G1 F1620 X88.324 Y68.625 E151.82393
G0 F9000 X88.324 Y68.800
G0 X84.991 Y68.800
G0 X84.991 Y68.625
G1 F1620 X84.991 Y91.375 E152.00223
G0 F9000 X84.991 Y91.200
G0 X81.658 Y91.200
G0 X81.658 Y91.375
G1 F1620 X81.658 Y68.625 E152.18054
G0 F9000 X81.658 Y68.800
G0 X78.325 Y68.800
G0 X78.325 Y68.625
G1 F1620 X78.325 Y91.375 E152.35885
G0 F9000 X78.325 Y91.200
G0 X74.992 Y91.200
G0 X74.992 Y91.375
G1 F1620 X74.992 Y68.625 E152.53716
G0 F9000 X74.992 Y68.800
G0 X71.659 Y68.800
G0 X71.659 Y68.625
G1 F1620 X71.659 Y91.375 E152.71547
G0 F9000 X71.659 Y91.200
G0 X68.326 Y91.200
G0 X68.326 Y91.375
G1 F1620 X68.326 Y68.625 E152.89378
G0 F9000 X68.326 Y68.800
G0 X64.993 Y68.800
G0 X64.993 Y68.625
G1 F1620 X64.993 Y91.375 E153.07208
G1 F2400 E148.57208
G0 F9000 X94.990 Y82.821
G1 F2400 E153.07208
G1 F1620 X94.990 Y77.130 E153.11669
G1 F2400 E148.61669
G0 F9000 X91.657 Y57.375
G1 F2400 E153.11669
G1 F1620 X91.657 Y53.525 E153.14686
G0 F9000 X91.657 Y53.700
G0 X88.324 Y53.700
G0 X88.324 Y53.525
G1 F1620 X88.324 Y57.375 E153.17704
G0 F9000 X88.324 Y57.200
G0 X84.991 Y57.200
G0 X84.991 Y57.375
G1 F1620 X84.991 Y53.525 E153.20721
G0 F9000 X84.991 Y53.700
G0 X81.658 Y53.700
G0 X81.658 Y53.525
G1 F1620 X81.658 Y57.375 E153.23739
G0 F9000 X81.658 Y57.200
G0 X78.325 Y57.200
G0 X78.325 Y57.375
G1 F1620 X78.325 Y53.525 E153.26757
G0 F9000 X78.325 Y53.700
G0 X74.992 Y53.700
G0 X74.992 Y53.525
G1 F1620 X74.992 Y57.375 E153.29774
G0 F9000 X74.992 Y57.200
G0 X71.659 Y57.200
G0 X71.659 Y57.375
G1 F1620 X71.659 Y53.525 E153.32792
G0 F9000 X71.659 Y53.700
G0 X68.326 Y53.700
G0 X68.326 Y53.525
G1 F1620 X68.326 Y57.375 E153.35809
G0 F9000 X68.326 Y57.200
G0 X64.993 Y57.200
G0 X64.993 Y57.375
G1 F1620 X64.993 Y53.525 E153.38827
;LAYER:2
M106 S255
G1 F2400 E148.88827
G0 F9000 X66.250 Y58.750 Z0.500
;TYPE:WALL-INNER
G1 F2400 E153.38827
G1 F2100 X92.250 Y58.750 E153.59205
G1 X92.250 Y101.250 E153.92515
G1 X66.250 Y101.250 E154.12893
G1 X66.250 Y92.750 E154.19555
G1 X69.750 Y92.750 E154.22298
G1 X69.750 Y98.750 E154.27001
G1 X75.250 Y98.750 E154.31312
G1 X75.250 Y92.750 E154.36015
G1 X90.750 Y92.750 E154.48163
G1 X90.750 Y67.250 E154.68149
G1 X75.250 Y67.250 E154.80298
G1 X75.250 Y61.250 E154.85000
G1 X69.750 Y61.250 E154.89311
G1 X69.750 Y67.250 E154.94014
G1 X66.250 Y67.250 E154.96757
G1 X66.250 Y58.750 E155.03419
G0 F9000 X65.750 Y58.250
;TYPE:WALL-OUTER
G1 F2100 X92.750 Y58.250 E155.24581
G1 X92.750 Y101.750 E155.58675
G1 X65.750 Y101.750 E155.79837
G1 X65.750 Y92.250 E155.87283
G1 X70.250 Y92.250 E155.90810
G1 X70.250 Y98.250 E155.95512
G1 X74.750 Y98.250 E155.99039
G1 X74.750 Y92.250 E156.03742
G1 X90.250 Y92.250 E156.15890
G1 X90.250 Y67.750 E156.35093
G1 X74.750 Y67.750 E156.47241
G1 X74.750 Y61.750 E156.51944
G1 X70.250 Y61.750 E156.55471
G1 X70.250 Y67.750 E156.60174
G1 X65.750 Y67.750 E156.63701
G1 X65.750 Y58.250 E156.71146
G0 F9000 X66.424 Y58.999
;TYPE:SKIN
G1 F2100 X69.574 Y62.149 E156.74638
G0 F9000 X69.574 Y62.856
G1 F2100 X66.424 Y59.706 E156.78130
G0 F9000 X67.057 Y58.925
G1 F2100 X69.574 Y61.442 E156.80919
G0 F9000 X69.913 Y61.074
G1 F2100 X67.764 Y58.925 E156.83301
G0 F9000 X68.471 Y58.925
G1 F2100 X70.620 Y61.074 E156.85683
G0 F9000 X71.327 Y61.074
G1 F2100 X69.178 Y58.925 E156.88065
G0 F9000 X69.885 Y58.925
G1 F2100 X72.035 Y61.074 E156.90448
G0 F9000 X72.742 Y61.074
G1 F2100 X70.592 Y58.925 E156.92831
G0 F9000 X71.299 Y58.925
G1 F2100 X73.449 Y61.074 E156.95213
G0 F9000 X74.156 Y61.074
G1 F2100 X72.006 Y58.925 E156.97596
G0 F9000 X72.713 Y58.925
G1 F2100 X74.863 Y61.074 E156.99978
G0 F9000 X75.424 Y61.635
G1 F2100 X80.863 Y67.074 E157.06007
G0 F9000 X80.156 Y67.074
G1 F2100 X75.424 Y62.342 E157.11252
G0 F9000 X75.424 Y63.049
G1 F2100 X79.449 Y67.074 E157.15713
G0 F9000 X78.741 Y67.074
G1 F2100 X75.424 Y63.756 E157.19391
G0 F9000 X75.424 Y64.464
G1 F2100 X78.034 Y67.074 E157.22284
G0 F9000 X77.327 Y67.074
G1 F2100 X75.424 Y65.171 E157.24393
G0 F9000 X75.424 Y65.878
G1 F2100 X76.620 Y67.074 E157.25719
G0 F9000 X75.913 Y67.074
G1 F2100 X75.424 Y66.585 E157.26261
G0 F9000 X75.141 Y61.359
G0 X69.859 Y61.359
G0 X69.574 Y66.392
G1 F2100 X66.424 Y63.242 E157.29752
G0 F9000 X66.424 Y63.949
G1 F2100 X69.549 Y67.074 E157.33216
G0 F9000 X68.842 Y67.074
G1 F2100 X66.424 Y64.656 E157.35896
G0 F9000 X66.424 Y65.363
G1 F2100 X68.135 Y67.074 E157.37793
G0 F9000 X67.427 Y67.074
G1 F2100 X66.424 Y66.070 E157.38905
G0 F9000 X66.424 Y66.777
G1 F2100 X66.720 Y67.074 E157.39234
G0 F9000 X69.574 Y65.685
G1 F2100 X66.424 Y62.535 E157.42725
G0 F9000 X66.424 Y61.828
G1 F2100 X69.574 Y64.978 E157.46217
G0 F9000 X69.574 Y64.271
G1 F2100 X66.424 Y61.120 E157.49709
G0 F9000 X66.424 Y60.413
G1 F2100 X69.574 Y63.563 E157.53200
G0 F9000 X69.859 Y61.359
G0 X73.421 Y58.925
G1 F2100 X81.570 Y67.074 E157.62233
G0 F9000 X82.277 Y67.074
G1 F2100 X74.128 Y58.925 E157.71265
G0 F9000 X74.835 Y58.925
G1 F2100 X82.984 Y67.074 E157.80298
G0 F9000 X83.691 Y67.074
G1 F2100 X75.542 Y58.925 E157.89330
G0 F9000 X76.249 Y58.925
G1 F2100 X84.398 Y67.074 E157.98363
G0 F9000 X85.105 Y67.074
G1 F2100 X76.956 Y58.925 E158.07395
G0 F9000 X77.663 Y58.925
G1 F2100 X85.813 Y67.074 E158.16429
G0 F9000 X86.520 Y67.074
G1 F2100 X78.370 Y58.925 E158.25462
G0 F9000 X79.077 Y58.925
G1 F2100 X87.227 Y67.074 E158.34495
G0 F9000 X87.934 Y67.074
G1 F2100 X79.784 Y58.925 E158.43528
G0 F9000 X80.492 Y58.925
G1 F2100 X88.641 Y67.074 E158.52560
G0 F9000 X89.348 Y67.074
G1 F2100 X81.199 Y58.925 E158.61593
G0 F9000 X81.906 Y58.925
G1 F2100 X90.055 Y67.074 E158.70625
G0 F9000 X90.762 Y67.074
G1 F2100 X82.613 Y58.925 E158.79658
G0 F9000 X83.320 Y58.925
G1 F2100 X92.075 Y67.680 E158.89362
G0 F9000 X92.075 Y68.387
G1 F2100 X90.924 Y67.235 E158.90639
G0 F9000 X90.924 Y67.943
G1 F2100 X92.075 Y69.094 E158.91914
G0 F9000 X92.075 Y69.801
G1 F2100 X90.924 Y68.650 E158.93190
G0 F9000 X90.924 Y69.357
G1 F2100 X92.075 Y70.508 E158.94466
G0 F9000 X92.075 Y71.215
G1 F2100 X90.924 Y70.064 E158.95742
G0 F9000 X90.924 Y70.771
G1 F2100 X92.075 Y71.922 E158.97018
G0 F9000 X92.075 Y72.629
G1 F2100 X90.924 Y71.478 E158.98293
G0 F9000 X90.924 Y72.185
G1 F2100 X92.075 Y73.336 E158.99569
G0 F9000 X92.075 Y74.043
G1 F2100 X90.924 Y72.892 E159.00845
G0 F9000 X90.924 Y73.599
G1 F2100 X92.075 Y74.751 E159.02121
G0 F9000 X92.075 Y75.458
G1 F2100 X90.924 Y74.307 E159.03397
G0 F9000 X90.924 Y75.014
G1 F2100 X92.075 Y76.165 E159.04673
G0 F9000 X92.075 Y76.872
G1 F2100 X90.924 Y75.721 E159.05949
G0 F9000 X90.924 Y76.428
G1 F2100 X92.075 Y77.579 E159.07224
G0 F9000 X92.075 Y78.286
G1 F2100 X90.924 Y77.135 E159.08500
G0 F9000 X90.924 Y77.842
G1 F2100 X92.075 Y78.993 E159.09776
G0 F9000 X92.075 Y79.700
G1 F2100 X90.924 Y78.549 E159.11052
G0 F9000 X90.924 Y79.256
G1 F2100 X92.075 Y80.407 E159.12328
G0 F9000 X92.075 Y81.115
G1 F2100 X90.924 Y79.963 E159.13604
G0 F9000 X92.075 Y66.972
G1 F2100 X84.027 Y58.925 E159.22524
G0 F9000 X84.734 Y58.925
G1 F2100 X92.075 Y66.265 E159.30660
G0 F9000 X92.075 Y65.558
G1 F2100 X85.441 Y58.925 E159.38013
G0 F9000 X86.148 Y58.925
G1 F2100 X92.075 Y64.851 E159.44582
G0 F9000 X92.075 Y64.144
G1 F2100 X86.856 Y58.925 E159.50367
G0 F9000 X87.563 Y58.925
G1 F2100 X92.075 Y63.437 E159.55368
G0 F9000 X92.075 Y62.730
G1 F2100 X88.270 Y58.925 E159.59586
G0 F9000 X88.977 Y58.925
G1 F2100 X92.075 Y62.023 E159.63020
G0 F9000 X92.075 Y61.316
G1 F2100 X89.684 Y58.925 E159.65670
G0 F9000 X90.391 Y58.925
G1 F2100 X92.075 Y60.608 E159.67536
G0 F9000 X92.075 Y59.901
G1 F2100 X91.098 Y58.925 E159.68618
G0 F9000 X91.805 Y58.925
G1 F2100 X92.075 Y59.194 E159.68917
G0 F9000 X90.924 Y80.670
G1 F2100 X92.075 Y81.822 E159.70193
G0 F9000 X92.075 Y82.529
G1 F2100 X90.924 Y81.378 E159.71469
G0 F9000 X90.924 Y82.085
G1 F2100 X92.075 Y83.236 E159.72745
G0 F9000 X92.075 Y83.943
G1 F2100 X90.924 Y82.792 E159.74021
G0 F9000 X90.924 Y83.499
G1 F2100 X92.075 Y84.650 E159.75297
G0 F9000 X92.075 Y85.357
G1 F2100 X90.924 Y84.206 E159.76572
G0 F9000 X90.924 Y84.913
G1 F2100 X92.075 Y86.064 E159.77848
G0 F9000 X92.075 Y86.771
G1 F2100 X90.924 Y85.620 E159.79124
G0 F9000 X90.924 Y86.327
G1 F2100 X92.075 Y87.479 E159.80400
G0 F9000 X92.075 Y88.186
G1 F2100 X90.924 Y87.034 E159.81677
G0 F9000 X90.924 Y87.742
G1 F2100 X92.075 Y88.893 E159.82952
G0 F9000 X92.075 Y89.600
G1 F2100 X90.924 Y88.449 E159.84228
G0 F9000 X90.924 Y89.156
G1 F2100 X92.075 Y90.307 E159.85504
G0 F9000 X92.075 Y91.014
G1 F2100 X90.924 Y89.863 E159.86780
G0 F9000 X90.924 Y90.570
G1 F2100 X92.075 Y91.721 E159.88056
G0 F9000 X92.075 Y92.428
G1 F2100 X90.924 Y91.277 E159.89331
G0 F9000 X90.924 Y91.984
G1 F2100 X92.075 Y93.135 E159.90607
G0 F9000 X92.075 Y93.842
G1 F2100 X90.924 Y92.691 E159.91883
G0 F9000 X90.449 Y92.924
G1 F2100 X92.075 Y94.550 E159.93685
G0 F9000 X92.075 Y95.257
G1 F2100 X89.742 Y92.924 E159.96271
G0 F9000 X89.035 Y92.924
G1 F2100 X92.075 Y95.964 E159.99641
G0 F9000 X92.075 Y96.671
G1 F2100 X88.328 Y92.924 E160.03794
G0 F9000 X87.621 Y92.924
G1 F2100 X92.075 Y97.378 E160.08731
G0 F9000 X92.075 Y98.085
G1 F2100 X86.914 Y92.924 E160.14452
G0 F9000 X86.206 Y92.924
G1 F2100 X92.075 Y98.792 E160.20956
G0 F9000 X92.075 Y99.499
G1 F2100 X85.499 Y92.924 E160.28245
G0 F9000 X84.792 Y92.924
G1 F2100 X92.075 Y100.206 E160.36317
G0 F9000 X92.075 Y100.914
G1 F2100 X84.085 Y92.924 E160.45173
G0 F9000 X83.378 Y92.924
G1 F2100 X91.527 Y101.073 E160.54206
G0 F9000 X90.820 Y101.073
G1 F2100 X82.671 Y92.924 E160.63238
G0 F9000 X81.964 Y92.924
G1 F2100 X90.113 Y101.073 E160.72271
G0 F9000 X89.406 Y101.073
G1 F2100 X81.257 Y92.924 E160.81303
G0 F9000 X80.550 Y92.924
G1 F2100 X88.699 Y101.073 E160.90336
G0 F9000 X87.992 Y101.073
G1 F2100 X79.842 Y92.924 E160.99369
G0 F9000 X79.135 Y92.924
G1 F2100 X87.285 Y101.073 E161.08402
G0 F9000 X86.578 Y101.073
G1 F2100 X78.428 Y92.924 E161.17435
G0 F9000 X77.721 Y92.924
G1 F2100 X85.871 Y101.073 E161.26468
G0 F9000 X85.163 Y101.073
G1 F2100 X77.014 Y92.924 E161.35501
G0 F9000 X76.307 Y92.924
G1 F2100 X84.456 Y101.073 E161.44533
G0 F9000 X83.749 Y101.073
G1 F2100 X75.600 Y92.924 E161.53566
G0 F9000 X75.424 Y93.456
G1 F2100 X83.042 Y101.073 E161.62009
G0 F9000 X82.335 Y101.073
G1 F2100 X75.424 Y94.163 E161.69669
G0 F9000 X75.424 Y94.870
G1 F2100 X81.628 Y101.073 E161.76545
G0 F9000 X80.921 Y101.073
G1 F2100 X75.424 Y95.577 E161.82638
G0 F9000 X75.424 Y96.284
G1 F2100 X80.214 Y101.073 E161.87946
G0 F9000 X79.507 Y101.073
G1 F2100 X75.424 Y96.991 E161.92471
G0 F9000 X75.424 Y97.698
G1 F2100 X78.799 Y101.073 E161.96212
G0 F9000 X78.092 Y101.073
G1 F2100 X75.424 Y98.405 E161.99170
G0 F9000 X75.236 Y98.924
G1 F2100 X77.385 Y101.073 E162.01552
G0 F9000 X76.678 Y101.073
G1 F2100 X74.529 Y98.924 E162.03934
G0 F9000 X73.822 Y98.924
G1 F2100 X75.971 Y101.073 E162.06316
G0 F9000 X75.264 Y101.073
G1 F2100 X73.115 Y98.924 E162.08698
G0 F9000 X72.408 Y98.924
G1 F2100 X74.557 Y101.073 E162.11080
G0 F9000 X73.850 Y101.073
G1 F2100 X71.701 Y98.924 E162.13462
G0 F9000 X70.994 Y98.924
G1 F2100 X73.143 Y101.073 E162.15844
G0 F9000 X72.436 Y101.073
G1 F2100 X70.287 Y98.924 E162.18226
G0 F9000 X69.580 Y98.924
G1 F2100 X71.728 Y101.073 E162.20607
G0 F9000 X71.021 Y101.073
G1 F2100 X66.424 Y96.476 E162.25703
G0 F9000 X66.424 Y95.769
G1 F2100 X69.575 Y98.919 E162.29195
G0 F9000 X69.575 Y98.212
G1 F2100 X66.424 Y95.062 E162.32687
G0 F9000 X66.424 Y94.355
G1 F2100 X69.575 Y97.505 E162.36179
G0 F9000 X69.575 Y96.798
G1 F2100 X66.424 Y93.648 E162.39671
G0 F9000 X66.424 Y92.941
G1 F2100 X69.575 Y96.091 E162.43163
G0 F9000 X69.575 Y95.384
G1 F2100 X67.115 Y92.924 E162.45890
G0 F9000 X67.822 Y92.924
G1 F2100 X69.575 Y94.677 E162.47833
G0 F9000 X69.575 Y93.970
G1 F2100 X68.529 Y92.924 E162.48992
G0 F9000 X69.236 Y92.924
G1 F2100 X69.575 Y93.263 E162.49368
G0 F9000 X66.424 Y97.184
G1 F2100 X70.314 Y101.073 E162.53679
G0 F9000 X69.607 Y101.073
G1 F2100 X66.424 Y97.891 E162.57207
G0 F9000 X66.424 Y98.598
G1 F2100 X68.900 Y101.073 E162.59951
G0 F9000 X68.193 Y101.073
G1 F2100 X66.424 Y99.305 E162.61911
G0 F9000 X66.424 Y100.012
G1 F2100 X67.486 Y101.073 E162.63087
G0 F9000 X66.779 Y101.073
G1 F2100 X66.424 Y100.719 E162.63480
G1 F2400 E158.13480
G0 F9000 X64.993 Y57.375
;TYPE:SUPPORT
G1 F2400 E162.63480
G1 F2100 X64.993 Y53.525 E162.66498
G0 F9000 X64.993 Y53.700
G0 X68.326 Y53.700
G0 X68.326 Y53.525
G1 F2100 X68.326 Y57.375 E162.69515
G0 F9000 X68.326 Y57.200
G0 X71.659 Y57.200
G0 X71.659 Y57.375
G1 F2100 X71.659 Y53.525 E162.72533
G0 F9000 X71.659 Y53.700
G0 X74.992 Y53.700
G0 X74.992 Y53.525
G1 F2100 X74.992 Y57.375 E162.75550
G0 F9000 X74.992 Y57.200
G0 X78.325 Y57.200
G0 X78.325 Y57.375
G1 F2100 X78.325 Y53.525 E162.78568
G0 F9000 X78.325 Y53.700
G0 X81.658 Y53.700
G0 X81.658 Y53.525
G1 F2100 X81.658 Y57.375 E162.81585
G0 F9000 X81.658 Y57.200
G0 X84.991 Y57.200
G0 X84.991 Y57.375
G1 F2100 X84.991 Y53.525 E162.84603
G0 F9000 X84.991 Y53.700
G0 X88.324 Y53.700
G0 X88.324 Y53.525
G1 F2100 X88.324 Y57.375 E162.87621
G0 F9000 X88.324 Y57.200
G0 X91.657 Y57.200
G0 X91.657 Y57.375
G1 F2100 X91.657 Y53.525 E162.90638
G1 F2400 E158.40638
G0 F9000 X88.324 Y68.625
G1 F2400 E162.90638
G1 F2100 X88.324 Y91.375 E163.08469
G0 F9000 X88.324 Y91.200
G0 X84.991 Y91.200
G0 X84.991 Y91.375
G1 F2100 X84.991 Y68.625 E163.26300
G0 F9000 X84.991 Y68.800
G0 X81.658 Y68.800
G0 X81.658 Y68.625
G1 F2100 X81.658 Y91.375 E163.44131
G0 F9000 X81.658 Y91.200
G0 X78.325 Y91.200
G0 X78.325 Y91.375
G1 F2100 X78.325 Y68.625 E163.61961
G0 F9000 X78.325 Y68.800
G0 X74.992 Y68.800
G0 X74.992 Y68.625
G1 F2100 X74.992 Y91.375 E163.79792
G0 F9000 X74.992 Y91.200
G0 X71.659 Y91.200
G0 X71.659 Y91.375
G1 F2100 X71.659 Y68.625 E163.97623
G0 F9000 X71.659 Y68.800
G0 X68.326 Y68.800
G0 X68.326 Y68.625
G1 F2100 X68.326 Y91.375 E164.15454
G0 F9000 X68.326 Y91.200
G0 X64.993 Y91.200
G0 X64.993 Y91.375
G1 F2100 X64.993 Y68.625 E164.33285
G1 F2400 E159.83285
G0 F9000 X94.990 Y77.130
G1 F2400 E164.33285
G1 F2100 X94.990 Y82.821 E164.37745
G1 F2400 E159.87745
G0 F9000 X91.657 Y102.625
G1 F2400 E164.37745
G1 F2100 X91.657 Y106.675 E164.40920
G0 F9000 X91.657 Y106.500
G0 X88.324 Y106.500
G0 X88.324 Y106.675
G1 F2100 X88.324 Y102.625 E164.44094
G0 F9000 X88.324 Y102.800
G0 X84.991 Y102.800
G0 X84.991 Y102.625
G1 F2100 X84.991 Y106.675 E164.47268
G0 F9000 X84.991 Y106.500
G0 X81.658 Y106.500
G0 X81.658 Y106.675
G1 F2100 X81.658 Y102.625 E164.50442
G0 F9000 X81.658 Y102.800
G0 X78.325 Y102.800
G0 X78.325 Y102.625
G1 F2100 X78.325 Y106.675 E164.53617
G0 F9000 X78.325 Y106.500
G0 X74.992 Y106.500
G0 X74.992 Y106.675
G1 F2100 X74.992 Y102.625 E164.56791
G0 F9000 X74.992 Y102.800
G0 X71.659 Y102.800
G0 X71.659 Y102.625
G1 F2100 X71.659 Y106.675 E164.59965
G0 F9000 X71.659 Y106.500
G0 X68.326 Y106.500
G0 X68.326 Y106.675
G1 F2100 X68.326 Y102.625 E164.63140
G0 F9000 X68.326 Y102.800
G0 X64.993 Y102.800
G0 X64.993 Y102.625
G1 F2100 X64.993 Y106.675 E164.66314
;LAYER:3
G1 F2400 E160.16314
G0 F9000 X66.250 Y101.250 Z0.600
;TYPE:WALL-INNER
G1 F2400 E164.66314
G1 F2520 X66.250 Y92.750 E164.72976
G1 X69.750 Y92.750 E164.75719
G1 X69.750 Y98.750 E164.80422
G1 X75.250 Y98.750 E164.84732
G1 X75.250 Y92.750 E164.89435
G1 X90.750 Y92.750 E165.01584
G1 X90.750 Y67.250 E165.21570
G1 X75.250 Y67.250 E165.33718
G1 X75.250 Y61.250 E165.38421
G1 X69.750 Y61.250 E165.42732
G1 X69.750 Y67.250 E165.47434
G1 X66.250 Y67.250 E165.50178
G1 X66.250 Y58.750 E165.56840
G1 X92.250 Y58.750 E165.77218
G1 X92.250 Y101.250 E166.10528
G1 X66.250 Y101.250 E166.30906
G0 F9000 X65.750 Y101.750
;TYPE:WALL-OUTER
G1 F2520 X65.750 Y92.250 E166.38352
G1 X70.250 Y92.250 E166.41879
G1 X70.250 Y98.250 E166.46582
G1 X74.750 Y98.250 E166.50109
G1 X74.750 Y92.250 E166.54811
G1 X90.250 Y92.250 E166.66960
G1 X90.250 Y67.750 E166.86162
G1 X74.750 Y67.750 E166.98311
G1 X74.750 Y61.750 E167.03013
G1 X70.250 Y61.750 E167.06540
G1 X70.250 Y67.750 E167.11243
G1 X65.750 Y67.750 E167.14770
G1 X65.750 Y58.250 E167.22216
G1 X92.750 Y58.250 E167.43378
G1 X92.750 Y101.750 E167.77472
G1 X65.750 Y101.750 E167.98634
G0 F9000 X66.424 Y100.805
;TYPE:SKIN
G1 F2520 X69.575 Y97.655 E168.02126
G0 F9000 X69.575 Y98.362
G1 F2520 X66.863 Y101.074 E168.05132
G0 F9000 X67.570 Y101.074
G1 F2520 X69.720 Y98.924 E168.07515
G0 F9000 X70.427 Y98.924
G1 F2520 X68.277 Y101.074 E168.09898
G0 F9000 X68.984 Y101.074
G1 F2520 X71.134 Y98.924 E168.12281
G0 F9000 X71.842 Y98.924
G1 F2520 X69.691 Y101.074 E168.14665
G0 F9000 X70.398 Y101.074
G1 F2520 X72.549 Y98.924 E168.17048
G0 F9000 X73.256 Y98.924
G1 F2520 X71.105 Y101.074 E168.19432
G0 F9000 X71.813 Y101.074
G1 F2520 X73.963 Y98.924 E168.21815
G0 F9000 X74.670 Y98.924
G1 F2520 X72.520 Y101.074 E168.24198
G0 F9000 X73.227 Y101.074
G1 F2520 X75.377 Y98.924 E168.26581
G0 F9000 X75.424 Y98.876
G1 F2520 X81.377 Y92.924 E168.33179
G0 F9000 X82.084 Y92.924
G1 F2520 X73.934 Y101.074 E168.42213
G0 F9000 X74.641 Y101.074
G1 F2520 X82.791 Y92.924 E168.51247
G0 F9000 X83.498 Y92.924
G1 F2520 X75.348 Y101.074 E168.60280
G0 F9000 X76.055 Y101.074
G1 F2520 X84.205 Y92.924 E168.69314
G0 F9000 X84.912 Y92.924
G1 F2520 X76.762 Y101.074 E168.78347
G0 F9000 X77.469 Y101.074
G1 F2520 X85.620 Y92.924 E168.87382
G0 F9000 X86.327 Y92.924
G1 F2520 X78.177 Y101.074 E168.96415
G0 F9000 X78.884 Y101.074
G1 F2520 X87.034 Y92.924 E169.05449
G0 F9000 X87.741 Y92.924
G1 F2520 X79.591 Y101.074 E169.14483
G0 F9000 X69.859 Y98.641
G0 X69.575 Y96.948
G1 F2520 X66.424 Y100.098 E169.17975
G0 F9000 X66.424 Y99.391
G1 F2520 X69.575 Y96.241 E169.21467
G0 F9000 X69.575 Y95.534
G1 F2520 X66.424 Y98.684 E169.24959
G0 F9000 X66.424 Y97.977
G1 F2520 X69.575 Y94.827 E169.28451
G0 F9000 X69.575 Y94.120
G1 F2520 X66.424 Y97.270 E169.31943
G0 F9000 X66.424 Y96.563
G1 F2520 X69.575 Y93.413 E169.35435
G0 F9000 X69.357 Y92.923
G1 F2520 X66.424 Y95.856 E169.38686
G0 F9000 X66.424 Y95.148
G1 F2520 X68.650 Y92.923 E169.41153
G0 F9000 X67.943 Y92.923
G1 F2520 X66.424 Y94.441 E169.42836
G0 F9000 X66.424 Y93.734
G1 F2520 X67.235 Y92.923 E169.43735
G0 F9000 X66.528 Y92.923
G1 F2520 X66.424 Y93.027 E169.43850
G0 F9000 X69.859 Y98.641
G0 X75.141 Y98.641
G0 X75.424 Y93.220
G1 F2520 X75.720 Y92.924 E169.44178
G0 F9000 X76.427 Y92.924
G1 F2520 X75.424 Y93.927 E169.45290
G0 F9000 X75.424 Y94.634
G1 F2520 X77.134 Y92.924 E169.47186
G0 F9000 X77.841 Y92.924
G1 F2520 X75.424 Y95.341 E169.49865
G0 F9000 X75.424 Y96.048
G1 F2520 X78.548 Y92.924 E169.53327
G0 F9000 X79.256 Y92.924
G1 F2520 X75.424 Y96.755 E169.57574
G0 F9000 X75.424 Y97.462
G1 F2520 X79.963 Y92.924 E169.62605
G0 F9000 X80.670 Y92.924
G1 F2520 X75.424 Y98.169 E169.68419
G0 F9000 X80.298 Y101.074
G1 F2520 X88.448 Y92.924 E169.77453
G0 F9000 X89.155 Y92.924
G1 F2520 X81.005 Y101.074 E169.86486
G0 F9000 X81.712 Y101.074
G1 F2520 X89.862 Y92.924 E169.95520
G0 F9000 X90.569 Y92.924
G1 F2520 X82.419 Y101.074 E170.04554
G0 F9000 X83.126 Y101.074
G1 F2520 X92.074 Y92.126 E170.14472
G0 F9000 X92.074 Y92.833
G1 F2520 X83.833 Y101.074 E170.23606
G0 F9000 X84.540 Y101.074
G1 F2520 X92.074 Y93.541 E170.31957
G0 F9000 X92.074 Y94.248
G1 F2520 X85.248 Y101.074 E170.39523
G0 F9000 X85.955 Y101.074
G1 F2520 X92.074 Y94.955 E170.46305
G0 F9000 X92.074 Y95.662
G1 F2520 X86.662 Y101.074 E170.52304
G0 F9000 X87.369 Y101.074
G1 F2520 X92.074 Y96.369 E170.57519
G0 F9000 X92.074 Y97.076
G1 F2520 X88.076 Y101.074 E170.61951
G0 F9000 X88.783 Y101.074
G1 F2520 X92.074 Y97.783 E170.65598
G0 F9000 X92.074 Y98.490
G1 F2520 X89.490 Y101.074 E170.68462
G0 F9000 X90.197 Y101.074
G1 F2520 X92.074 Y99.197 E170.70543
G0 F9000 X92.074 Y99.904
G1 F2520 X90.904 Y101.074 E170.71840
G0 F9000 X91.612 Y101.074
G1 F2520 X92.074 Y100.612 E170.72352
G0 F9000 X90.924 Y92.569
G1 F2520 X92.074 Y91.419 E170.73627
G0 F9000 X92.074 Y90.712
G1 F2520 X90.924 Y91.862 E170.74901
G0 F9000 X90.924 Y91.155
G1 F2520 X92.074 Y90.005 E170.76176
G0 F9000 X92.074 Y89.298
G1 F2520 X90.924 Y90.448 E170.77451
G0 F9000 X90.924 Y89.741
G1 F2520 X92.074 Y88.591 E170.78725
G0 F9000 X92.074 Y87.884
G1 F2520 X90.924 Y89.033 E170.80000
G0 F9000 X90.924 Y88.326
G1 F2520 X92.074 Y87.177 E170.81274
G0 F9000 X92.074 Y86.469
G1 F2520 X90.924 Y87.619 E170.82548
G0 F9000 X90.924 Y86.912
G1 F2520 X92.074 Y85.762 E170.83823
G0 F9000 X92.074 Y85.055
G1 F2520 X90.924 Y86.205 E170.85098
G0 F9000 X90.924 Y85.498
G1 F2520 X92.074 Y84.348 E170.86372
G0 F9000 X92.074 Y83.641
G1 F2520 X90.924 Y84.791 E170.87647
G0 F9000 X90.924 Y84.084
G1 F2520 X92.074 Y82.934 E170.88922
G0 F9000 X92.074 Y82.227
G1 F2520 X90.924 Y83.377 E170.90196
G0 F9000 X90.924 Y82.669
G1 F2520 X92.074 Y81.520 E170.91471
G0 F9000 X92.074 Y80.813
G1 F2520 X90.924 Y81.962 E170.92745
G0 F9000 X90.924 Y81.255
G1 F2520 X92.074 Y80.106 E170.94019
G0 F9000 X92.074 Y79.398
G1 F2520 X90.924 Y80.548 E170.95294
G0 F9000 X90.924 Y79.841
G1 F2520 X92.074 Y78.691 E170.96568
G0 F9000 X92.074 Y77.984
G1 F2520 X90.924 Y79.134 E170.97843
G0 F9000 X90.924 Y78.427
G1 F2520 X92.074 Y77.277 E170.99118
G0 F9000 X92.074 Y76.570
G1 F2520 X90.924 Y77.720 E171.00392
G0 F9000 X90.924 Y77.013
G1 F2520 X92.074 Y75.863 E171.01667
G0 F9000 X92.074 Y75.156
G1 F2520 X90.924 Y76.306 E171.02942
G0 F9000 X90.924 Y75.598
G1 F2520 X92.074 Y74.449 E171.04216
G0 F9000 X92.074 Y73.742
G1 F2520 X90.924 Y74.891 E171.05490
G0 F9000 X90.924 Y74.184
G1 F2520 X92.074 Y73.034 E171.06765
G0 F9000 X92.074 Y72.327
G1 F2520 X90.924 Y73.477 E171.08039
G0 F9000 X90.924 Y72.770
G1 F2520 X92.074 Y71.620 E171.09314
G0 F9000 X92.074 Y70.913
G1 F2520 X90.924 Y72.063 E171.10589
G0 F9000 X90.924 Y71.356
G1 F2520 X92.074 Y70.206 E171.11863
G0 F9000 X92.074 Y69.499
G1 F2520 X90.924 Y70.649 E171.13138
G0 F9000 X90.924 Y69.942
G1 F2520 X92.074 Y68.792 E171.14413
G0 F9000 X92.074 Y68.085
G1 F2520 X90.924 Y69.234 E171.15687
G0 F9000 X90.924 Y68.527
G1 F2520 X92.074 Y67.378 E171.16961
G0 F9000 X92.074 Y66.670
G1 F2520 X90.924 Y67.820 E171.18236
G0 F9000 X90.924 Y67.113
G1 F2520 X92.074 Y65.963 E171.19510
G0 F9000 X92.074 Y65.256
G1 F2520 X90.256 Y67.074 E171.21525
G0 F9000 X89.549 Y67.074
G1 F2520 X92.074 Y64.549 E171.24324
G0 F9000 X92.074 Y63.842
G1 F2520 X88.842 Y67.074 E171.27907
G0 F9000 X88.135 Y67.074
G1 F2520 X92.074 Y63.135 E171.32273
G0 F9000 X92.074 Y62.428
G1 F2520 X87.428 Y67.074 E171.37422
G0 F9000 X86.720 Y67.074
G1 F2520 X92.074 Y61.721 E171.43356
G0 F9000 X92.074 Y61.014
G1 F2520 X86.013 Y67.074 E171.50074
G0 F9000 X85.306 Y67.074
G1 F2520 X92.074 Y60.307 E171.57575
G0 F9000 X92.074 Y59.599
G1 F2520 X84.599 Y67.074 E171.65861
G0 F9000 X83.892 Y67.074
G1 F2520 X92.042 Y58.924 E171.74894
G0 F9000 X91.335 Y58.924
G1 F2520 X83.185 Y67.074 E171.83928
G0 F9000 X82.478 Y67.074
G1 F2520 X90.628 Y58.924 E171.92962
G0 F9000 X89.921 Y58.924
G1 F2520 X81.771 Y67.074 E172.01995
G0 F9000 X81.064 Y67.074
G1 F2520 X89.214 Y58.924 E172.11029
G0 F9000 X88.507 Y58.924
G1 F2520 X80.357 Y67.074 E172.20063
G0 F9000 X79.649 Y67.074
G1 F2520 X87.800 Y58.924 E172.29097
G0 F9000 X87.092 Y58.924
G1 F2520 X78.942 Y67.074 E172.38130
G0 F9000 X78.235 Y67.074
G1 F2520 X86.385 Y58.924 E172.47164
G0 F9000 X85.678 Y58.924
G1 F2520 X77.528 Y67.074 E172.56198
G0 F9000 X76.821 Y67.074
G1 F2520 X84.971 Y58.924 E172.65231
G0 F9000 X84.264 Y58.924
G1 F2520 X76.114 Y67.074 E172.74265
G0 F9000 X75.424 Y67.057
G1 F2520 X83.557 Y58.924 E172.83280
G0 F9000 X82.850 Y58.924
G1 F2520 X75.424 Y66.350 E172.91511
G0 F9000 X75.424 Y65.643
G1 F2520 X82.143 Y58.924 E172.98958
G0 F9000 X81.436 Y58.924
G1 F2520 X75.424 Y64.936 E173.05622
G0 F9000 X75.424 Y64.229
G1 F2520 X80.728 Y58.924 E173.11502
G0 F9000 X80.021 Y58.924
G1 F2520 X75.424 Y63.522 E173.16598
G0 F9000 X75.424 Y62.815
G1 F2520 X79.314 Y58.924 E173.20910
G0 F9000 X78.607 Y58.924
G1 F2520 X75.424 Y62.108 E173.24439
G0 F9000 X75.424 Y61.400
G1 F2520 X77.900 Y58.924 E173.27183
G0 F9000 X77.193 Y58.924
G1 F2520 X75.042 Y61.075 E173.29568
G0 F9000 X74.335 Y61.075
G1 F2520 X76.486 Y58.924 E173.31952
G0 F9000 X75.779 Y58.924
G1 F2520 X73.628 Y61.075 E173.34336
G0 F9000 X72.921 Y61.075
G1 F2520 X75.072 Y58.924 E173.36720
G0 F9000 X74.365 Y58.924
G1 F2520 X72.213 Y61.075 E173.39105
G0 F9000 X71.506 Y61.075
G1 F2520 X73.657 Y58.924 E173.41489
G0 F9000 X72.950 Y58.924
G1 F2520 X70.799 Y61.075 E173.43873
G0 F9000 X70.092 Y61.075
G1 F2520 X72.243 Y58.924 E173.46258
G0 F9000 X71.536 Y58.924
G1 F2520 X66.424 Y64.036 E173.51924
G0 F9000 X66.424 Y64.743
G1 F2520 X69.574 Y61.593 E173.55415
G0 F9000 X69.574 Y62.301
G1 F2520 X66.424 Y65.450 E173.58906
G0 F9000 X66.424 Y66.157
G1 F2520 X69.574 Y63.008 E173.62397
G0 F9000 X69.574 Y63.715
G1 F2520 X66.424 Y66.864 E173.65888
G0 F9000 X66.921 Y67.074
G1 F2520 X69.574 Y64.422 E173.68828
G0 F9000 X69.574 Y65.129
G1 F2520 X67.629 Y67.074 E173.70984
G0 F9000 X68.335 Y67.075
G1 F2520 X69.574 Y65.836 E173.72358
G0 F9000 X69.574 Y66.543
G1 F2520 X69.042 Y67.075 E173.72947
G0 F9000 X66.424 Y63.329
G1 F2520 X70.829 Y58.924 E173.77830
G0 F9000 X70.122 Y58.924
G1 F2520 X66.424 Y62.622 E173.81929
G0 F9000 X66.424 Y61.914
G1 F2520 X69.415 Y58.924 E173.85244
G0 F9000 X68.708 Y58.924
G1 F2520 X66.424 Y61.207 E173.87775
G0 F9000 X66.424 Y60.500
G1 F2520 X68.001 Y58.924 E173.89522
G0 F9000 X67.293 Y58.924
G1 F2520 X66.424 Y59.793 E173.90485
G0 F9000 X66.424 Y59.086
G1 F2520 X66.586 Y58.924 E173.90665
G1 F2400 E169.40665
G0 F9000 X64.993 Y102.625
;TYPE:SUPPORT
G1 F2400 E173.90665
G1 F2520 X64.993 Y106.675 E173.93839
G0 F9000 X64.993 Y106.500
G0 X68.326 Y106.500
G0 X68.326 Y106.675
G1 F2520 X68.326 Y102.625 E173.97013
G0 F9000 X68.326 Y102.800
G0 X71.659 Y102.800
G0 X71.659 Y102.625
G1 F2520 X71.659 Y106.675 E174.00188
G0 F9000 X71.659 Y106.500
G0 X74.992 Y106.500
G0 X74.992 Y106.675
G1 F2520 X74.992 Y102.625 E174.03362
G0 F9000 X74.992 Y102.800
G0 X78.325 Y102.800
G0 X78.325 Y102.625
G1 F2520 X78.325 Y106.675 E174.06536
G0 F9000 X78.325 Y106.500
G0 X81.658 Y106.500
G0 X81.658 Y106.675
G1 F2520 X81.658 Y102.625 E174.09711
G0 F9000 X81.658 Y102.800
G0 X84.991 Y102.800
G0 X84.991 Y102.625
G1 F2520 X84.991 Y106.675 E174.12885
G0 F9000 X84.991 Y106.500
G0 X88.324 Y106.500
G0 X88.324 Y106.675
G1 F2520 X88.324 Y102.625 E174.16059
G0 F9000 X88.324 Y102.800
G0 X91.657 Y102.800
G0 X91.657 Y102.625
G1 F2520 X91.657 Y106.675 E174.19233
G1 F2400 E169.69233
G0 F9000 X88.324 Y91.375
G1 F2400 E174.19233
G1 F2520 X88.324 Y68.625 E174.37064
G0 F9000 X88.324 Y68.800
G0 X84.991 Y68.800
G0 X84.991 Y68.625
G1 F2520 X84.991 Y91.375 E174.54895
G0 F9000 X84.991 Y91.200
G0 X81.658 Y91.200
G0 X81.658 Y91.375
G1 F2520 X81.658 Y68.625 E174.72726
G0 F9000 X81.658 Y68.800
G0 X78.325 Y68.800
G0 X78.325 Y68.625
G1 F2520 X78.325 Y91.375 E174.90557
G0 F9000 X78.325 Y91.200
G0 X74.992 Y91.200
G0 X74.992 Y91.375
G1 F2520 X74.992 Y68.625 E175.08388
G0 F9000 X74.992 Y68.800
G0 X71.659 Y68.800
G0 X71.659 Y68.625
G1 F2520 X71.659 Y91.375 E175.26218
G0 F9000 X71.659 Y91.200
G0 X68.326 Y91.200
G0 X68.326 Y91.375
G1 F2520 X68.326 Y68.625 E175.44049
G0 F9000 X68.326 Y68.800
G0 X64.993 Y68.800
G0 X64.993 Y68.625
G1 F2520 X64.993 Y91.375 E175.61880
G1 F2400 E171.11880
G0 F9000 X94.990 Y82.821
G1 F2400 E175.61880
G1 F2520 X94.990 Y77.130 E175.66341
G1 F2400 E171.16341
G0 F9000 X91.657 Y57.375
G1 F2400 E175.66341
G1 F2520 X91.657 Y53.525 E175.69358
G0 F9000 X91.657 Y53.700
G0 X88.324 Y53.700
G0 X88.324 Y53.525
G1 F2520 X88.324 Y57.375 E175.72376
G0 F9000 X88.324 Y57.200
G0 X84.991 Y57.200
G0 X84.991 Y57.375
G1 F2520 X84.991 Y53.525 E175.75393
G0 F9000 X84.991 Y53.700
G0 X81.658 Y53.700
G0 X81.658 Y53.525
G1 F2520 X81.658 Y57.375 E175.78411
G0 F9000 X81.658 Y57.200
G0 X78.325 Y57.200
G0 X78.325 Y57.375
G1 F2520 X78.325 Y53.525 E175.81428
G0 F9000 X78.325 Y53.700
G0 X74.992 Y53.700
G0 X74.992 Y53.525
G1 F2520 X74.992 Y57.375 E175.84446
G0 F9000 X74.992 Y57.200
G0 X71.659 Y57.200
G0 X71.659 Y57.375
G1 F2520 X71.659 Y53.525 E175.87463
G0 F9000 X71.659 Y53.700
G0 X68.326 Y53.700
G0 X68.326 Y53.525
G1 F2520 X68.326 Y57.375 E175.90481
G0 F9000 X68.326 Y57.200
G0 X64.993 Y57.200
G0 X64.993 Y57.375
G1 F2520 X64.993 Y53.525 E175.93498
;LAYER:4
G1 F2400 E171.43498
G0 F9000 X66.250 Y58.750 Z0.700
;TYPE:WALL-INNER
G1 F2400 E175.93498
G1 F3000 X92.250 Y58.750 E176.13876
G1 X92.250 Y101.250 E176.47187
G1 X66.250 Y101.250 E176.67565
G1 X66.250 Y92.750 E176.74227
G1 X69.750 Y92.750 E176.76970
G1 X69.750 Y98.750 E176.81673
G1 X75.250 Y98.750 E176.85984
G1 X75.250 Y92.750 E176.90686
G1 X90.750 Y92.750 E177.02835
G1 X90.750 Y67.250 E177.22821
G1 X75.250 Y67.250 E177.34969
G1 X75.250 Y61.250 E177.39672
G1 X69.750 Y61.250 E177.43983
G1 X69.750 Y67.250 E177.48685
G1 X66.250 Y67.250 E177.51429
G1 X66.250 Y58.750 E177.58091
G0 F9000 X65.750 Y58.250
;TYPE:WALL-OUTER
G1 F3000 X92.750 Y58.250 E177.79253
G1 X92.750 Y101.750 E178.13347
G1 X65.750 Y101.750 E178.34509
G1 X65.750 Y92.250 E178.41954
G1 X70.250 Y92.250 E178.45481
G1 X70.250 Y98.250 E178.50184
G1 X74.750 Y98.250 E178.53711
G1 X74.750 Y92.250 E178.58414
G1 X90.250 Y92.250 E178.70562
G1 X90.250 Y67.750 E178.89765
G1 X74.750 Y67.750 E179.01913
G1 X74.750 Y61.750 E179.06616
G1 X70.250 Y61.750 E179.10143
G1 X70.250 Y67.750 E179.14845
G1 X65.750 Y67.750 E179.18372
G1 X65.750 Y58.250 E179.25818
G0 F9000 X66.424 Y58.999
;TYPE:SKIN
G1 F3000 X69.574 Y62.149 E179.29310
G0 F9000 X69.574 Y62.856
G1 F3000 X66.424 Y59.706 E179.32801
G0 F9000 X67.057 Y58.925
G1 F3000 X69.574 Y61.442 E179.35591
G0 F9000 X69.913 Y61.074
G1 F3000 X67.764 Y58.925 E179.37973
G0 F9000 X68.471 Y58.925
G1 F3000 X70.620 Y61.074 E179.40355
G0 F9000 X71.327 Y61.074
G1 F3000 X69.178 Y58.925 E179.42737
G0 F9000 X69.885 Y58.925
G1 F3000 X72.035 Y61.074 E179.45120
G0 F9000 X72.742 Y61.074
G1 F3000 X70.592 Y58.925 E179.47502
G0 F9000 X71.299 Y58.925
G1 F3000 X73.449 Y61.074 E179.49885
G0 F9000 X74.156 Y61.074
G1 F3000 X72.006 Y58.925 E179.52267
G0 F9000 X72.713 Y58.925
G1 F3000 X74.863 Y61.074 E179.54650
G0 F9000 X75.424 Y61.635
G1 F3000 X80.863 Y67.074 E179.60679
G0 F9000 X80.156 Y67.074
G1 F3000 X75.424 Y62.342 E179.65924
G0 F9000 X75.424 Y63.049
G1 F3000 X79.449 Y67.074 E179.70385
G0 F9000 X78.741 Y67.074
G1 F3000 X75.424 Y63.756 E179.74062
G0 F9000 X75.424 Y64.464
G1 F3000 X78.034 Y67.074 E179.76955
G0 F9000 X77.327 Y67.074
G1 F3000 X75.424 Y65.171 E179.79065
G0 F9000 X75.424 Y65.878
G1 F3000 X76.620 Y67.074 E179.80390
G0 F9000 X75.913 Y67.074
G1 F3000 X75.424 Y66.585 E179.80932
G0 F9000 X75.141 Y61.359
G0 X69.859 Y61.359
G0 X69.574 Y66.392
G1 F3000 X66.424 Y63.242 E179.84424
G0 F9000 X66.424 Y63.949
G1 F3000 X69.549 Y67.074 E179.87888
G0 F9000 X68.842 Y67.074
G1 F3000 X66.424 Y64.656 E179.90568
G0 F9000 X66.424 Y65.363
G1 F3000 X68.135 Y67.074 E179.92464
G0 F9000 X67.427 Y67.074
G1 F3000 X66.424 Y66.070 E179.93577
G0 F9000 X66.424 Y66.777
G1 F3000 X66.720 Y67.074 E179.93905
G0 F9000 X69.574 Y65.685
G1 F3000 X66.424 Y62.535 E179.97397
G0 F9000 X66.424 Y61.828
G1 F3000 X69.574 Y64.978 E180.00888
G0 F9000 X69.574 Y64.271
G1 F3000 X66.424 Y61.120 E180.04380
G0 F9000 X66.424 Y60.413
G1 F3000 X69.574 Y63.563 E180.07872
G0 F9000 X69.859 Y61.359
G0 X73.421 Y58.925
G1 F3000 X81.570 Y67.074 E180.16904
G0 F9000 X82.277 Y67.074
G1 F3000 X74.128 Y58.925 E180.25937
G0 F9000 X74.835 Y58.925
G1 F3000 X82.984 Y67.074 E180.34970
G0 F9000 X83.691 Y67.074
G1 F3000 X75.542 Y58.925 E180.44002
G0 F9000 X76.249 Y58.925
G1 F3000 X84.398 Y67.074 E180.53035
G0 F9000 X85.105 Y67.074
G1 F3000 X76.956 Y58.925 E180.62067
G0 F9000 X77.663 Y58.925
G1 F3000 X85.813 Y67.074 E180.71100
G0 F9000 X86.520 Y67.074
G1 F3000 X78.370 Y58.925 E180.80133
G0 F9000 X79.077 Y58.925
G1 F3000 X87.227 Y67.074 E180.89166
G0 F9000 X87.934 Y67.074
G1 F3000 X79.784 Y58.925 E180.98200
G0 F9000 X80.492 Y58.925
G1 F3000 X88.641 Y67.074 E181.07232
G0 F9000 X89.348 Y67.074
G1 F3000 X81.199 Y58.925 E181.16265
G0 F9000 X81.906 Y58.925
G1 F3000 X90.055 Y67.074 E181.25297
G0 F9000 X90.762 Y67.074
G1 F3000 X82.613 Y58.925 E181.34330
G0 F9000 X83.320 Y58.925
G1 F3000 X92.075 Y67.680 E181.44034
G0 F9000 X92.075 Y68.387
G1 F3000 X90.924 Y67.235 E181.45310
G0 F9000 X90.924 Y67.943
G1 F3000 X92.075 Y69.094 E181.46586
G0 F9000 X92.075 Y69.801
G1 F3000 X90.924 Y68.650 E181.47862
G0 F9000 X90.924 Y69.357
G1 F3000 X92.075 Y70.508 E181.49138
G0 F9000 X92.075 Y71.215
G1 F3000 X90.924 Y70.064 E181.50413
G0 F9000 X90.924 Y70.771
G1 F3000 X92.075 Y71.922 E181.51689
G0 F9000 X92.075 Y72.629
G1 F3000 X90.924 Y71.478 E181.52965
G0 F9000 X90.924 Y72.185
G1 F3000 X92.075 Y73.336 E181.54241
G0 F9000 X92.075 Y74.043
G1 F3000 X90.924 Y72.892 E181.55517
G0 F9000 X90.924 Y73.599
G1 F3000 X92.075 Y74.751 E181.56793
G0 F9000 X92.075 Y75.458
G1 F3000 X90.924 Y74.307 E181.58069
G0 F9000 X90.924 Y75.014
G1 F3000 X92.075 Y76.165 E181.59345
G0 F9000 X92.075 Y76.872
G1 F3000 X90.924 Y75.721 E181.60620
G0 F9000 X90.924 Y76.428
G1 F3000 X92.075 Y77.579 E181.61896
G0 F9000 X92.075 Y78.286
G1 F3000 X90.924 Y77.135 E181.63172
G0 F9000 X90.924 Y77.842
G1 F3000 X92.075 Y78.993 E181.64448
G0 F9000 X92.075 Y79.700
G1 F3000 X90.924 Y78.549 E181.65724
G0 F9000 X90.924 Y79.256
G1 F3000 X92.075 Y80.407 E181.66999
G0 F9000 X92.075 Y81.115
G1 F3000 X90.924 Y79.963 E181.68276
G0 F9000 X92.075 Y66.972
G1 F3000 X84.027 Y58.925 E181.77196
G0 F9000 X84.734 Y58.925
G1 F3000 X92.075 Y66.265 E181.85332
G0 F9000 X92.075 Y65.558
G1 F3000 X85.441 Y58.925 E181.92685
G0 F9000 X86.148 Y58.925
G1 F3000 X92.075 Y64.851 E181.99254
G0 F9000 X92.075 Y64.144
G1 F3000 X86.856 Y58.925 E182.05039
G0 F9000 X87.563 Y58.925
G1 F3000 X92.075 Y63.437 E182.10040
G0 F9000 X92.075 Y62.730
G1 F3000 X88.270 Y58.925 E182.14257
G0 F9000 X88.977 Y58.925
G1 F3000 X92.075 Y62.023 E182.17691
G0 F9000 X92.075 Y61.316
G1 F3000 X89.684 Y58.925 E182.20342
G0 F9000 X90.391 Y58.925
G1 F3000 X92.075 Y60.608 E182.22208
G0 F9000 X92.075 Y59.901
G1 F3000 X91.098 Y58.925 E182.23290
G0 F9000 X91.805 Y58.925
G1 F3000 X92.075 Y59.194 E182.23589
G0 F9000 X90.924 Y80.670
G1 F3000 X92.075 Y81.822 E182.24865
G0 F9000 X92.075 Y82.529
G1 F3000 X90.924 Y81.378 E182.26141
G0 F9000 X90.924 Y82.085
G1 F3000 X92.075 Y83.236 E182.27417
G0 F9000 X92.075 Y83.943
G1 F3000 X90.924 Y82.792 E182.28692
G0 F9000 X90.924 Y83.499
G1 F3000 X92.075 Y84.650 E182.29968
G0 F9000 X92.075 Y85.357
G1 F3000 X90.924 Y84.206 E182.31244
G0 F9000 X90.924 Y84.913
G1 F3000 X92.075 Y86.064 E182.32520
G0 F9000 X92.075 Y86.771
G1 F3000 X90.924 Y85.620 E182.33796
G0 F9000 X90.924 Y86.327
G1 F3000 X92.075 Y87.479 E182.35072
G0 F9000 X92.075 Y88.186
G1 F3000 X90.924 Y87.034 E182.36348
G0 F9000 X90.924 Y87.742
G1 F3000 X92.075 Y88.893 E182.37624
G0 F9000 X92.075 Y89.600
G1 F3000 X90.924 Y88.449 E182.38900
G0 F9000 X90.924 Y89.156
G1 F3000 X92.075 Y90.307 E182.40176
G0 F9000 X92.075 Y91.014
G1 F3000 X90.924 Y89.863 E182.41452
G0 F9000 X90.924 Y90.570
G1 F3000 X92.075 Y91.721 E182.42727
G0 F9000 X92.075 Y92.428
G1 F3000 X90.924 Y91.277 E182.44003
G0 F9000 X90.924 Y91.984
G1 F3000 X92.075 Y93.135 E182.45279
G0 F9000 X92.075 Y93.842
G1 F3000 X90.924 Y92.691 E182.46555
G0 F9000 X90.449 Y92.924
G1 F3000 X92.075 Y94.550 E182.48357
G0 F9000 X92.075 Y95.257
G1 F3000 X89.742 Y92.924 E182.50943
G0 F9000 X89.035 Y92.924
G1 F3000 X92.075 Y95.964 E182.54313
G0 F9000 X92.075 Y96.671
G1 F3000 X88.328 Y92.924 E182.58466
G0 F9000 X87.621 Y92.924
G1 F3000 X92.075 Y97.378 E182.63403
G0 F9000 X92.075 Y98.085
G1 F3000 X86.914 Y92.924 E182.69123
G0 F9000 X86.206 Y92.924
G1 F3000 X92.075 Y98.792 E182.75628
G0 F9000 X92.075 Y99.499
G1 F3000 X85.499 Y92.924 E182.82916
G0 F9000 X84.792 Y92.924
G1 F3000 X92.075 Y100.206 E182.90989
G0 F9000 X92.075 Y100.914
G1 F3000 X84.085 Y92.924 E182.99845
G0 F9000 X83.378 Y92.924
G1 F3000 X91.527 Y101.073 E183.08877
G0 F9000 X90.820 Y101.073
G1 F3000 X82.671 Y92.924 E183.17910
G0 F9000 X81.964 Y92.924
G1 F3000 X90.113 Y101.073 E183.26942
G0 F9000 X89.406 Y101.073
G1 F3000 X81.257 Y92.924 E183.35975
G0 F9000 X80.550 Y92.924
G1 F3000 X88.699 Y101.073 E183.45008
G0 F9000 X87.992 Y101.073
G1 F3000 X79.842 Y92.924 E183.54041
G0 F9000 X79.135 Y92.924
G1 F3000 X87.285 Y101.073 E183.63074
G0 F9000 X86.578 Y101.073
G1 F3000 X78.428 Y92.924 E183.72107
G0 F9000 X77.721 Y92.924
G1 F3000 X85.871 Y101.073 E183.81140
G0 F9000 X85.163 Y101.073
G1 F3000 X77.014 Y92.924 E183.90172
G0 F9000 X76.307 Y92.924
G1 F3000 X84.456 Y101.073 E183.99205
G0 F9000 X83.749 Y101.073
G1 F3000 X75.600 Y92.924 E184.08238
G0 F9000 X75.424 Y93.456
G1 F3000 X83.042 Y101.073 E184.16681
G0 F9000 X82.335 Y101.073
G1 F3000 X75.424 Y94.163 E184.24341
G0 F9000 X75.424 Y94.870
G1 F3000 X81.628 Y101.073 E184.31217
G0 F9000 X80.921 Y101.073
G1 F3000 X75.424 Y95.577 E184.37309
G0 F9000 X75.424 Y96.284
G1 F3000 X80.214 Y101.073 E184.42618
G0 F9000 X79.507 Y101.073
G1 F3000 X75.424 Y96.991 E184.47143
G0 F9000 X75.424 Y97.698
G1 F3000 X78.799 Y101.073 E184.50884
G0 F9000 X78.092 Y101.073
G1 F3000 X75.424 Y98.405 E184.53841
G0 F9000 X75.236 Y98.924
G1 F3000 X77.385 Y101.073 E184.56223
G0 F9000 X76.678 Y101.073
G1 F3000 X74.529 Y98.924 E184.58605
G0 F9000 X73.822 Y98.924
G1 F3000 X75.971 Y101.073 E184.60987
G0 F9000 X75.264 Y101.073
G1 F3000 X73.115 Y98.924 E184.63369
G0 F9000 X72.408 Y98.924
G1 F3000 X74.557 Y101.073 E184.65751
G0 F9000 X73.850 Y101.073
G1 F3000 X71.701 Y98.924 E184.68133
G0 F9000 X70.994 Y98.924
G1 F3000 X73.143 Y101.073 E184.70515
G0 F9000 X72.436 Y101.073
G1 F3000 X70.287 Y98.924 E184.72897
G0 F9000 X69.580 Y98.924
G1 F3000 X71.728 Y101.073 E184.75279
G0 F9000 X71.021 Y101.073
G1 F3000 X66.424 Y96.476 E184.80374
G0 F9000 X66.424 Y95.769
G1 F3000 X69.575 Y98.919 E184.83866
G0 F9000 X69.575 Y98.212
G1 F3000 X66.424 Y95.062 E184.87358
G0 F9000 X66.424 Y94.355
G1 F3000 X69.575 Y97.505 E184.90850
G0 F9000 X69.575 Y96.798
G1 F3000 X66.424 Y93.648 E184.94343
G0 F9000 X66.424 Y92.941
G1 F3000 X69.575 Y96.091 E184.97835
G0 F9000 X69.575 Y95.384
G1 F3000 X67.115 Y92.924 E185.00561
G0 F9000 X67.822 Y92.924
G1 F3000 X69.575 Y94.677 E185.02504
G0 F9000 X69.575 Y93.970
G1 F3000 X68.529 Y92.924 E185.03664
G0 F9000 X69.236 Y92.924
G1 F3000 X69.575 Y93.263 E185.04040
G0 F9000 X66.424 Y97.184
G1 F3000 X70.314 Y101.073 E185.08351
G0 F9000 X69.607 Y101.073
G1 F3000 X66.424 Y97.891 E185.11878
G0 F9000 X66.424 Y98.598
G1 F3000 X68.900 Y101.073 E185.14622
G0 F9000 X68.193 Y101.073
G1 F3000 X66.424 Y99.305 E185.16583
G0 F9000 X66.424 Y100.012
G1 F3000 X67.486 Y101.073 E185.17759
G0 F9000 X66.779 Y101.073
G1 F3000 X66.424 Y100.719 E185.18152
G1 F2400 E180.68152
G0 F9000 X64.993 Y57.375
;TYPE:SUPPORT
G1 F2400 E185.18152
G1 F3000 X64.993 Y53.525 E185.21170
G0 F9000 X64.993 Y53.700
G0 X68.326 Y53.700
G0 X68.326 Y53.525
G1 F3000 X68.326 Y57.375 E185.24187
G0 F9000 X68.326 Y57.200
G0 X71.659 Y57.200
G0 X71.659 Y57.375
G1 F3000 X71.659 Y53.525 E185.27205
G0 F9000 X71.659 Y53.700
G0 X74.992 Y53.700
G0 X74.992 Y53.525
G1 F3000 X74.992 Y57.375 E185.30222
G0 F9000 X74.992 Y57.200
G0 X78.325 Y57.200
G0 X78.325 Y57.375
G1 F3000 X78.325 Y53.525 E185.33240
G0 F9000 X78.325 Y53.700
G0 X81.658 Y53.700
G0 X81.658 Y53.525
G1 F3000 X81.658 Y57.375 E185.36257
G0 F9000 X81.658 Y57.200
G0 X84.991 Y57.200
G0 X84.991 Y57.375
G1 F3000 X84.991 Y53.525 E185.39275
G0 F9000 X84.991 Y53.700
G0 X88.324 Y53.700
G0 X88.324 Y53.525
G1 F3000 X88.324 Y57.375 E185.42292
G0 F9000 X88.324 Y57.200
G0 X91.657 Y57.200
G0 X91.657 Y57.375
G1 F3000 X91.657 Y53.525 E185.45310
G1 F2400 E180.95310
G0 F9000 X88.324 Y68.625
G1 F2400 E185.45310
G1 F3000 X88.324 Y91.375 E185.63141
G0 F9000 X88.324 Y91.200
G0 X84.991 Y91.200
G0 X84.991 Y91.375
G1 F3000 X84.991 Y68.625 E185.80971
G0 F9000 X84.991 Y68.800
G0 X81.658 Y68.800
G0 X81.658 Y68.625
G1 F3000 X81.658 Y91.375 E185.98802
G0 F9000 X81.658 Y91.200
G0 X78.325 Y91.200
G0 X78.325 Y91.375
G1 F3000 X78.325 Y68.625 E186.16633
G0 F9000 X78.325 Y68.800
G0 X74.992 Y68.800
G0 X74.992 Y68.625
G1 F3000 X74.992 Y91.375 E186.34464
G0 F9000 X74.992 Y91.200
G0 X71.659 Y91.200
G0 X71.659 Y91.375
G1 F3000 X71.659 Y68.625 E186.52295
G0 F9000 X71.659 Y68.800
G0 X68.326 Y68.800
G0 X68.326 Y68.625
G1 F3000 X68.326 Y91.375 E186.70126
G0 F9000 X68.326 Y91.200
G0 X64.993 Y91.200
G0 X64.993 Y91.375
G1 F3000 X64.993 Y68.625 E186.87957
G1 F2400 E182.37957
G0 F9000 X94.990 Y77.130
G1 F2400 E186.87957
G1 F3000 X94.990 Y82.821 E186.92417
G1 F2400 E182.42417
G0 F9000 X91.657 Y102.625
G1 F2400 E186.92417
G1 F3000 X91.657 Y106.675 E186.95591
G0 F9000 X91.657 Y106.500
G0 X88.324 Y106.500
G0 X88.324 Y106.675
G1 F3000 X88.324 Y102.625 E186.98766
G0 F9000 X88.324 Y102.800
G0 X84.991 Y102.800
G0 X84.991 Y102.625
G1 F3000 X84.991 Y106.675 E187.01940
G0 F9000 X84.991 Y106.500
G0 X81.658 Y106.500
G0 X81.658 Y106.675
G1 F3000 X81.658 Y102.625 E187.05114
G0 F9000 X81.658 Y102.800
G0 X78.325 Y102.800
G0 X78.325 Y102.625
G1 F3000 X78.325 Y106.675 E187.08288
G0 F9000 X78.325 Y106.500
G0 X74.992 Y106.500
G0 X74.992 Y106.675
G1 F3000 X74.992 Y102.625 E187.11463
G0 F9000 X74.992 Y102.800
G0 X71.659 Y102.800
G0 X71.659 Y102.625
G1 F3000 X71.659 Y106.675 E187.14637
G0 F9000 X71.659 Y106.500
G0 X68.326 Y106.500
G0 X68.326 Y106.675
G1 F3000 X68.326 Y102.625 E187.17811
G0 F9000 X68.326 Y102.800
G0 X64.993 Y102.800
G0 X64.993 Y102.625
G1 F3000 X64.993 Y106.675 E187.20985
;LAYER:5
G1 F2400 E182.70985
G0 F9000 X66.250 Y101.250 Z0.800
;TYPE:WALL-INNER
G1 F2400 E187.20985
G1 F3000 X66.250 Y92.750 E187.27648
G1 X69.750 Y92.750 E187.30391
G1 X69.750 Y98.750 E187.35093
G1 X75.250 Y98.750 E187.39404
G1 X75.250 Y92.750 E187.44107
G1 X90.750 Y92.750 E187.56255
G1 X90.750 Y67.250 E187.76242
G1 X75.250 Y67.250 E187.88390
G1 X75.250 Y61.250 E187.93093
G1 X69.750 Y61.250 E187.97403
G1 X69.750 Y67.250 E188.02106
G1 X66.250 Y67.250 E188.04849
G1 X66.250 Y58.750 E188.11511
G1 X92.250 Y58.750 E188.31889
G1 X92.250 Y101.250 E188.65200
G1 X66.250 Y101.250 E188.85578
G0 F9000 X65.750 Y101.750
;TYPE:WALL-OUTER
G1 F3000 X65.750 Y92.250 E188.93024
G1 X70.250 Y92.250 E188.96551
G1 X70.250 Y98.250 E189.01253
G1 X74.750 Y98.250 E189.04780
G1 X74.750 Y92.250 E189.09483
G1 X90.250 Y92.250 E189.21631
G1 X90.250 Y67.750 E189.40834
G1 X74.750 Y67.750 E189.52982
G1 X74.750 Y61.750 E189.57685
G1 X70.250 Y61.750 E189.61212
G1 X70.250 Y67.750 E189.65915
G1 X65.750 Y67.750 E189.69442
G1 X65.750 Y58.250 E189.76887
G1 X92.750 Y58.250 E189.98049
G1 X92.750 Y101.750 E190.32143
G1 X65.750 Y101.750 E190.53305
G0 F9000 X66.424 Y100.805
;TYPE:SKIN
G1 F3000 X69.575 Y97.655 E190.56797
G0 F9000 X69.575 Y98.362
G1 F3000 X66.863 Y101.074 E190.59803
G0 F9000 X67.570 Y101.074
G1 F3000 X69.720 Y98.924 E190.62187
G0 F9000 X70.427 Y98.924
G1 F3000 X68.277 Y101.074 E190.64570
G0 F9000 X68.984 Y101.074
G1 F3000 X71.134 Y98.924 E190.66953
G0 F9000 X71.842 Y98.924
G1 F3000 X69.691 Y101.074 E190.69336
G0 F9000 X70.398 Y101.074
G1 F3000 X72.549 Y98.924 E190.71720
G0 F9000 X73.256 Y98.924
G1 F3000 X71.105 Y101.074 E190.74104
G0 F9000 X71.813 Y101.074
G1 F3000 X73.963 Y98.924 E190.76487
G0 F9000 X74.670 Y98.924
G1 F3000 X72.520 Y101.074 E190.78870
G0 F9000 X73.227 Y101.074
G1 F3000 X75.377 Y98.924 E190.81253
G0 F9000 X75.424 Y98.876
G1 F3000 X81.377 Y92.924 E190.87851
G0 F9000 X82.084 Y92.924
G1 F3000 X73.934 Y101.074 E190.96885
G0 F9000 X74.641 Y101.074
G1 F3000 X82.791 Y92.924 E191.05918
G0 F9000 X83.498 Y92.924
G1 F3000 X75.348 Y101.074 E191.14952
G0 F9000 X76.055 Y101.074
G1 F3000 X84.205 Y92.924 E191.23986
G0 F9000 X84.912 Y92.924
G1 F3000 X76.762 Y101.074 E191.33019
G0 F9000 X77.469 Y101.074
G1 F3000 X85.620 Y92.924 E191.42053
G0 F9000 X86.327 Y92.924
G1 F3000 X78.177 Y101.074 E191.51087
G0 F9000 X78.884 Y101.074
G1 F3000 X87.034 Y92.924 E191.60121
G0 F9000 X87.741 Y92.924
G1 F3000 X79.591 Y101.074 E191.69154
G0 F9000 X69.859 Y98.641
G0 X69.575 Y96.948
G1 F3000 X66.424 Y100.098 E191.72646
G0 F9000 X66.424 Y99.391
G1 F3000 X69.575 Y96.241 E191.76139
G0 F9000 X69.575 Y95.534
G1 F3000 X66.424 Y98.684 E191.79631
G0 F9000 X66.424 Y97.977
G1 F3000 X69.575 Y94.827 E191.83123
G0 F9000 X69.575 Y94.120
G1 F3000 X66.424 Y97.270 E191.86615
G0 F9000 X66.424 Y96.563
G1 F3000 X69.575 Y93.413 E191.90107
G0 F9000 X69.357 Y92.923
G1 F3000 X66.424 Y95.856 E191.93358
G0 F9000 X66.424 Y95.148
G1 F3000 X68.650 Y92.923 E191.95825
G0 F9000 X67.943 Y92.923
G1 F3000 X66.424 Y94.441 E191.97508
G0 F9000 X66.424 Y93.734
G1 F3000 X67.235 Y92.923 E191.98407
G0 F9000 X66.528 Y92.923
G1 F3000 X66.424 Y93.027 E191.98522
G0 F9000 X69.859 Y98.641
G0 X75.141 Y98.641
G0 X75.424 Y93.220
G1 F3000 X75.720 Y92.924 E191.98850
G0 F9000 X76.427 Y92.924
G1 F3000 X75.424 Y93.927 E191.99962
G0 F9000 X75.424 Y94.634
G1 F3000 X77.134 Y92.924 E192.01857
G0 F9000 X77.841 Y92.924
G1 F3000 X75.424 Y95.341 E192.04536
G0 F9000 X75.424 Y96.048
G1 F3000 X78.548 Y92.924 E192.07999
G0 F9000 X79.256 Y92.924
G1 F3000 X75.424 Y96.755 E192.12246
G0 F9000 X75.424 Y97.462
G1 F3000 X79.963 Y92.924 E192.17277
G0 F9000 X80.670 Y92.924
G1 F3000 X75.424 Y98.169 E192.23091
G0 F9000 X80.298 Y101.074
G1 F3000 X88.448 Y92.924 E192.32124
G0 F9000 X89.155 Y92.924
G1 F3000 X81.005 Y101.074 E192.41158
G0 F9000 X81.712 Y101.074
G1 F3000 X89.862 Y92.924 E192.50192
G0 F9000 X90.569 Y92.924
G1 F3000 X82.419 Y101.074 E192.59225
G0 F9000 X83.126 Y101.074
G1 F3000 X92.074 Y92.126 E192.69143
G0 F9000 X92.074 Y92.833
G1 F3000 X83.833 Y101.074 E192.78278
G0 F9000 X84.540 Y101.074
G1 F3000 X92.074 Y93.541 E192.86628
G0 F9000 X92.074 Y94.248
G1 F3000 X85.248 Y101.074 E192.94194
G0 F9000 X85.955 Y101.074
G1 F3000 X92.074 Y94.955 E193.00977
G0 F9000 X92.074 Y95.662
G1 F3000 X86.662 Y101.074 E193.06976
G0 F9000 X87.369 Y101.074
G1 F3000 X92.074 Y96.369 E193.12191
G0 F9000 X92.074 Y97.076
G1 F3000 X88.076 Y101.074 E193.16622
G0 F9000 X88.783 Y101.074
G1 F3000 X92.074 Y97.783 E193.20270
G0 F9000 X92.074 Y98.490
G1 F3000 X89.490 Y101.074 E193.23134
G0 F9000 X90.197 Y101.074
G1 F3000 X92.074 Y99.197 E193.25215
G0 F9000 X92.074 Y99.904
G1 F3000 X90.904 Y101.074 E193.26512
G0 F9000 X91.612 Y101.074
G1 F3000 X92.074 Y100.612 E193.27024
G0 F9000 X90.924 Y92.569
G1 F3000 X92.074 Y91.419 E193.28298
G0 F9000 X92.074 Y90.712
G1 F3000 X90.924 Y91.862 E193.29573
G0 F9000 X90.924 Y91.155
G1 F3000 X92.074 Y90.005 E193.30848
G0 F9000 X92.074 Y89.298
G1 F3000 X90.924 Y90.448 E193.32122
G0 F9000 X90.924 Y89.741
G1 F3000 X92.074 Y88.591 E193.33397
G0 F9000 X92.074 Y87.884
G1 F3000 X90.924 Y89.033 E193.34671
G0 F9000 X90.924 Y88.326
G1 F3000 X92.074 Y87.177 E193.35945
G0 F9000 X92.074 Y86.469
G1 F3000 X90.924 Y87.619 E193.37220
G0 F9000 X90.924 Y86.912
G1 F3000 X92.074 Y85.762 E193.38495
G0 F9000 X92.074 Y85.055
G1 F3000 X90.924 Y86.205 E193.39769
G0 F9000 X90.924 Y85.498
G1 F3000 X92.074 Y84.348 E193.41044
G0 F9000 X92.074 Y83.641
G1 F3000 X90.924 Y84.791 E193.42319
G0 F9000 X90.924 Y84.084
G1 F3000 X92.074 Y82.934 E193.43593
G0 F9000 X92.074 Y82.227
G1 F3000 X90.924 Y83.377 E193.44868
G0 F9000 X90.924 Y82.669
G1 F3000 X92.074 Y81.520 E193.46142
G0 F9000 X92.074 Y80.813
G1 F3000 X90.924 Y81.962 E193.47416
G0 F9000 X90.924 Y81.255
G1 F3000 X92.074 Y80.106 E193.48691
G0 F9000 X92.074 Y79.398
G1 F3000 X90.924 Y80.548 E193.49965
G0 F9000 X90.924 Y79.841
G1 F3000 X92.074 Y78.691 E193.51240
G0 F9000 X92.074 Y77.984
G1 F3000 X90.924 Y79.134 E193.52515
G0 F9000 X90.924 Y78.427
G1 F3000 X92.074 Y77.277 E193.53789
G0 F9000 X92.074 Y76.570
G1 F3000 X90.924 Y77.720 E193.55064
G0 F9000 X90.924 Y77.013
G1 F3000 X92.074 Y75.863 E193.56339
G0 F9000 X92.074 Y75.156
G1 F3000 X90.924 Y76.306 E193.57613
G0 F9000 X90.924 Y75.598
G1 F3000 X92.074 Y74.449 E193.58887
G0 F9000 X92.074 Y73.742
G1 F3000 X90.924 Y74.891 E193.60162
G0 F9000 X90.924 Y74.184
G1 F3000 X92.074 Y73.034 E193.61436
G0 F9000 X92.074 Y72.327
G1 F3000 X90.924 Y73.477 E193.62711
G0 F9000 X90.924 Y72.770
G1 F3000 X92.074 Y71.620 E193.63986
G0 F9000 X92.074 Y70.913
G1 F3000 X90.924 Y72.063 E193.65260
G0 F9000 X90.924 Y71.356
G1 F3000 X92.074 Y70.206 E193.66535
G0 F9000 X92.074 Y69.499
G1 F3000 X90.924 Y70.649 E193.67810
G0 F9000 X90.924 Y69.942
G1 F3000 X92.074 Y68.792 E193.69084
G0 F9000 X92.074 Y68.085
G1 F3000 X90.924 Y69.234 E193.70359
G0 F9000 X90.924 Y68.527
G1 F3000 X92.074 Y67.378 E193.71633
G0 F9000 X92.074 Y66.670
G1 F3000 X90.924 Y67.820 E193.72907
G0 F9000 X90.924 Y67.113
G1 F3000 X92.074 Y65.963 E193.74182
G0 F9000 X92.074 Y65.256
G1 F3000 X90.256 Y67.074 E193.76197
G0 F9000 X89.549 Y67.074
G1 F3000 X92.074 Y64.549 E193.78996
G0 F9000 X92.074 Y63.842
G1 F3000 X88.842 Y67.074 E193.82578
G0 F9000 X88.135 Y67.074
G1 F3000 X92.074 Y63.135 E193.86944
G0 F9000 X92.074 Y62.428
G1 F3000 X87.428 Y67.074 E193.92094
G0 F9000 X86.720 Y67.074
G1 F3000 X92.074 Y61.721 E193.98028
G0 F9000 X92.074 Y61.014
G1 F3000 X86.013 Y67.074 E194.04746
G0 F9000 X85.306 Y67.074
G1 F3000 X92.074 Y60.307 E194.12247
G0 F9000 X92.074 Y59.599
G1 F3000 X84.599 Y67.074 E194.20532
G0 F9000 X83.892 Y67.074
G1 F3000 X92.042 Y58.924 E194.29566
G0 F9000 X91.335 Y58.924
G1 F3000 X83.185 Y67.074 E194.38600
G0 F9000 X82.478 Y67.074
G1 F3000 X90.628 Y58.924 E194.47633
G0 F9000 X89.921 Y58.924
G1 F3000 X81.771 Y67.074 E194.56667
G0 F9000 X81.064 Y67.074
G1 F3000 X89.214 Y58.924 E194.65701
G0 F9000 X88.507 Y58.924
G1 F3000 X80.357 Y67.074 E194.74734
G0 F9000 X79.649 Y67.074
G1 F3000 X87.800 Y58.924 E194.83768
G0 F9000 X87.092 Y58.924
G1 F3000 X78.942 Y67.074 E194.92802
G0 F9000 X78.235 Y67.074
G1 F3000 X86.385 Y58.924 E195.01836
G0 F9000 X85.678 Y58.924
G1 F3000 X77.528 Y67.074 E195.10869
G0 F9000 X76.821 Y67.074
G1 F3000 X84.971 Y58.924 E195.19903
G0 F9000 X84.264 Y58.924
G1 F3000 X76.114 Y67.074 E195.28937
G0 F9000 X75.424 Y67.057
G1 F3000 X83.557 Y58.924 E195.37952
G0 F9000 X82.850 Y58.924
G1 F3000 X75.424 Y66.350 E195.46183
G0 F9000 X75.424 Y65.643
G1 F3000 X82.143 Y58.924 E195.53630
G0 F9000 X81.436 Y58.924
G1 F3000 X75.424 Y64.936 E195.60294
G0 F9000 X75.424 Y64.229
G1 F3000 X80.728 Y58.924 E195.66174
G0 F9000 X80.021 Y58.924
G1 F3000 X75.424 Y63.522 E195.71270
G0 F9000 X75.424 Y62.815
G1 F3000 X79.314 Y58.924 E195.75582
G0 F9000 X78.607 Y58.924
G1 F3000 X75.424 Y62.108 E195.79111
G0 F9000 X75.424 Y61.400
G1 F3000 X77.900 Y58.924 E195.81855
G0 F9000 X77.193 Y58.924
G1 F3000 X75.042 Y61.075 E195.84239
G0 F9000 X74.335 Y61.075
G1 F3000 X76.486 Y58.924 E195.86623
G0 F9000 X75.779 Y58.924
G1 F3000 X73.628 Y61.075 E195.89008
G0 F9000 X72.921 Y61.075
G1 F3000 X75.072 Y58.924 E195.91392
G0 F9000 X74.365 Y58.924
G1 F3000 X72.213 Y61.075 E195.93777
G0 F9000 X71.506 Y61.075
G1 F3000 X73.657 Y58.924 E195.96161
G0 F9000 X72.950 Y58.924
G1 F3000 X70.799 Y61.075 E195.98545
G0 F9000 X70.092 Y61.075
G1 F3000 X72.243 Y58.924 E196.00929
G0 F9000 X71.536 Y58.924
G1 F3000 X66.424 Y64.036 E196.06596
G0 F9000 X66.424 Y64.743
G1 F3000 X69.574 Y61.593 E196.10087
G0 F9000 X69.574 Y62.301
G1 F3000 X66.424 Y65.450 E196.13578
G0 F9000 X66.424 Y66.157
G1 F3000 X69.574 Y63.008 E196.17069
G0 F9000 X69.574 Y63.715
G1 F3000 X66.424 Y66.864 E196.20560
G0 F9000 X66.921 Y67.074
G1 F3000 X69.574 Y64.422 E196.23500
G0 F9000 X69.574 Y65.129
G1 F3000 X67.629 Y67.074 E196.25656
G0 F9000 X68.335 Y67.075
G1 F3000 X69.574 Y65.836 E196.27029
G0 F9000 X69.574 Y66.543
G1 F3000 X69.042 Y67.075 E196.27619
G0 F9000 X66.424 Y63.329
G1 F3000 X70.829 Y58.924 E196.32502
G0 F9000 X70.122 Y58.924
G1 F3000 X66.424 Y62.622 E196.36601
G0 F9000 X66.424 Y61.914
G1 F3000 X69.415 Y58.924 E196.39915
G0 F9000 X68.708 Y58.924
G1 F3000 X66.424 Y61.207 E196.42446
G0 F9000 X66.424 Y60.500
G1 F3000 X68.001 Y58.924 E196.44194
G0 F9000 X67.293 Y58.924
G1 F3000 X66.424 Y59.793 E196.45157
G0 F9000 X66.424 Y59.086
G1 F3000 X66.586 Y58.924 E196.45337
G1 F2400 E191.95337
G0 F9000 X64.993 Y102.625
;TYPE:SUPPORT
G1 F2400 E196.45337
G1 F3000 X64.993 Y106.675 E196.48511
G0 F9000 X64.993 Y106.500
G0 X68.326 Y106.500
G0 X68.326 Y106.675
G1 F3000 X68.326 Y102.625 E196.51685
G0 F9000 X68.326 Y102.800
G0 X71.659 Y102.800
G0 X71.659 Y102.625
G1 F3000 X71.659 Y106.675 E196.54859
G0 F9000 X71.659 Y106.500
G0 X74.992 Y106.500
G0 X74.992 Y106.675
G1 F3000 X74.992 Y102.625 E196.58034
G0 F9000 X74.992 Y102.800
G0 X78.325 Y102.800
G0 X78.325 Y102.625
G1 F3000 X78.325 Y106.675 E196.61208
G0 F9000 X78.325 Y106.500
G0 X81.658 Y106.500
G0 X81.658 Y106.675
G1 F3000 X81.658 Y102.625 E196.64382
