M190 S70.000000
M109 S210.000000
;This G-Code has been generated specifically for the LulzBot Mini with standard extruder
M73 P0 ; clear GLCD progress bar
M75 ; Start GLCD Timer
G26 ; clear potential 'probe fail' condition
M107 ; disable fans
M420 S0 ; disable leveling matrix
G90 ; absolute positioning
M82 ; set extruder to absolute mode
G92 E0 ; set extruder position to 0
M140 S?material_bed_temperature? ; start bed heating up
G28 ; home all axes
G0 X0 Y187 Z156 F200 ; move away from endstops
M109 R?material_soften_temperature? ;
G1 E-30 F75 ; retract filament
M109 R?material_wipe_temperature? ; wait for extruder to reach wiping temp
G1 X45 Y173 F11520 ; move above wiper pad
G1 Z0 F1200 ; push nozzle into wiper
G1 X42 Y173 Z2 F4000             ; wiping
G1 X52 Y171 Z2 F4000             ; wiping
G1 X42 Y173 Z2 F4000               ; wiping
G1 X52 Y171 F4000                  ; wiping
G1 X42 Y173 F4000                  ; wiping
G1 X52 Y171 F4000                  ; wiping
G1 X42 Y173 F4000                  ; wiping
G1 X52 Y171 F4000                  ; wiping
G1 X57 Y173 F4000                  ; wiping
G1 X77 Y171 F4000                  ; wiping
G1 X57 Y173 F4000                  ; wiping
G1 X77 Y171 F4000                  ; wiping
G1 X57 Y173 F4000                  ; wiping
G1 X87 Y171 F4000                  ; wiping
G1 X77 Y173 F4000                  ; wiping
G1 X97 Y171 F4000                  ; wiping
G1 X77 Y173 F4000                  ; wiping
G1 X97 Y171 F4000                  ; wiping
G1 X77 Y173 F4000                  ; wiping
G1 X97 Y171 F4000                  ; wiping
G1 X107 Y173 F4000                 ; wiping
G1 X97 Y171 F4000                  ; wiping
G1 X107 Y173 F4000                 ; wiping
G1 X97 Y171 F4000                  ; wiping
G1 X107 Y173 F4000                 ; wiping
G1 X112 Y171 Z2 F1000           ; wiping
G1 Z10 ; raise extruder
G28 X0 Y0 ; home X and Y
G0 X0 Y187 F200 ; move away from endstops
M109 R?material_probe_temperature? ; wait for extruder to reach probe temp
M204 S300 ; set probing acceleration
G29 ; start auto-leveling sequence
M420 S1              ; enable leveling matrix
M425 Z			     ; use measured Z backlash for compensation
M425 Z F0		     ; turn off measured Z backlash compensation. (if activated in the quality settings, this command will automatically be ignored)
M204 S2000 ; restore standard acceleration
G28 X0 Y0 ; re-home to account for build variance of earlier mini builds
G0 X0 Y187 F200 ; move away from endstops
G0 Y152 F4000 ; move in front of wiper pad
G4 S1 ; pause
M400 ; wait for moves to finish
M117 Heating... ; progress indicator message on LCD
M109 R?material_print_temperature? ; wait for extruder to reach printing temp
M190 S?material_bed_temperature_layer_0? ; wait for bed to reach printing temp
G1 Z2 E0 F75 ; prime tiny bit of filament into the nozzle
M117 Mini Printing... ; progress indicator message on LCD

;Layer count: 148
;LAYER:0
M107
G0 F9000 X60.750 Y55.250 Z0.300
;TYPE:SKIRT
G1 F1200 X99.250 Y55.250 E0.90526
G1 X99.250 Y104.750 E2.06916
G1 X60.750 Y104.750 E2.97442
G1 X60.750 Y55.250 E4.13832
G1 F2400 E-0.36168
G0 F9000 X64.750 Y59.250
;TYPE:WALL-INNER
G1 F2400 E4.13832
G1 F1200 X95.250 Y59.250 E4.85547
G1 X95.250 Y100.750 E5.83127
G1 X64.750 Y100.750 E6.54842
G1 X64.750 Y59.250 E7.52422
G0 F9000 X64.250 Y58.750
;TYPE:WALL-OUTER
G1 F1200 X95.750 Y58.750 E8.26489
G1 X95.750 Y101.250 E9.26420
G1 X64.250 Y101.250 E10.00486
G1 X64.250 Y58.750 E11.00418
G0 F9000 X64.924 Y59.621
;TYPE:SKIN
G1 F1200 X95.074 Y89.771 E12.00674
G0 F9000 X95.074 Y90.478
G1 F1200 X64.924 Y60.328 E13.00931
G0 F9000 X64.924 Y61.035
G1 F1200 X95.074 Y91.185 E14.01188
G0 F9000 X95.074 Y91.892
G1 F1200 X64.924 Y61.742 E15.01445
G0 F9000 X64.924 Y62.449
G1 F1200 X95.074 Y92.599 E16.01702
G0 F9000 X95.074 Y93.306
G1 F1200 X64.924 Y63.156 E17.01959
G0 F9000 X64.924 Y63.863
G1 F1200 X95.074 Y94.014 E18.02217
G0 F9000 X95.074 Y94.721
G1 F1200 X64.924 Y64.570 E19.02476
G0 F9000 X64.924 Y65.277
G1 F1200 X95.074 Y95.428 E20.02734
G0 F9000 X95.074 Y96.135
G1 F1200 X64.924 Y65.985 E21.02991
G0 F9000 X64.924 Y66.692
G1 F1200 X95.074 Y96.842 E22.03248
G0 F9000 X95.074 Y97.549
G1 F1200 X64.924 Y67.399 E23.03505
G0 F9000 X64.924 Y68.106
G1 F1200 X95.074 Y98.256 E24.03761
G0 F9000 X95.074 Y98.963
G1 F1200 X64.924 Y68.813 E25.04018
G0 F9000 X64.924 Y69.520
G1 F1200 X95.074 Y99.670 E26.04275
G0 F9000 X95.074 Y89.064
G1 F1200 X65.434 Y59.424 E27.02836
G0 F9000 X66.142 Y59.424
G1 F1200 X95.074 Y88.357 E27.99044
G0 F9000 X95.074 Y87.650
G1 F1200 X66.849 Y59.424 E28.92902
G0 F9000 X67.556 Y59.424
G1 F1200 X95.074 Y86.943 E29.84408
G0 F9000 X95.074 Y86.235
G1 F1200 X68.263 Y59.424 E30.73562
G0 F9000 X68.970 Y59.424
G1 F1200 X95.074 Y85.528 E31.60365
G0 F9000 X95.074 Y84.821
G1 F1200 X69.677 Y59.424 E32.44816
G0 F9000 X70.384 Y59.424
G1 F1200 X95.074 Y84.114 E33.26917
G0 F9000 X95.074 Y83.407
G1 F1200 X71.091 Y59.424 E34.06667
G0 F9000 X71.798 Y59.424
G1 F1200 X95.074 Y82.700 E34.84066
G0 F9000 X95.074 Y81.993
G1 F1200 X72.506 Y59.424 E35.59112
G0 F9000 X73.213 Y59.424
G1 F1200 X95.074 Y81.286 E36.31808
G0 F9000 X95.074 Y80.579
G1 F1200 X73.920 Y59.424 E37.02152
G0 F9000 X74.627 Y59.424
G1 F1200 X95.074 Y79.871 E37.70144
G0 F9000 X95.074 Y79.164
G1 F1200 X75.334 Y59.424 E38.35785
G0 F9000 X76.041 Y59.424
G1 F1200 X95.074 Y78.457 E38.99075
G0 F9000 X95.074 Y77.750
G1 F1200 X76.748 Y59.424 E39.60013
G0 F9000 X77.455 Y59.424
G1 F1200 X95.074 Y77.043 E40.18601
G0 F9000 X95.074 Y76.336
G1 F1200 X78.162 Y59.424 E40.74838
G0 F9000 X78.869 Y59.424
G1 F1200 X95.074 Y75.629 E41.28724
G0 F9000 X95.074 Y74.922
G1 F1200 X79.577 Y59.424 E41.80258
G0 F9000 X80.284 Y59.424
G1 F1200 X95.074 Y74.215 E42.29440
G0 F9000 X95.074 Y73.507
G1 F1200 X80.991 Y59.424 E42.76270
G0 F9000 X81.698 Y59.424
G1 F1200 X95.074 Y72.800 E43.20748
G0 F9000 X95.074 Y72.093
G1 F1200 X82.405 Y59.424 E43.62876
G0 F9000 X83.112 Y59.424
G1 F1200 X95.074 Y71.386 E44.02653
G0 F9000 X95.074 Y70.679
G1 F1200 X83.819 Y59.424 E44.40079
G0 F9000 X84.526 Y59.424
G1 F1200 X95.074 Y69.972 E44.75154
G0 F9000 X95.074 Y69.265
G1 F1200 X85.233 Y59.424 E45.07878
G0 F9000 X85.941 Y59.424
G1 F1200 X95.074 Y68.558 E45.38249
G0 F9000 X95.074 Y67.851
G1 F1200 X86.648 Y59.424 E45.66270
G0 F9000 X87.355 Y59.424
G1 F1200 X95.074 Y67.144 E45.91939
G0 F9000 X95.074 Y66.436
G1 F1200 X88.062 Y59.424 E46.15256
G0 F9000 X88.769 Y59.424
G1 F1200 X95.074 Y65.729 E46.36222
G0 F9000 X95.074 Y65.022
G1 F1200 X89.476 Y59.424 E46.54836
G0 F9000 X90.183 Y59.424
G1 F1200 X95.074 Y64.315 E46.71100
G0 F9000 X95.074 Y63.608
G1 F1200 X90.890 Y59.424 E46.85013
G0 F9000 X91.597 Y59.424
G1 F1200 X95.074 Y62.901 E46.96575
G0 F9000 X95.074 Y62.194
G1 F1200 X92.305 Y59.424 E47.05785
G0 F9000 X93.012 Y59.424
G1 F1200 X95.074 Y61.487 E47.12643
G0 F9000 X95.074 Y60.780
G1 F1200 X93.719 Y59.424 E47.17150
G0 F9000 X94.426 Y59.424
G1 F1200 X95.074 Y60.072 E47.19305
G0 F9000 X64.924 Y70.227
G1 F1200 X95.074 Y100.378 E48.19564
G0 F9000 X94.564 Y100.574
G1 F1200 X64.924 Y70.934 E49.18125
G0 F9000 X64.924 Y71.641
G1 F1200 X93.857 Y100.574 E50.14334
G0 F9000 X93.150 Y100.574
G1 F1200 X64.924 Y72.349 E51.08192
G0 F9000 X64.924 Y73.056
G1 F1200 X92.442 Y100.574 E51.99697
G0 F9000 X91.735 Y100.574
G1 F1200 X64.924 Y73.763 E52.88850
G0 F9000 X64.924 Y74.470
G1 F1200 X91.028 Y100.574 E53.75653
G0 F9000 X90.321 Y100.574
G1 F1200 X64.924 Y75.177 E54.60105
G0 F9000 X64.924 Y75.884
G1 F1200 X89.614 Y100.574 E55.42206
G0 F9000 X88.907 Y100.574
G1 F1200 X64.924 Y76.591 E56.21956
G0 F9000 X64.924 Y77.298
G1 F1200 X88.200 Y100.574 E56.99355
G0 F9000 X87.493 Y100.574
G1 F1200 X64.924 Y78.005 E57.74403
G0 F9000 X64.924 Y78.713
G1 F1200 X86.786 Y100.574 E58.47098
G0 F9000 X86.078 Y100.574
G1 F1200 X64.924 Y79.420 E59.17441
G0 F9000 X64.924 Y80.127
G1 F1200 X85.371 Y100.574 E59.85432
G0 F9000 X84.664 Y100.574
G1 F1200 X64.924 Y80.834 E60.51073
G0 F9000 X64.924 Y81.541
G1 F1200 X83.957 Y100.574 E61.14363
G0 F9000 X83.250 Y100.574
G1 F1200 X64.924 Y82.248 E61.75302
G0 F9000 X64.924 Y82.955
G1 F1200 X82.543 Y100.574 E62.33890
G0 F9000 X81.836 Y100.574
G1 F1200 X64.924 Y83.662 E62.90127
G0 F9000 X64.924 Y84.369
G1 F1200 X81.129 Y100.574 E63.44013
G0 F9000 X80.422 Y100.574
G1 F1200 X64.924 Y85.076 E63.95548
G0 F9000 X64.924 Y85.784
G1 F1200 X79.714 Y100.574 E64.44728
G0 F9000 X79.007 Y100.574
G1 F1200 X64.924 Y86.491 E64.91558
G0 F9000 X64.924 Y87.198
G1 F1200 X78.300 Y100.574 E65.36037
G0 F9000 X77.593 Y100.574
G1 F1200 X64.924 Y87.905 E65.78165
G0 F9000 X64.924 Y88.612
G1 F1200 X76.886 Y100.574 E66.17942
G0 F9000 X76.179 Y100.574
G1 F1200 X64.924 Y89.319 E66.55368
G0 F9000 X64.924 Y90.026
G1 F1200 X75.472 Y100.574 E66.90442
G0 F9000 X74.765 Y100.574
G1 F1200 X64.924 Y90.733 E67.23166
G0 F9000 X64.924 Y91.440
G1 F1200 X74.058 Y100.574 E67.53539
G0 F9000 X73.351 Y100.574
G1 F1200 X64.924 Y92.148 E67.81560
G0 F9000 X64.924 Y92.855
G1 F1200 X72.643 Y100.574 E68.07228
G0 F9000 X71.936 Y100.574
G1 F1200 X64.924 Y93.562 E68.30544
G0 F9000 X64.924 Y94.269
G1 F1200 X71.229 Y100.574 E68.51510
G0 F9000 X70.522 Y100.574
G1 F1200 X64.924 Y94.976 E68.70125
G0 F9000 X64.924 Y95.683
G1 F1200 X69.815 Y100.574 E68.86389
G0 F9000 X69.108 Y100.574
G1 F1200 X64.924 Y96.390 E69.00302
G0 F9000 X64.924 Y97.097
G1 F1200 X68.401 Y100.574 E69.11864
G0 F9000 X67.694 Y100.574
G1 F1200 X64.924 Y97.804 E69.21075
G0 F9000 X64.924 Y98.511
G1 F1200 X66.987 Y100.574 E69.27935
G0 F9000 X66.279 Y100.574
G1 F1200 X64.924 Y99.219 E69.32441
G0 F9000 X64.924 Y99.926
G1 F1200 X65.572 Y100.574 E69.34595
;LAYER:1
M106 S127
G0 F9000 X64.750 Y100.750 Z0.400
;TYPE:WALL-INNER
G1 F1620 X64.750 Y59.250 E69.67122
G1 X95.250 Y59.250 E69.91027
G1 X95.250 Y100.750 E70.23554
G1 X64.750 Y100.750 E70.47459
G0 F9000 X64.250 Y101.250
;TYPE:WALL-OUTER
G1 F1620 X64.250 Y58.750 E70.80769
G1 X95.750 Y58.750 E71.05458
G1 X95.750 Y101.250 E71.38768
G1 X64.250 Y101.250 E71.63457
G0 F9000 X65.241 Y100.574
;TYPE:SKIN
G1 F1620 X95.074 Y70.742 E71.96524
G0 F9000 X95.074 Y71.449
G1 F1620 X65.949 Y100.574 E72.28807
G0 F9000 X66.656 Y100.574
G1 F1620 X95.074 Y72.156 E72.60306
G0 F9000 X95.074 Y72.863
G1 F1620 X67.363 Y100.574 E72.91022
G0 F9000 X68.070 Y100.574
G1 F1620 X95.074 Y73.570 E73.20953
G0 F9000 X95.074 Y74.278
G1 F1620 X68.777 Y100.574 E73.50101
G0 F9000 X69.484 Y100.574
G1 F1620 X95.074 Y74.985 E73.78465
G0 F9000 X95.074 Y75.692
G1 F1620 X70.191 Y100.574 E74.06045
G0 F9000 X70.898 Y100.574
G1 F1620 X95.074 Y76.399 E74.32842
G0 F9000 X95.074 Y77.106
G1 F1620 X71.605 Y100.574 E74.58855
G0 F9000 X72.312 Y100.574
G1 F1620 X95.074 Y77.813 E74.84084
G0 F9000 X95.074 Y78.520
G1 F1620 X73.020 Y100.574 E75.08530
G0 F9000 X73.727 Y100.574
G1 F1620 X95.074 Y79.227 E75.32191
G0 F9000 X95.074 Y79.934
G1 F1620 X74.434 Y100.574 E75.55069
G0 F9000 X75.141 Y100.574
G1 F1620 X95.074 Y80.641 E75.77163
G0 F9000 X95.074 Y81.349
G1 F1620 X75.848 Y100.574 E75.98473
G0 F9000 X76.555 Y100.574
G1 F1620 X95.074 Y82.056 E76.18999
G0 F9000 X95.074 Y82.763
G1 F1620 X77.262 Y100.574 E76.38742
G0 F9000 X77.969 Y100.574
G1 F1620 X95.074 Y83.470 E76.57701
G0 F9000 X95.074 Y84.177
G1 F1620 X78.676 Y100.574 E76.75876
G0 F9000 X79.384 Y100.574
G1 F1620 X95.074 Y84.884 E76.93268
G0 F9000 X95.074 Y85.591
G1 F1620 X80.091 Y100.574 E77.09875
G0 F9000 X80.798 Y100.574
G1 F1620 X95.074 Y86.298 E77.25699
G0 F9000 X95.074 Y87.005
G1 F1620 X81.505 Y100.574 E77.40739
G0 F9000 X82.212 Y100.574
G1 F1620 X95.074 Y87.713 E77.54995
G0 F9000 X95.074 Y88.420
G1 F1620 X82.919 Y100.574 E77.68467
G0 F9000 X83.626 Y100.574
G1 F1620 X95.074 Y89.127 E77.81156
G0 F9000 X95.074 Y89.834
G1 F1620 X84.333 Y100.574 E77.93061
G0 F9000 X85.040 Y100.574
G1 F1620 X95.074 Y90.541 E78.04182
G0 F9000 X95.074 Y91.248
G1 F1620 X85.748 Y100.574 E78.14520
G0 F9000 X86.455 Y100.574
G1 F1620 X95.074 Y91.955 E78.24073
G0 F9000 X95.074 Y92.662
G1 F1620 X87.162 Y100.574 E78.32843
G0 F9000 X87.869 Y100.574
G1 F1620 X95.074 Y93.369 E78.40829
G0 F9000 X95.074 Y94.077
G1 F1620 X88.576 Y100.574 E78.48031
G0 F9000 X89.283 Y100.574
G1 F1620 X95.074 Y94.784 E78.54449
G0 F9000 X95.074 Y95.491
G1 F1620 X89.990 Y100.574 E78.60084
G0 F9000 X90.697 Y100.574
G1 F1620 X95.074 Y96.198 E78.64935
G0 F9000 X95.074 Y96.905
G1 F1620 X91.404 Y100.574 E78.69002
G0 F9000 X92.111 Y100.574
G1 F1620 X95.074 Y97.612 E78.72286
G0 F9000 X95.074 Y98.319
G1 F1620 X92.819 Y100.574 E78.74786
G0 F9000 X93.526 Y100.574
G1 F1620 X95.074 Y99.026 E78.76502
G0 F9000 X95.074 Y99.733
G1 F1620 X94.233 Y100.574 E78.77434
G0 F9000 X94.940 Y100.574
G1 F1620 X95.074 Y100.440 E78.77582
G0 F9000 X64.925 Y100.184
G1 F1620 X95.074 Y70.035 E79.11000
G0 F9000 X95.074 Y69.328
G1 F1620 X64.925 Y99.477 E79.44418
G0 F9000 X64.925 Y98.770
G1 F1620 X95.074 Y68.621 E79.77836
G0 F9000 X95.074 Y67.914
G1 F1620 X64.925 Y98.062 E80.11253
G0 F9000 X64.925 Y97.355
G1 F1620 X95.074 Y67.206 E80.44671
G0 F9000 X95.074 Y66.499
G1 F1620 X64.925 Y96.648 E80.78089
G0 F9000 X64.925 Y95.941
G1 F1620 X95.074 Y65.792 E81.11507
G0 F9000 X95.074 Y65.085
G1 F1620 X64.925 Y95.234 E81.44924
G0 F9000 X64.925 Y94.527
G1 F1620 X95.074 Y64.378 E81.78342
G0 F9000 X95.074 Y63.671
G1 F1620 X64.925 Y93.820 E82.11760
G0 F9000 X64.925 Y93.113
G1 F1620 X95.074 Y62.964 E82.45178
G0 F9000 X95.074 Y62.257
G1 F1620 X64.925 Y92.406 E82.78596
G0 F9000 X64.925 Y91.699
G1 F1620 X95.074 Y61.550 E83.12014
G0 F9000 X95.074 Y60.843
G1 F1620 X64.925 Y90.991 E83.45431
G0 F9000 X64.925 Y90.284
G1 F1620 X95.074 Y60.135 E83.78849
G0 F9000 X95.074 Y59.428
G1 F1620 X64.925 Y89.577 E84.12266
G0 F9000 X64.925 Y88.870
G1 F1620 X94.371 Y59.424 E84.44905
G0 F9000 X93.664 Y59.424
G1 F1620 X64.925 Y88.163 E84.76760
G0 F9000 X64.925 Y87.456
G1 F1620 X92.956 Y59.424 E85.07831
G0 F9000 X92.249 Y59.424
G1 F1620 X64.925 Y86.749 E85.38118
G0 F9000 X64.925 Y86.042
G1 F1620 X91.542 Y59.424 E85.67621
G0 F9000 X90.835 Y59.424
G1 F1620 X64.925 Y85.335 E85.96341
G0 F9000 X64.925 Y84.627
G1 F1620 X90.128 Y59.424 E86.24277
G0 F9000 X89.421 Y59.424
G1 F1620 X64.925 Y83.920 E86.51429
G0 F9000 X64.925 Y83.213
G1 F1620 X88.714 Y59.424 E86.77797
G0 F9000 X88.007 Y59.424
G1 F1620 X64.925 Y82.506 E87.03381
G0 F9000 X64.925 Y81.799
G1 F1620 X87.300 Y59.424 E87.28182
G0 F9000 X86.593 Y59.424
G1 F1620 X64.925 Y81.092 E87.52200
G0 F9000 X64.925 Y80.385
G1 F1620 X85.885 Y59.424 E87.75433
G0 F9000 X85.178 Y59.424
G1 F1620 X64.925 Y79.678 E87.97882
G0 F9000 X64.925 Y78.971
G1 F1620 X84.471 Y59.424 E88.19548
G0 F9000 X83.764 Y59.424
G1 F1620 X64.925 Y78.263 E88.40430
G0 F9000 X64.925 Y77.556
G1 F1620 X83.057 Y59.424 E88.60528
G0 F9000 X82.350 Y59.424
G1 F1620 X64.925 Y76.849 E88.79842
G0 F9000 X64.925 Y76.142
G1 F1620 X81.643 Y59.424 E88.98372
G0 F9000 X80.936 Y59.424
G1 F1620 X64.925 Y75.435 E89.16119
G0 F9000 X64.925 Y74.728
G1 F1620 X80.229 Y59.424 E89.33083
G0 F9000 X79.521 Y59.424
G1 F1620 X64.925 Y74.021 E89.49262
G0 F9000 X64.925 Y73.314
G1 F1620 X78.814 Y59.424 E89.64657
G0 F9000 X78.107 Y59.424
G1 F1620 X64.925 Y72.607 E89.79269
G0 F9000 X64.925 Y71.900
G1 F1620 X77.400 Y59.424 E89.93097
G0 F9000 X76.693 Y59.424
G1 F1620 X64.925 Y71.192 E90.06141
G0 F9000 X64.925 Y70.485
G1 F1620 X75.986 Y59.424 E90.18401
G0 F9000 X75.279 Y59.424
G1 F1620 X64.925 Y69.778 E90.29878
G0 F9000 X64.925 Y69.071
G1 F1620 X74.572 Y59.424 E90.40571
G0 F9000 X73.865 Y59.424
G1 F1620 X64.925 Y68.364 E90.50480
G0 F9000 X64.925 Y67.657
G1 F1620 X73.157 Y59.424 E90.59605
G0 F9000 X72.450 Y59.424
G1 F1620 X64.925 Y66.950 E90.67947
G0 F9000 X64.925 Y66.243
G1 F1620 X71.743 Y59.424 E90.75504
G0 F9000 X71.036 Y59.424
G1 F1620 X64.925 Y65.536 E90.82279
G0 F9000 X64.925 Y64.828
G1 F1620 X70.329 Y59.424 E90.88269
G0 F9000 X69.622 Y59.424
G1 F1620 X64.925 Y64.121 E90.93475
G0 F9000 X64.925 Y63.414
G1 F1620 X68.915 Y59.424 E90.97897
G0 F9000 X68.208 Y59.424
G1 F1620 X64.925 Y62.707 E91.01536
G0 F9000 X64.925 Y62.000
G1 F1620 X67.501 Y59.424 E91.04392
G0 F9000 X66.794 Y59.424
G1 F1620 X64.925 Y61.293 E91.06463
G0 F9000 X64.925 Y60.586
G1 F1620 X66.086 Y59.424 E91.07751
G0 F9000 X65.379 Y59.424
G1 F1620 X64.925 Y59.879 E91.08254
;LAYER:2
M106 S255
G0 F9000 X64.750 Y59.250 Z0.500
;TYPE:WALL-INNER
G1 F2100 X95.250 Y59.250 E91.32160
G1 X95.250 Y100.750 E91.64686
G1 X64.750 Y100.750 E91.88591
G1 X64.750 Y59.250 E92.21118
G0 F9000 X64.250 Y58.750
;TYPE:WALL-OUTER
G1 F2100 X95.750 Y58.750 E92.45807
G1 X95.750 Y101.250 E92.79117
G1 X64.250 Y101.250 E93.03806
G1 X64.250 Y58.750 E93.37116
G0 F9000 X64.924 Y59.621
;TYPE:SKIN
G1 F2100 X95.074 Y89.771 E93.70535
G0 F9000 X95.074 Y90.478
G1 F2100 X64.924 Y60.328 E94.03954
G0 F9000 X64.924 Y61.035
G1 F2100 X95.074 Y91.185 E94.37373
G0 F9000 X95.074 Y91.892
G1 F2100 X64.924 Y61.742 E94.70792
G0 F9000 X64.924 Y62.449
G1 F2100 X95.074 Y92.599 E95.04211
G0 F9000 X95.074 Y93.306
G1 F2100 X64.924 Y63.156 E95.37630
G0 F9000 X64.924 Y63.863
G1 F2100 X95.074 Y94.014 E95.71049
G0 F9000 X95.074 Y94.721
G1 F2100 X64.924 Y64.570 E96.04469
G0 F9000 X64.924 Y65.277
G1 F2100 X95.074 Y95.428 E96.37888
G0 F9000 X95.074 Y96.135
G1 F2100 X64.924 Y65.985 E96.71307
G0 F9000 X64.924 Y66.692
G1 F2100 X95.074 Y96.842 E97.04726
G0 F9000 X95.074 Y97.549
G1 F2100 X64.924 Y67.399 E97.38145
G0 F9000 X64.924 Y68.106
G1 F2100 X95.074 Y98.256 E97.71564
G0 F9000 X95.074 Y98.963
G1 F2100 X64.924 Y68.813 E98.04983
G0 F9000 X64.924 Y69.520
G1 F2100 X95.074 Y99.670 E98.38402
G0 F9000 X95.074 Y89.064
G1 F2100 X65.434 Y59.424 E98.71256
G0 F9000 X66.142 Y59.424
G1 F2100 X95.074 Y88.357 E99.03325
G0 F9000 X95.074 Y87.650
G1 F2100 X66.849 Y59.424 E99.34611
G0 F9000 X67.556 Y59.424
G1 F2100 X95.074 Y86.943 E99.65113
G0 F9000 X95.074 Y86.235
G1 F2100 X68.263 Y59.424 E99.94831
G0 F9000 X68.970 Y59.424
G1 F2100 X95.074 Y85.528 E100.23765
G0 F9000 X95.074 Y84.821
G1 F2100 X69.677 Y59.424 E100.51916
G0 F9000 X70.384 Y59.424
G1 F2100 X95.074 Y84.114 E100.79283
G0 F9000 X95.074 Y83.407
G1 F2100 X71.091 Y59.424 E101.05866
G0 F9000 X71.798 Y59.424
G1 F2100 X95.074 Y82.700 E101.31666
G0 F9000 X95.074 Y81.993
G1 F2100 X72.506 Y59.424 E101.56681
G0 F9000 X73.213 Y59.424
G1 F2100 X95.074 Y81.286 E101.80913
G0 F9000 X95.074 Y80.579
G1 F2100 X73.920 Y59.424 E102.04361
G0 F9000 X74.627 Y59.424
G1 F2100 X95.074 Y79.871 E102.27025
G0 F9000 X95.074 Y79.164
G1 F2100 X75.334 Y59.424 E102.48905
G0 F9000 X76.041 Y59.424
G1 F2100 X95.074 Y78.457 E102.70002
G0 F9000 X95.074 Y77.750
G1 F2100 X76.748 Y59.424 E102.90315
G0 F9000 X77.455 Y59.424
G1 F2100 X95.074 Y77.043 E103.09844
G0 F9000 X95.074 Y76.336
G1 F2100 X78.162 Y59.424 E103.28590
G0 F9000 X78.869 Y59.424
G1 F2100 X95.074 Y75.629 E103.46552
G0 F9000 X95.074 Y74.922
G1 F2100 X79.577 Y59.424 E103.63730
G0 F9000 X80.284 Y59.424
G1 F2100 X95.074 Y74.215 E103.80124
G0 F9000 X95.074 Y73.507
G1 F2100 X80.991 Y59.424 E103.95734
G0 F9000 X81.698 Y59.424
G1 F2100 X95.074 Y72.800 E104.10560
G0 F9000 X95.074 Y72.093
G1 F2100 X82.405 Y59.424 E104.24602
G0 F9000 X83.112 Y59.424
G1 F2100 X95.074 Y71.386 E104.37861
G0 F9000 X95.074 Y70.679
G1 F2100 X83.819 Y59.424 E104.50337
G0 F9000 X84.526 Y59.424
G1 F2100 X95.074 Y69.972 E104.62028
G0 F9000 X95.074 Y69.265
G1 F2100 X85.233 Y59.424 E104.72936
G0 F9000 X85.941 Y59.424
G1 F2100 X95.074 Y68.558 E104.83060
G0 F9000 X95.074 Y67.851
G1 F2100 X86.648 Y59.424 E104.92400
G0 F9000 X87.355 Y59.424
G1 F2100 X95.074 Y67.144 E105.00957
G0 F9000 X95.074 Y66.436
G1 F2100 X88.062 Y59.424 E105.08729
G0 F9000 X88.769 Y59.424
G1 F2100 X95.074 Y65.729 E105.15718
G0 F9000 X95.074 Y65.022
G1 F2100 X89.476 Y59.424 E105.21923
G0 F9000 X90.183 Y59.424
G1 F2100 X95.074 Y64.315 E105.27344
G0 F9000 X95.074 Y63.608
G1 F2100 X90.890 Y59.424 E105.31981
G0 F9000 X91.597 Y59.424
G1 F2100 X95.074 Y62.901 E105.35835
G0 F9000 X95.074 Y62.194
G1 F2100 X92.305 Y59.424 E105.38905
G0 F9000 X93.012 Y59.424
G1 F2100 X95.074 Y61.487 E105.41191
G0 F9000 X95.074 Y60.780
G1 F2100 X93.719 Y59.424 E105.42694
G0 F9000 X94.426 Y59.424
G1 F2100 X95.074 Y60.072 E105.43412
G0 F9000 X64.924 Y70.227
G1 F2100 X95.074 Y100.378 E105.76832
G0 F9000 X94.564 Y100.574
G1 F2100 X64.924 Y70.934 E106.09685
G0 F9000 X64.924 Y71.641
G1 F2100 X93.857 Y100.574 E106.41755
G0 F9000 X93.150 Y100.574
G1 F2100 X64.924 Y72.349 E106.73041
G0 F9000 X64.924 Y73.056
G1 F2100 X92.442 Y100.574 E107.03543
G0 F9000 X91.735 Y100.574
G1 F2100 X64.924 Y73.763 E107.33261
G0 F9000 X64.924 Y74.470
G1 F2100 X91.028 Y100.574 E107.62195
G0 F9000 X90.321 Y100.574
G1 F2100 X64.924 Y75.177 E107.90345
G0 F9000 X64.924 Y75.884
G1 F2100 X89.614 Y100.574 E108.17712
G0 F9000 X88.907 Y100.574
G1 F2100 X64.924 Y76.591 E108.44296
G0 F9000 X64.924 Y77.298
G1 F2100 X88.200 Y100.574 E108.70095
G0 F9000 X87.493 Y100.574
G1 F2100 X64.924 Y78.005 E108.95111
G0 F9000 X64.924 Y78.713
G1 F2100 X86.786 Y100.574 E109.19343
G0 F9000 X86.078 Y100.574
G1 F2100 X64.924 Y79.420 E109.42791
G0 F9000 X64.924 Y80.127
G1 F2100 X85.371 Y100.574 E109.65455
G0 F9000 X84.664 Y100.574
G1 F2100 X64.924 Y80.834 E109.87335
G0 F9000 X64.924 Y81.541
G1 F2100 X83.957 Y100.574 E110.08431
G0 F9000 X83.250 Y100.574
G1 F2100 X64.924 Y82.248 E110.28744
G0 F9000 X64.924 Y82.955
G1 F2100 X82.543 Y100.574 E110.48274
G0 F9000 X81.836 Y100.574
G1 F2100 X64.924 Y83.662 E110.67019
G0 F9000 X64.924 Y84.369
G1 F2100 X81.129 Y100.574 E110.84981
G0 F9000 X80.422 Y100.574
G1 F2100 X64.924 Y85.076 E111.02160
G0 F9000 X64.924 Y85.784
G1 F2100 X79.714 Y100.574 E111.18553
G0 F9000 X79.007 Y100.574
G1 F2100 X64.924 Y86.491 E111.34163
G0 F9000 X64.924 Y87.198
G1 F2100 X78.300 Y100.574 E111.48989
G0 F9000 X77.593 Y100.574
G1 F2100 X64.924 Y87.905 E111.63032
G0 F9000 X64.924 Y88.612
G1 F2100 X76.886 Y100.574 E111.76291
G0 F9000 X76.179 Y100.574
G1 F2100 X64.924 Y89.319 E111.88766
G0 F9000 X64.924 Y90.026
G1 F2100 X75.472 Y100.574 E112.00458
G0 F9000 X74.765 Y100.574
G1 F2100 X64.924 Y90.733 E112.11366
G0 F9000 X64.924 Y91.440
G1 F2100 X74.058 Y100.574 E112.21490
G0 F9000 X73.351 Y100.574
G1 F2100 X64.924 Y92.148 E112.30830
G0 F9000 X64.924 Y92.855
G1 F2100 X72.643 Y100.574 E112.39386
G0 F9000 X71.936 Y100.574
G1 F2100 X64.924 Y93.562 E112.47159
G0 F9000 X64.924 Y94.269
G1 F2100 X71.229 Y100.574 E112.54147
G0 F9000 X70.522 Y100.574
G1 F2100 X64.924 Y94.976 E112.60352
G0 F9000 X64.924 Y95.683
G1 F2100 X69.815 Y100.574 E112.65773
G0 F9000 X69.108 Y100.574
G1 F2100 X64.924 Y96.390 E112.70411
G0 F9000 X64.924 Y97.097
G1 F2100 X68.401 Y100.574 E112.74265
G0 F9000 X67.694 Y100.574
G1 F2100 X64.924 Y97.804 E112.77335
G0 F9000 X64.924 Y98.511
G1 F2100 X66.987 Y100.574 E112.79622
G0 F9000 X66.279 Y100.574
G1 F2100 X64.924 Y99.219 E112.81124
G0 F9000 X64.924 Y99.926
G1 F2100 X65.572 Y100.574 E112.81842
;LAYER:3
G0 F9000 X64.750 Y100.750 Z0.600
;TYPE:WALL-INNER
G1 F2520 X64.750 Y59.250 E113.14369
G1 X95.250 Y59.250 E113.38274
G1 X95.250 Y100.750 E113.70800
G1 X64.750 Y100.750 E113.94706
G0 F9000 X64.250 Y101.250
;TYPE:WALL-OUTER
G1 F2520 X64.250 Y58.750 E114.28016
G1 X95.750 Y58.750 E114.52705
G1 X95.750 Y101.250 E114.86015
G1 X64.250 Y101.250 E115.10704
G0 F9000 X65.241 Y100.574
;TYPE:SKIN
G1 F2520 X95.074 Y70.742 E115.43771
G0 F9000 X95.074 Y71.449
G1 F2520 X65.949 Y100.574 E115.76054
G0 F9000 X66.656 Y100.574
G1 F2520 X95.074 Y72.156 E116.07553
G0 F9000 X95.074 Y72.863
G1 F2520 X67.363 Y100.574 E116.38268
G0 F9000 X68.070 Y100.574
G1 F2520 X95.074 Y73.570 E116.68200
G0 F9000 X95.074 Y74.278
G1 F2520 X68.777 Y100.574 E116.97348
G0 F9000 X69.484 Y100.574
G1 F2520 X95.074 Y74.985 E117.25712
G0 F9000 X95.074 Y75.692
G1 F2520 X70.191 Y100.574 E117.53292
G0 F9000 X70.898 Y100.574
G1 F2520 X95.074 Y76.399 E117.80089
G0 F9000 X95.074 Y77.106
G1 F2520 X71.605 Y100.574 E118.06102
G0 F9000 X72.312 Y100.574
G1 F2520 X95.074 Y77.813 E118.31331
G0 F9000 X95.074 Y78.520
G1 F2520 X73.020 Y100.574 E118.55776
G0 F9000 X73.727 Y100.574
G1 F2520 X95.074 Y79.227 E118.79438
G0 F9000 X95.074 Y79.934
G1 F2520 X74.434 Y100.574 E119.02316
G0 F9000 X75.141 Y100.574
G1 F2520 X95.074 Y80.641 E119.24410
G0 F9000 X95.074 Y81.349
G1 F2520 X75.848 Y100.574 E119.45720
G0 F9000 X76.555 Y100.574
G1 F2520 X95.074 Y82.056 E119.66246
G0 F9000 X95.074 Y82.763
G1 F2520 X77.262 Y100.574 E119.85989
G0 F9000 X77.969 Y100.574
G1 F2520 X95.074 Y83.470 E120.04948
G0 F9000 X95.074 Y84.177
G1 F2520 X78.676 Y100.574 E120.23123
G0 F9000 X79.384 Y100.574
G1 F2520 X95.074 Y84.884 E120.40514
G0 F9000 X95.074 Y85.591
G1 F2520 X80.091 Y100.574 E120.57122
G0 F9000 X80.798 Y100.574
G1 F2520 X95.074 Y86.298 E120.72946
G0 F9000 X95.074 Y87.005
G1 F2520 X81.505 Y100.574 E120.87986
G0 F9000 X82.212 Y100.574
G1 F2520 X95.074 Y87.713 E121.02242
G0 F9000 X95.074 Y88.420
G1 F2520 X82.919 Y100.574 E121.15714
G0 F9000 X83.626 Y100.574
G1 F2520 X95.074 Y89.127 E121.28403
G0 F9000 X95.074 Y89.834
G1 F2520 X84.333 Y100.574 E121.40308
G0 F9000 X85.040 Y100.574
G1 F2520 X95.074 Y90.541 E121.51429
G0 F9000 X95.074 Y91.248
G1 F2520 X85.748 Y100.574 E121.61766
G0 F9000 X86.455 Y100.574
G1 F2520 X95.074 Y91.955 E121.71320
G0 F9000 X95.074 Y92.662
G1 F2520 X87.162 Y100.574 E121.80090
G0 F9000 X87.869 Y100.574
G1 F2520 X95.074 Y93.369 E121.88076
G0 F9000 X95.074 Y94.077
G1 F2520 X88.576 Y100.574 E121.95278
G0 F9000 X89.283 Y100.574
G1 F2520 X95.074 Y94.784 E122.01696
G0 F9000 X95.074 Y95.491
G1 F2520 X89.990 Y100.574 E122.07331
G0 F9000 X90.697 Y100.574
G1 F2520 X95.074 Y96.198 E122.12182
G0 F9000 X95.074 Y96.905
G1 F2520 X91.404 Y100.574 E122.16249
G0 F9000 X92.111 Y100.574
G1 F2520 X95.074 Y97.612 E122.19533
G0 F9000 X95.074 Y98.319
G1 F2520 X92.819 Y100.574 E122.22033
G0 F9000 X93.526 Y100.574
G1 F2520 X95.074 Y99.026 E122.23748
G0 F9000 X95.074 Y99.733
G1 F2520 X94.233 Y100.574 E122.24681
G0 F9000 X94.940 Y100.574
G1 F2520 X95.074 Y100.440 E122.24829
G0 F9000 X64.925 Y100.184
G1 F2520 X95.074 Y70.035 E122.58247
G0 F9000 X95.074 Y69.328
G1 F2520 X64.925 Y99.477 E122.91665
G0 F9000 X64.925 Y98.770
G1 F2520 X95.074 Y68.621 E123.25083
G0 F9000 X95.074 Y67.914
G1 F2520 X64.925 Y98.062 E123.58500
G0 F9000 X64.925 Y97.355
G1 F2520 X95.074 Y67.206 E123.91918
G0 F9000 X95.074 Y66.499
G1 F2520 X64.925 Y96.648 E124.25336
G0 F9000 X64.925 Y95.941
G1 F2520 X95.074 Y65.792 E124.58753
G0 F9000 X95.074 Y65.085
G1 F2520 X64.925 Y95.234 E124.92171
G0 F9000 X64.925 Y94.527
G1 F2520 X95.074 Y64.378 E125.25589
G0 F9000 X95.074 Y63.671
G1 F2520 X64.925 Y93.820 E125.59007
G0 F9000 X64.925 Y93.113
G1 F2520 X95.074 Y62.964 E125.92425
G0 F9000 X95.074 Y62.257
G1 F2520 X64.925 Y92.406 E126.25843
G0 F9000 X64.925 Y91.699
G1 F2520 X95.074 Y61.550 E126.59260
G0 F9000 X95.074 Y60.843
G1 F2520 X64.925 Y90.991 E126.92678
G0 F9000 X64.925 Y90.284
G1 F2520 X95.074 Y60.135 E127.26096
G0 F9000 X95.074 Y59.428
G1 F2520 X64.925 Y89.577 E127.59513
G0 F9000 X64.925 Y88.870
G1 F2520 X94.371 Y59.424 E127.92152
G0 F9000 X93.664 Y59.424
G1 F2520 X64.925 Y88.163 E128.24007
G0 F9000 X64.925 Y87.456
G1 F2520 X92.956 Y59.424 E128.55078
G0 F9000 X92.249 Y59.424
G1 F2520 X64.925 Y86.749 E128.85365
G0 F9000 X64.925 Y86.042
G1 F2520 X91.542 Y59.424 E129.14868
G0 F9000 X90.835 Y59.424
G1 F2520 X64.925 Y85.335 E129.43588
G0 F9000 X64.925 Y84.627
G1 F2520 X90.128 Y59.424 E129.71524
G0 F9000 X89.421 Y59.424
G1 F2520 X64.925 Y83.920 E129.98675
G0 F9000 X64.925 Y83.213
G1 F2520 X88.714 Y59.424 E130.25044
G0 F9000 X88.007 Y59.424
G1 F2520 X64.925 Y82.506 E130.50628
G0 F9000 X64.925 Y81.799
G1 F2520 X87.300 Y59.424 E130.75429
G0 F9000 X86.593 Y59.424
G1 F2520 X64.925 Y81.092 E130.99447
G0 F9000 X64.925 Y80.385
G1 F2520 X85.885 Y59.424 E131.22680
G0 F9000 X85.178 Y59.424
G1 F2520 X64.925 Y79.678 E131.45129
G0 F9000 X64.925 Y78.971
G1 F2520 X84.471 Y59.424 E131.66795
G0 F9000 X83.764 Y59.424
G1 F2520 X64.925 Y78.263 E131.87677
G0 F9000 X64.925 Y77.556
G1 F2520 X83.057 Y59.424 E132.07774
G0 F9000 X82.350 Y59.424
G1 F2520 X64.925 Y76.849 E132.27089
G0 F9000 X64.925 Y76.142
G1 F2520 X81.643 Y59.424 E132.45619
G0 F9000 X80.936 Y59.424
G1 F2520 X64.925 Y75.435 E132.63366
G0 F9000 X64.925 Y74.728
G1 F2520 X80.229 Y59.424 E132.80330
G0 F9000 X79.521 Y59.424
G1 F2520 X64.925 Y74.021 E132.96509
G0 F9000 X64.925 Y73.314
G1 F2520 X78.814 Y59.424 E133.11904
G0 F9000 X78.107 Y59.424
G1 F2520 X64.925 Y72.607 E133.26516
G0 F9000 X64.925 Y71.900
G1 F2520 X77.400 Y59.424 E133.40344
G0 F9000 X76.693 Y59.424
G1 F2520 X64.925 Y71.192 E133.53388
G0 F9000 X64.925 Y70.485
G1 F2520 X75.986 Y59.424 E133.65648
G0 F9000 X75.279 Y59.424
G1 F2520 X64.925 Y69.778 E133.77125
G0 F9000 X64.925 Y69.071
G1 F2520 X74.572 Y59.424 E133.87818
G0 F9000 X73.865 Y59.424
G1 F2520 X64.925 Y68.364 E133.97727
G0 F9000 X64.925 Y67.657
G1 F2520 X73.157 Y59.424 E134.06852
G0 F9000 X72.450 Y59.424
G1 F2520 X64.925 Y66.950 E134.15194
G0 F9000 X64.925 Y66.243
G1 F2520 X71.743 Y59.424 E134.22751
G0 F9000 X71.036 Y59.424
G1 F2520 X64.925 Y65.536 E134.29525
G0 F9000 X64.925 Y64.828
G1 F2520 X70.329 Y59.424 E134.35515
G0 F9000 X69.622 Y59.424
G1 F2520 X64.925 Y64.121 E134.40722
G0 F9000 X64.925 Y63.414
G1 F2520 X68.915 Y59.424 E134.45144
G0 F9000 X68.208 Y59.424
G1 F2520 X64.925 Y62.707 E134.48783
G0 F9000 X64.925 Y62.000
G1 F2520 X67.501 Y59.424 E134.51639
G0 F9000 X66.794 Y59.424
G1 F2520 X64.925 Y61.293 E134.53710
G0 F9000 X64.925 Y60.586
G1 F2520 X66.086 Y59.424 E134.54998
G0 F9000 X65.379 Y59.424
G1 F2520 X64.925 Y59.879 E134.55501
;LAYER:4
G0 F9000 X64.750 Y59.250 Z0.700
;TYPE:WALL-INNER
G1 F3000 X95.250 Y59.250 E134.79406
G1 X95.250 Y100.750 E135.11933
G1 X64.750 Y100.750 E135.35838
G1 X64.750 Y59.250 E135.68365
G0 F9000 X64.250 Y58.750
;TYPE:WALL-OUTER
G1 F3000 X95.750 Y58.750 E135.93054
G1 X95.750 Y101.250 E136.26364
G1 X64.250 Y101.250 E136.51053
G1 X64.250 Y58.750 E136.84363
G0 F9000 X64.924 Y59.621
;TYPE:SKIN
G1 F3000 X95.074 Y89.771 E137.17782
G0 F9000 X95.074 Y90.478
G1 F3000 X64.924 Y60.328 E137.51201
G0 F9000 X64.924 Y61.035
G1 F3000 X95.074 Y91.185 E137.84620
G0 F9000 X95.074 Y91.892
G1 F3000 X64.924 Y61.742 E138.18039
G0 F9000 X64.924 Y62.449
G1 F3000 X95.074 Y92.599 E138.51458
G0 F9000 X95.074 Y93.306
G1 F3000 X64.924 Y63.156 E138.84877
G0 F9000 X64.924 Y63.863
G1 F3000 X95.074 Y94.014 E139.18296
G0 F9000 X95.074 Y94.721
G1 F3000 X64.924 Y64.570 E139.51716
G0 F9000 X64.924 Y65.277
G1 F3000 X95.074 Y95.428 E139.85135
G0 F9000 X95.074 Y96.135
G1 F3000 X64.924 Y65.985 E140.18554
G0 F9000 X64.924 Y66.692
G1 F3000 X95.074 Y96.842 E140.51973
G0 F9000 X95.074 Y97.549
G1 F3000 X64.924 Y67.399 E140.85392
G0 F9000 X64.924 Y68.106
G1 F3000 X95.074 Y98.256 E141.18811
G0 F9000 X95.074 Y98.963
G1 F3000 X64.924 Y68.813 E141.52230
G0 F9000 X64.924 Y69.520
G1 F3000 X95.074 Y99.670 E141.85649
G0 F9000 X95.074 Y89.064
G1 F3000 X65.434 Y59.424 E142.18503
G0 F9000 X66.142 Y59.424
G1 F3000 X95.074 Y88.357 E142.50572
G0 F9000 X95.074 Y87.650
G1 F3000 X66.849 Y59.424 E142.81858
G0 F9000 X67.556 Y59.424
G1 F3000 X95.074 Y86.943 E143.12360
G0 F9000 X95.074 Y86.235
G1 F3000 X68.263 Y59.424 E143.42078
G0 F9000 X68.970 Y59.424
G1 F3000 X95.074 Y85.528 E143.71012
G0 F9000 X95.074 Y84.821
G1 F3000 X69.677 Y59.424 E143.99163
G0 F9000 X70.384 Y59.424
G1 F3000 X95.074 Y84.114 E144.26530
G0 F9000 X95.074 Y83.407
G1 F3000 X71.091 Y59.424 E144.53113
G0 F9000 X71.798 Y59.424
G1 F3000 X95.074 Y82.700 E144.78913
G0 F9000 X95.074 Y81.993
G1 F3000 X72.506 Y59.424 E145.03928
G0 F9000 X73.213 Y59.424
G1 F3000 X95.074 Y81.286 E145.28160
G0 F9000 X95.074 Y80.579
G1 F3000 X73.920 Y59.424 E145.51608
G0 F9000 X74.627 Y59.424
G1 F3000 X95.074 Y79.871 E145.74272
G0 F9000 X95.074 Y79.164
G1 F3000 X75.334 Y59.424 E145.96152
G0 F9000 X76.041 Y59.424
G1 F3000 X95.074 Y78.457 E146.17249
G0 F9000 X95.074 Y77.750
G1 F3000 X76.748 Y59.424 E146.37562
G0 F9000 X77.455 Y59.424
G1 F3000 X95.074 Y77.043 E146.57091
G0 F9000 X95.074 Y76.336
G1 F3000 X78.162 Y59.424 E146.75837
G0 F9000 X78.869 Y59.424
G1 F3000 X95.074 Y75.629 E146.93799
G0 F9000 X95.074 Y74.922
G1 F3000 X79.577 Y59.424 E147.10976
G0 F9000 X80.284 Y59.424
G1 F3000 X95.074 Y74.215 E147.27371
G0 F9000 X95.074 Y73.507
G1 F3000 X80.991 Y59.424 E147.42980
G0 F9000 X81.698 Y59.424
G1 F3000 X95.074 Y72.800 E147.57807
G0 F9000 X95.074 Y72.093
G1 F3000 X82.405 Y59.424 E147.71849
G0 F9000 X83.112 Y59.424
G1 F3000 X95.074 Y71.386 E147.85108
G0 F9000 X95.074 Y70.679
G1 F3000 X83.819 Y59.424 E147.97584
G0 F9000 X84.526 Y59.424
G1 F3000 X95.074 Y69.972 E148.09275
G0 F9000 X95.074 Y69.265
G1 F3000 X85.233 Y59.424 E148.20183
G0 F9000 X85.941 Y59.424
G1 F3000 X95.074 Y68.558 E148.30307
G0 F9000 X95.074 Y67.851
G1 F3000 X86.648 Y59.424 E148.39647
G0 F9000 X87.355 Y59.424
G1 F3000 X95.074 Y67.144 E148.48204
G0 F9000 X95.074 Y66.436
G1 F3000 X88.062 Y59.424 E148.55976
G0 F9000 X88.769 Y59.424
G1 F3000 X95.074 Y65.729 E148.62964
G0 F9000 X95.074 Y65.022
G1 F3000 X89.476 Y59.424 E148.69169
G0 F9000 X90.183 Y59.424
G1 F3000 X95.074 Y64.315 E148.74591
G0 F9000 X95.074 Y63.608
G1 F3000 X90.890 Y59.424 E148.79228
G0 F9000 X91.597 Y59.424
G1 F3000 X95.074 Y62.901 E148.83082
G0 F9000 X95.074 Y62.194
G1 F3000 X92.305 Y59.424 E148.86152
G0 F9000 X93.012 Y59.424
G1 F3000 X95.074 Y61.487 E148.88438
G0 F9000 X95.074 Y60.780
G1 F3000 X93.719 Y59.424 E148.89941
G0 F9000 X94.426 Y59.424
G1 F3000 X95.074 Y60.072 E148.90659
G0 F9000 X64.924 Y70.227
G1 F3000 X95.074 Y100.378 E149.24078
G0 F9000 X94.564 Y100.574
G1 F3000 X64.924 Y70.934 E149.56932
G0 F9000 X64.924 Y71.641
G1 F3000 X93.857 Y100.574 E149.89002
G0 F9000 X93.150 Y100.574
G1 F3000 X64.924 Y72.349 E150.20288
G0 F9000 X64.924 Y73.056
G1 F3000 X92.442 Y100.574 E150.50789
G0 F9000 X91.735 Y100.574
G1 F3000 X64.924 Y73.763 E150.80507
G0 F9000 X64.924 Y74.470
G1 F3000 X91.028 Y100.574 E151.09442
G0 F9000 X90.321 Y100.574
G1 F3000 X64.924 Y75.177 E151.37592
G0 F9000 X64.924 Y75.884
G1 F3000 X89.614 Y100.574 E151.64959
G0 F9000 X88.907 Y100.574
G1 F3000 X64.924 Y76.591 E151.91543
G0 F9000 X64.924 Y77.298
G1 F3000 X88.200 Y100.574 E152.17342
G0 F9000 X87.493 Y100.574
G1 F3000 X64.924 Y78.005 E152.42358
G0 F9000 X64.924 Y78.713
G1 F3000 X86.786 Y100.574 E152.66590
G0 F9000 X86.078 Y100.574
G1 F3000 X64.924 Y79.420 E152.90038
G0 F9000 X64.924 Y80.127
G1 F3000 X85.371 Y100.574 E153.12701
G0 F9000 X84.664 Y100.574
G1 F3000 X64.924 Y80.834 E153.34582
G0 F9000 X64.924 Y81.541
G1 F3000 X83.957 Y100.574 E153.55678
G0 F9000 X83.250 Y100.574
G1 F3000 X64.924 Y82.248 E153.75991
G0 F9000 X64.924 Y82.955
G1 F3000 X82.543 Y100.574 E153.95521
G0 F9000 X81.836 Y100.574
G1 F3000 X64.924 Y83.662 E154.14266
G0 F9000 X64.924 Y84.369
G1 F3000 X81.129 Y100.574 E154.32228
G0 F9000 X80.422 Y100.574
G1 F3000 X64.924 Y85.076 E154.49407
G0 F9000 X64.924 Y85.784
G1 F3000 X79.714 Y100.574 E154.65800
G0 F9000 X79.007 Y100.574
G1 F3000 X64.924 Y86.491 E154.81410
G0 F9000 X64.924 Y87.198
G1 F3000 X78.300 Y100.574 E154.96236
G0 F9000 X77.593 Y100.574
G1 F3000 X64.924 Y87.905 E155.10279
G0 F9000 X64.924 Y88.612
G1 F3000 X76.886 Y100.574 E155.23538
G0 F9000 X76.179 Y100.574
G1 F3000 X64.924 Y89.319 E155.36013
G0 F9000 X64.924 Y90.026
G1 F3000 X75.472 Y100.574 E155.47705
G0 F9000 X74.765 Y100.574
G1 F3000 X64.924 Y90.733 E155.58613
G0 F9000 X64.924 Y91.440
G1 F3000 X74.058 Y100.574 E155.68737
G0 F9000 X73.351 Y100.574
G1 F3000 X64.924 Y92.148 E155.78077
G0 F9000 X64.924 Y92.855
G1 F3000 X72.643 Y100.574 E155.86633
G0 F9000 X71.936 Y100.574
G1 F3000 X64.924 Y93.562 E155.94405
G0 F9000 X64.924 Y94.269
G1 F3000 X71.229 Y100.574 E156.01394
G0 F9000 X70.522 Y100.574
G1 F3000 X64.924 Y94.976 E156.07599
G0 F9000 X64.924 Y95.683
G1 F3000 X69.815 Y100.574 E156.13020
G0 F9000 X69.108 Y100.574
G1 F3000 X64.924 Y96.390 E156.17658
G0 F9000 X64.924 Y97.097
G1 F3000 X68.401 Y100.574 E156.21512
G0 F9000 X67.694 Y100.574
G1 F3000 X64.924 Y97.804 E156.24582
G0 F9000 X64.924 Y98.511
G1 F3000 X66.987 Y100.574 E156.26869
G0 F9000 X66.279 Y100.574
G1 F3000 X64.924 Y99.219 E156.28371
G0 F9000 X64.924 Y99.926
G1 F3000 X65.572 Y100.574 E156.29089
;LAYER:5
G0 F9000 X64.750 Y100.750 Z0.800
;TYPE:WALL-INNER
G1 F3000 X64.750 Y59.250 E156.61616
G1 X95.250 Y59.250 E156.85521
G1 X95.250 Y100.750 E157.18047
G1 X64.750 Y100.750 E157.41952
G0 F9000 X64.250 Y101.250
;TYPE:WALL-OUTER
G1 F3000 X64.250 Y58.750 E157.75263
G1 X95.750 Y58.750 E157.99952
G1 X95.750 Y101.250 E158.33262
G1 X64.250 Y101.250 E158.57951
G0 F9000 X65.241 Y100.574
;TYPE:SKIN
G1 F3000 X95.074 Y70.742 E158.91018
G0 F9000 X95.074 Y71.449
G1 F3000 X65.949 Y100.574 E159.23301
G0 F9000 X66.656 Y100.574
G1 F3000 X95.074 Y72.156 E159.54800
G0 F9000 X95.074 Y72.863
G1 F3000 X67.363 Y100.574 E159.85515
G0 F9000 X68.070 Y100.574
G1 F3000 X95.074 Y73.570 E160.15447
G0 F9000 X95.074 Y74.278
G1 F3000 X68.777 Y100.574 E160.44595
G0 F9000 X69.484 Y100.574
G1 F3000 X95.074 Y74.985 E160.72959
G0 F9000 X95.074 Y75.692
G1 F3000 X70.191 Y100.574 E161.00539
G0 F9000 X70.898 Y100.574
G1 F3000 X95.074 Y76.399 E161.27336
G0 F9000 X95.074 Y77.106
G1 F3000 X71.605 Y100.574 E161.53349
G0 F9000 X72.312 Y100.574
G1 F3000 X95.074 Y77.813 E161.78578
G0 F9000 X95.074 Y78.520
G1 F3000 X73.020 Y100.574 E162.03023
G0 F9000 X73.727 Y100.574
G1 F3000 X95.074 Y79.227 E162.26685
G0 F9000 X95.074 Y79.934
G1 F3000 X74.434 Y100.574 E162.49563
G0 F9000 X75.141 Y100.574
G1 F3000 X95.074 Y80.641 E162.71657
G0 F9000 X95.074 Y81.349
G1 F3000 X75.848 Y100.574 E162.92967
G0 F9000 X76.555 Y100.574
G1 F3000 X95.074 Y82.056 E163.13493
G0 F9000 X95.074 Y82.763
G1 F3000 X77.262 Y100.574 E163.33236
G0 F9000 X77.969 Y100.574
G1 F3000 X95.074 Y83.470 E163.52195
G0 F9000 X95.074 Y84.177
G1 F3000 X78.676 Y100.574 E163.70370
G0 F9000 X79.384 Y100.574
G1 F3000 X95.074 Y84.884 E163.87761
G0 F9000 X95.074 Y85.591
G1 F3000 X80.091 Y100.574 E164.04369
G0 F9000 X80.798 Y100.574
G1 F3000 X95.074 Y86.298 E164.20193
G0 F9000 X95.074 Y87.005
G1 F3000 X81.505 Y100.574 E164.35233
G0 F9000 X82.212 Y100.574
G1 F3000 X95.074 Y87.713 E164.49489
G0 F9000 X95.074 Y88.420
G1 F3000 X82.919 Y100.574 E164.62961
G0 F9000 X83.626 Y100.574
G1 F3000 X95.074 Y89.127 E164.75650
G0 F9000 X95.074 Y89.834
G1 F3000 X84.333 Y100.574 E164.87555
G0 F9000 X85.040 Y100.574
G1 F3000 X95.074 Y90.541 E164.98676
G0 F9000 X95.074 Y91.248
G1 F3000 X85.748 Y100.574 E165.09013
G0 F9000 X86.455 Y100.574
G1 F3000 X95.074 Y91.955 E165.18567
G0 F9000 X95.074 Y92.662
G1 F3000 X87.162 Y100.574 E165.27337
G0 F9000 X87.869 Y100.574
G1 F3000 X95.074 Y93.369 E165.35323
G0 F9000 X95.074 Y94.077
G1 F3000 X88.576 Y100.574 E165.42525
G0 F9000 X89.283 Y100.574
G1 F3000 X95.074 Y94.784 E165.48943
G0 F9000 X95.074 Y95.491
G1 F3000 X89.990 Y100.574 E165.54578
G0 F9000 X90.697 Y100.574
G1 F3000 X95.074 Y96.198 E165.59429
G0 F9000 X95.074 Y96.905
G1 F3000 X91.404 Y100.574 E165.63496
G0 F9000 X92.111 Y100.574
G1 F3000 X95.074 Y97.612 E165.66780
G0 F9000 X95.074 Y98.319
G1 F3000 X92.819 Y100.574 E165.69279
G0 F9000 X93.526 Y100.574
G1 F3000 X95.074 Y99.026 E165.70995
G0 F9000 X95.074 Y99.733
G1 F3000 X94.233 Y100.574 E165.71927
G0 F9000 X94.940 Y100.574
G1 F3000 X95.074 Y100.440 E165.72076
G0 F9000 X64.925 Y100.184
G1 F3000 X95.074 Y70.035 E166.05494
G0 F9000 X95.074 Y69.328
G1 F3000 X64.925 Y99.477 E166.38912
G0 F9000 X64.925 Y98.770
G1 F3000 X95.074 Y68.621 E166.72329
G0 F9000 X95.074 Y67.914
G1 F3000 X64.925 Y98.062 E167.05747
G0 F9000 X64.925 Y97.355
G1 F3000 X95.074 Y67.206 E167.39165
G0 F9000 X95.074 Y66.499
G1 F3000 X64.925 Y96.648 E167.72582
G0 F9000 X64.925 Y95.941
G1 F3000 X95.074 Y65.792 E168.06000
G0 F9000 X95.074 Y65.085
G1 F3000 X64.925 Y95.234 E168.39418
G0 F9000 X64.925 Y94.527
G1 F3000 X95.074 Y64.378 E168.72836
G0 F9000 X95.074 Y63.671
G1 F3000 X64.925 Y93.820 E169.06254
G0 F9000 X64.925 Y93.113
G1 F3000 X95.074 Y62.964 E169.39672
G0 F9000 X95.074 Y62.257
G1 F3000 X64.925 Y92.406 E169.73089
G0 F9000 X64.925 Y91.699
G1 F3000 X95.074 Y61.550 E170.06507
G0 F9000 X95.074 Y60.843
G1 F3000 X64.925 Y90.991 E170.39925
G0 F9000 X64.925 Y90.284
G1 F3000 X95.074 Y60.135 E170.73342
G0 F9000 X95.074 Y59.428
G1 F3000 X64.925 Y89.577 E171.06760
G0 F9000 X64.925 Y88.870
G1 F3000 X94.371 Y59.424 E171.39399
G0 F9000 X93.664 Y59.424
G1 F3000 X64.925 Y88.163 E171.71254
G0 F9000 X64.925 Y87.456
G1 F3000 X92.956 Y59.424 E172.02325
G0 F9000 X92.249 Y59.424
G1 F3000 X64.925 Y86.749 E172.32612
G0 F9000 X64.925 Y86.042
G1 F3000 X91.542 Y59.424 E172.62115
G0 F9000 X90.835 Y59.424
G1 F3000 X64.925 Y85.335 E172.90835
G0 F9000 X64.925 Y84.627
G1 F3000 X90.128 Y59.424 E173.18770
G0 F9000 X89.421 Y59.424
G1 F3000 X64.925 Y83.920 E173.45922
G0 F9000 X64.925 Y83.213
G1 F3000 X88.714 Y59.424 E173.72291
G0 F9000 X88.007 Y59.424
G1 F3000 X64.925 Y82.506 E173.97875
G0 F9000 X64.925 Y81.799
G1 F3000 X87.300 Y59.424 E174.22676
G0 F9000 X86.593 Y59.424
G1 F3000 X64.925 Y81.092 E174.46693
G0 F9000 X64.925 Y80.385
G1 F3000 X85.885 Y59.424 E174.69927
G0 F9000 X85.178 Y59.424
G1 F3000 X64.925 Y79.678 E174.92376
G0 F9000 X64.925 Y78.971
G1 F3000 X84.471 Y59.424 E175.14042
G0 F9000 X83.764 Y59.424
G1 F3000 X64.925 Y78.263 E175.34923
G0 F9000 X64.925 Y77.556
G1 F3000 X83.057 Y59.424 E175.55021
G0 F9000 X82.350 Y59.424
G1 F3000 X64.925 Y76.849 E175.74336
G0 F9000 X64.925 Y76.142
G1 F3000 X81.643 Y59.424 E175.92866
G0 F9000 X80.936 Y59.424
G1 F3000 X64.925 Y75.435 E176.10613
G0 F9000 X64.925 Y74.728
G1 F3000 X80.229 Y59.424 E176.27576
G0 F9000 X79.521 Y59.424
G1 F3000 X64.925 Y74.021 E176.43756
G0 F9000 X64.925 Y73.314
G1 F3000 X78.814 Y59.424 E176.59151
G0 F9000 X78.107 Y59.424
G1 F3000 X64.925 Y72.607 E176.73763
G0 F9000 X64.925 Y71.900
G1 F3000 X77.400 Y59.424 E176.87591
G0 F9000 X76.693 Y59.424
G1 F3000 X64.925 Y71.192 E177.00635
G0 F9000 X64.925 Y70.485
G1 F3000 X75.986 Y59.424 E177.12895
G0 F9000 X75.279 Y59.424
G1 F3000 X64.925 Y69.778 E177.24372
G0 F9000 X64.925 Y69.071
G1 F3000 X74.572 Y59.424 E177.35065
G0 F9000 X73.865 Y59.424
G1 F3000 X64.925 Y68.364 E177.44974
G0 F9000 X64.925 Y67.657
G1 F3000 X73.157 Y59.424 E177.54099
G0 F9000 X72.450 Y59.424
G1 F3000 X64.925 Y66.950 E177.62440
G0 F9000 X64.925 Y66.243
G1 F3000 X71.743 Y59.424 E177.69998
G0 F9000 X71.036 Y59.424
G1 F3000 X64.925 Y65.536 E177.76772
G0 F9000 X64.925 Y64.828
G1 F3000 X70.329 Y59.424 E177.82762
G0 F9000 X69.622 Y59.424
G1 F3000 X64.925 Y64.121 E177.87969
G0 F9000 X64.925 Y63.414
G1 F3000 X68.915 Y59.424 E177.92391
G0 F9000 X68.208 Y59.424
G1 F3000 X64.925 Y62.707 E177.96030
G0 F9000 X64.925 Y62.000
G1 F3000 X67.501 Y59.424 E177.98885
G0 F9000 X66.794 Y59.424
G1 F3000 X64.925 Y61.293 E178.00957
G0 F9000 X64.925 Y60.586
G1 F3000 X66.086 Y59.424 E178.02244
G0 F9000 X65.379 Y59.424
G1 F3000 X64.925 Y59.879 E178.02748
;LAYER:6
G0 F9000 X70.031 Y59.424 Z0.900
;TYPE:FILL
G1 F3000 X95.074 Y84.468 E178.30507
G0 F9000 X95.074 Y85.238
G1 F3000 X79.737 Y100.574 E178.47506
G0 F9000 X75.825 Y100.574
G1 F3000 X64.924 Y89.673 E178.59589
G0 F9000 X64.925 Y87.102
G1 F3000 X92.603 Y59.424 E178.90268
G0 F9000 X91.244 Y59.424
G1 F3000 X95.074 Y63.254 E178.94513
G0 F9000 X95.074 Y64.024
G1 F3000 X64.925 Y94.173 E179.27931
G0 F9000 X64.924 Y96.744
G1 F3000 X68.754 Y100.574 E179.32177
G0 F9000 X65.595 Y100.574
G1 F3000 X95.074 Y71.096 E179.64851
G0 F9000 X95.074 Y70.326
G1 F3000 X84.173 Y59.424 E179.76935
G0 F9000 X85.532 Y59.424
G1 F3000 X64.925 Y80.031 E179.99776
G0 F9000 X64.924 Y82.602
G1 F3000 X82.896 Y100.574 E180.19696
G0 F9000 X86.808 Y100.574
G1 F3000 X95.074 Y92.309 E180.28858
G0 F9000 X95.074 Y91.539
G1 F3000 X64.924 Y61.388 E180.62278
G0 F9000 X64.925 Y65.889
G1 F3000 X71.390 Y59.424 E180.69444
G0 F9000 X77.102 Y59.424
G1 F3000 X95.074 Y77.397 E180.89365
G0 F9000 X95.074 Y78.167
G1 F3000 X72.666 Y100.574 E181.14202
G0 F9000 X89.968 Y100.574
G1 F3000 X64.924 Y75.531 E181.41960
G0 F9000 X64.925 Y72.960
G1 F3000 X78.461 Y59.424 E181.56964
G0 F9000 X64.924 Y68.459
G1 F3000 X95.074 Y98.610 E181.90384
G0 F9000 X95.074 Y99.380
G1 F3000 X93.879 Y100.574 E181.91708
G0 F9000 X95.250 Y100.750
;TYPE:WALL-INNER
G1 F3000 X64.750 Y100.750 E182.15613
G1 X64.750 Y59.250 E182.48139
G1 X95.250 Y59.250 E182.72044
G1 X95.250 Y100.750 E183.04571
G0 F9000 X95.750 Y101.250
;TYPE:WALL-OUTER
G1 F3000 X64.250 Y101.250 E183.29260
G1 X64.250 Y58.750 E183.62570
G1 X95.750 Y58.750 E183.87259
G1 X95.750 Y101.250 E184.20569
G0 F9000 X95.400 Y100.990
G0 X94.500 Y100.000
;LAYER:7
G0 X95.074 Y99.380 Z1.000
;TYPE:FILL
G1 F3000 X93.879 Y100.574 E184.21893
G0 F9000 X89.968 Y100.574
G1 F3000 X64.924 Y75.531 E184.49652
G0 F9000 X64.925 Y72.960
G1 F3000 X78.461 Y59.424 E184.64656
G0 F9000 X77.102 Y59.424
G1 F3000 X95.074 Y77.397 E184.84577
G0 F9000 X95.074 Y78.167
G1 F3000 X72.666 Y100.574 E185.09414
G0 F9000 X75.825 Y100.574
G1 F3000 X64.924 Y89.673 E185.21497
G0 F9000 X64.925 Y87.102
G1 F3000 X92.603 Y59.424 E185.52176
G0 F9000 X91.244 Y59.424
G1 F3000 X95.074 Y63.254 E185.56421
G0 F9000 X95.074 Y64.024
G1 F3000 X64.925 Y94.173 E185.89839
G0 F9000 X64.924 Y96.744
G1 F3000 X68.754 Y100.574 E185.94084
G0 F9000 X65.595 Y100.574
G1 F3000 X95.074 Y71.096 E186.26759
G0 F9000 X95.074 Y70.326
G1 F3000 X84.173 Y59.424 E186.38842
G0 F9000 X85.532 Y59.424
G1 F3000 X64.925 Y80.031 E186.61683
G0 F9000 X64.924 Y82.602
G1 F3000 X82.896 Y100.574 E186.81604
G0 F9000 X86.808 Y100.574
G1 F3000 X95.074 Y92.309 E186.90766
G0 F9000 X95.074 Y91.539
G1 F3000 X64.924 Y61.388 E187.24185
G0 F9000 X64.925 Y65.889
G1 F3000 X71.390 Y59.424 E187.31351
G0 F9000 X70.031 Y59.424
G1 F3000 X95.074 Y84.468 E187.59110
G0 F9000 X95.074 Y85.238
G1 F3000 X79.737 Y100.574 E187.76109
G0 F9000 X95.074 Y98.610
G1 F3000 X64.924 Y68.459 E188.09529
G0 F9000 X64.750 Y59.250
;TYPE:WALL-INNER
G1 F3000 X95.250 Y59.250 E188.33434
G1 X95.250 Y100.750 E188.65960
G1 X64.750 Y100.750 E188.89865
G1 X64.750 Y59.250 E189.22392
G0 F9000 X64.250 Y58.750
;TYPE:WALL-OUTER
G1 F3000 X95.750 Y58.750 E189.47081
G1 X95.750 Y101.250 E189.80391
G1 X64.250 Y101.250 E190.05080
G1 X64.250 Y58.750 E190.38391
G0 F9000 X64.600 Y59.010
G0 X65.500 Y60.000
;LAYER:8
G0 X64.924 Y61.388 Z1.100
;TYPE:FILL
G1 F3000 X95.074 Y91.539 E190.71810
G0 F9000 X95.074 Y92.309
G1 F3000 X86.808 Y100.574 E190.80972
G0 F9000 X89.968 Y100.574
G1 F3000 X64.924 Y75.531 E191.08730
G0 F9000 X64.925 Y72.960
G1 F3000 X78.461 Y59.424 E191.23734
G0 F9000 X77.102 Y59.424
G1 F3000 X95.074 Y77.397 E191.43655
G0 F9000 X95.074 Y78.167
G1 F3000 X72.666 Y100.574 E191.68492
G0 F9000 X75.825 Y100.574
G1 F3000 X64.924 Y89.673 E191.80575
G0 F9000 X64.925 Y87.102
G1 F3000 X92.603 Y59.424 E192.11254
G0 F9000 X91.244 Y59.424
G1 F3000 X95.074 Y63.254 E192.15499
G0 F9000 X95.074 Y64.024
G1 F3000 X64.925 Y94.173 E192.48917
G0 F9000 X64.924 Y96.744
G1 F3000 X68.754 Y100.574 E192.53162
G0 F9000 X65.595 Y100.574
G1 F3000 X95.074 Y71.096 E192.85837
G0 F9000 X95.074 Y70.326
G1 F3000 X84.173 Y59.424 E192.97920
G0 F9000 X85.532 Y59.424
G1 F3000 X64.925 Y80.031 E193.20762
G0 F9000 X64.924 Y82.602
G1 F3000 X82.896 Y100.574 E193.40682
G0 F9000 X93.879 Y100.574
G1 F3000 X95.074 Y99.380 E193.42006
G0 F9000 X95.074 Y98.610
G1 F3000 X64.924 Y68.459 E193.75426
G0 F9000 X64.925 Y65.889
G1 F3000 X71.390 Y59.424 E193.82592
G0 F9000 X70.031 Y59.424
G1 F3000 X95.074 Y84.468 E194.10351
G0 F9000 X95.074 Y85.238
G1 F3000 X79.737 Y100.574 E194.27350
G0 F9000 X64.750 Y100.750
;TYPE:WALL-INNER
G1 F3000 X64.750 Y59.250 E194.59876
G1 X95.250 Y59.250 E194.83782
G1 X95.250 Y100.750 E195.16308
G1 X64.750 Y100.750 E195.40213
G0 F9000 X64.250 Y101.250
;TYPE:WALL-OUTER
G1 F3000 X64.250 Y58.750 E195.73524
G1 X95.750 Y58.750 E195.98212
G1 X95.750 Y101.250 E196.31523
G1 X64.250 Y101.250 E196.56212
G0 F9000 X64.510 Y100.900
G0 X65.500 Y100.000
;LAYER:9
G0 X65.595 Y100.574 Z1.200
;TYPE:FILL
G1 F3000 X95.074 Y71.096 E196.88886
G0 F9000 X95.074 Y70.326
G1 F3000 X84.173 Y59.424 E197.00970
G0 F9000 X85.532 Y59.424
G1 F3000 X64.925 Y80.031 E197.23811
G0 F9000 X64.924 Y82.602
G1 F3000 X82.896 Y100.574 E197.43732
G0 F9000 X86.808 Y100.574
G1 F3000 X95.074 Y92.309 E197.52893
G0 F9000 X95.074 Y91.539
G1 F3000 X64.924 Y61.388 E197.86313
G0 F9000 X64.925 Y65.889
G1 F3000 X71.390 Y59.424 E197.93479
G0 F9000 X70.031 Y59.424
G1 F3000 X95.074 Y84.468 E198.21238
G0 F9000 X95.074 Y85.238
G1 F3000 X79.737 Y100.574 E198.38237
G0 F9000 X75.825 Y100.574
G1 F3000 X64.924 Y89.673 E198.50320
G0 F9000 X64.925 Y87.102
G1 F3000 X92.603 Y59.424 E198.80999
G0 F9000 X91.244 Y59.424
G1 F3000 X95.074 Y63.254 E198.85244
G0 F9000 X95.074 Y64.024
G1 F3000 X64.925 Y94.173 E199.18662
G0 F9000 X64.924 Y96.744
G1 F3000 X68.754 Y100.574 E199.22907
G0 F9000 X72.666 Y100.574
G1 F3000 X95.074 Y78.167 E199.47744
G0 F9000 X95.074 Y77.397
G1 F3000 X77.102 Y59.424 E199.67665
G0 F9000 X78.461 Y59.424
G1 F3000 X64.925 Y72.960 E199.82669
G0 F9000 X64.924 Y75.531
G1 F3000 X89.968 Y100.574 E200.10428
G0 F9000 X93.879 Y100.574
G1 F3000 X95.074 Y99.380 E200.11752
G0 F9000 X95.074 Y98.610
G1 F3000 X64.924 Y68.459 E200.45171
G0 F9000 X64.750 Y59.250
;TYPE:WALL-INNER
G1 F3000 X95.250 Y59.250 E200.69076
G1 X95.250 Y100.750 E201.01603
G1 X64.750 Y100.750 E201.25508
G1 X64.750 Y59.250 E201.58034
G0 F9000 X64.250 Y58.750
;TYPE:WALL-OUTER
G1 F3000 X95.750 Y58.750 E201.82723
G1 X95.750 Y101.250 E202.16034
G1 X64.250 Y101.250 E202.40722
G1 X64.250 Y58.750 E202.74033
G0 F9000 X64.600 Y59.010
G0 X65.500 Y60.000
;LAYER:10
G0 X64.924 Y61.388 Z1.300
;TYPE:FILL
G1 F3000 X95.074 Y91.539 E203.07452
G0 F9000 X95.074 Y92.309
G1 F3000 X86.808 Y100.574 E203.16614
G0 F9000 X89.968 Y100.574
G1 F3000 X64.924 Y75.531 E203.44373
G0 F9000 X64.925 Y72.960
G1 F3000 X78.461 Y59.424 E203.59376
G0 F9000 X77.102 Y59.424
G1 F3000 X95.074 Y77.397 E203.79297
G0 F9000 X95.074 Y78.167
G1 F3000 X72.666 Y100.574 E204.04134
G0 F9000 X75.825 Y100.574
G1 F3000 X64.924 Y89.673 E204.16217
G0 F9000 X64.925 Y87.102
G1 F3000 X92.603 Y59.424 E204.46896
G0 F9000 X91.244 Y59.424
G1 F3000 X95.074 Y63.254 E204.51142
G0 F9000 X95.074 Y64.024
G1 F3000 X64.925 Y94.173 E204.84559
G0 F9000 X64.924 Y96.744
G1 F3000 X68.754 Y100.574 E204.88805
G0 F9000 X65.595 Y100.574
G1 F3000 X95.074 Y71.096 E205.21479
G0 F9000 X95.074 Y70.326
G1 F3000 X84.173 Y59.424 E205.33563
G0 F9000 X85.532 Y59.424
G1 F3000 X64.925 Y80.031 E205.56404
G0 F9000 X64.924 Y82.602
G1 F3000 X82.896 Y100.574 E205.76325
G0 F9000 X93.879 Y100.574
G1 F3000 X95.074 Y99.380 E205.77649
G0 F9000 X95.074 Y98.610
G1 F3000 X64.924 Y68.459 E206.11068
G0 F9000 X64.925 Y65.889
G1 F3000 X71.390 Y59.424 E206.18234
G0 F9000 X70.031 Y59.424
G1 F3000 X95.074 Y84.468 E206.45993
G0 F9000 X95.074 Y85.238
G1 F3000 X79.737 Y100.574 E206.62992
G0 F9000 X64.750 Y100.750
;TYPE:WALL-INNER
G1 F3000 X64.750 Y59.250 E206.95519
G1 X95.250 Y59.250 E207.19424
G1 X95.250 Y100.750 E207.51950
G1 X64.750 Y100.750 E207.75856
G0 F9000 X64.250 Y101.250
;TYPE:WALL-OUTER
G1 F3000 X64.250 Y58.750 E208.09166
G1 X95.750 Y58.750 E208.33855
G1 X95.750 Y101.250 E208.67165
G1 X64.250 Y101.250 E208.91854
G0 F9000 X64.510 Y100.900
G0 X65.500 Y100.000
;LAYER:11
G0 X65.595 Y100.574 Z1.400
;TYPE:FILL
G1 F3000 X95.074 Y71.096 E209.24529
G0 F9000 X95.074 Y70.326
G1 F3000 X84.173 Y59.424 E209.36612
G0 F9000 X85.532 Y59.424
G1 F3000 X64.925 Y80.031 E209.59453
G0 F9000 X64.924 Y82.602
G1 F3000 X82.896 Y100.574 E209.79374
G0 F9000 X86.808 Y100.574
G1 F3000 X95.074 Y92.309 E209.88536
G0 F9000 X95.074 Y91.539
G1 F3000 X64.924 Y61.388 E210.21955
G0 F9000 X64.925 Y65.889
G1 F3000 X71.390 Y59.424 E210.29121
G0 F9000 X70.031 Y59.424
G1 F3000 X95.074 Y84.468 E210.56880
G0 F9000 X95.074 Y85.238
G1 F3000 X79.737 Y100.574 E210.73879
G0 F9000 X75.825 Y100.574
G1 F3000 X64.924 Y89.673 E210.85962
G0 F9000 X64.925 Y87.102
G1 F3000 X92.603 Y59.424 E211.16641
G0 F9000 X91.244 Y59.424
G1 F3000 X95.074 Y63.254 E211.20886
G0 F9000 X95.074 Y64.024
G1 F3000 X64.925 Y94.173 E211.54304
G0 F9000 X64.924 Y96.744
G1 F3000 X68.754 Y100.574 E211.58549
G0 F9000 X72.666 Y100.574
G1 F3000 X95.074 Y78.167 E211.83386
G0 F9000 X95.074 Y77.397
G1 F3000 X77.102 Y59.424 E212.03307
G0 F9000 X78.461 Y59.424
G1 F3000 X64.925 Y72.960 E212.18311
G0 F9000 X64.924 Y75.531
G1 F3000 X89.968 Y100.574 E212.46070
G0 F9000 X93.879 Y100.574
G1 F3000 X95.074 Y99.380 E212.47394
G0 F9000 X95.074 Y98.610
G1 F3000 X64.924 Y68.459 E212.80813
G0 F9000 X64.750 Y59.250
;TYPE:WALL-INNER
G1 F3000 X95.250 Y59.250 E213.04718
G1 X95.250 Y100.750 E213.37245
G1 X64.750 Y100.750 E213.61150
G1 X64.750 Y59.250 E213.93677
G0 F9000 X64.250 Y58.750
;TYPE:WALL-OUTER
G1 F3000 X95.750 Y58.750 E214.18366
G1 X95.750 Y101.250 E214.51676
G1 X64.250 Y101.250 E214.76365
G1 X64.250 Y58.750 E215.09675
G0 F9000 X64.600 Y59.010
G0 X65.500 Y60.000
;LAYER:12
G0 X64.924 Y61.388 Z1.500
;TYPE:FILL
G1 F3000 X95.074 Y91.539 E215.43095
G0 F9000 X95.074 Y92.309
G1 F3000 X86.808 Y100.574 E215.52256
G0 F9000 X89.968 Y100.574
G1 F3000 X64.924 Y75.531 E215.80015
G0 F9000 X64.925 Y72.960
G1 F3000 X78.461 Y59.424 E215.95019
G0 F9000 X77.102 Y59.424
G1 F3000 X95.074 Y77.397 E216.14940
G0 F9000 X95.074 Y78.167
G1 F3000 X72.666 Y100.574 E216.39777
G0 F9000 X75.825 Y100.574
G1 F3000 X64.924 Y89.673 E216.51860
G0 F9000 X64.925 Y87.102
G1 F3000 X92.603 Y59.424 E216.82539
G0 F9000 X91.244 Y59.424
G1 F3000 X95.074 Y63.254 E216.86784
G0 F9000 X95.074 Y64.024
G1 F3000 X64.925 Y94.173 E217.20202
G0 F9000 X64.924 Y96.744
G1 F3000 X68.754 Y100.574 E217.24447
G0 F9000 X65.595 Y100.574
G1 F3000 X95.074 Y71.096 E217.57122
G0 F9000 X95.074 Y70.326
G1 F3000 X84.173 Y59.424 E217.69205
G0 F9000 X85.532 Y59.424
G1 F3000 X64.925 Y80.031 E217.92046
G0 F9000 X64.924 Y82.602
G1 F3000 X82.896 Y100.574 E218.11967
G0 F9000 X93.879 Y100.574
G1 F3000 X95.074 Y99.380 E218.13291
G0 F9000 X95.074 Y98.610
G1 F3000 X64.924 Y68.459 E218.46710
G0 F9000 X64.925 Y65.889
G1 F3000 X71.390 Y59.424 E218.53876
G0 F9000 X70.031 Y59.424
G1 F3000 X95.074 Y84.468 E218.81635
G0 F9000 X95.074 Y85.238
G1 F3000 X79.737 Y100.574 E218.98634
G0 F9000 X64.750 Y100.750
;TYPE:WALL-INNER
G1 F3000 X64.750 Y59.250 E219.31161
G1 X95.250 Y59.250 E219.55066
G1 X95.250 Y100.750 E219.87593
G1 X64.750 Y100.750 E220.11498
G0 F9000 X64.250 Y101.250
;TYPE:WALL-OUTER
G1 F3000 X64.250 Y58.750 E220.44808
G1 X95.750 Y58.750 E220.69497
G1 X95.750 Y101.250 E221.02807
G1 X64.250 Y101.250 E221.27496
G0 F9000 X64.510 Y100.900
G0 X65.500 Y100.000
;LAYER:13
G0 X65.595 Y100.574 Z1.600
;TYPE:FILL
G1 F3000 X95.074 Y71.096 E221.60171
G0 F9000 X95.074 Y70.326
G1 F3000 X84.173 Y59.424 E221.72254
G0 F9000 X85.532 Y59.424
G1 F3000 X64.925 Y80.031 E221.95096
G0 F9000 X64.924 Y82.602
G1 F3000 X82.896 Y100.574 E222.15016
G0 F9000 X86.808 Y100.574
G1 F3000 X95.074 Y92.309 E222.24178
G0 F9000 X95.074 Y91.539
G1 F3000 X64.924 Y61.388 E222.57597
G0 F9000 X64.925 Y65.889
G1 F3000 X71.390 Y59.424 E222.64763
G0 F9000 X70.031 Y59.424
G1 F3000 X95.074 Y84.468 E222.92522
G0 F9000 X95.074 Y85.238
G1 F3000 X79.737 Y100.574 E223.09521
G0 F9000 X75.825 Y100.574
G1 F3000 X64.924 Y89.673 E223.21604
G0 F9000 X64.925 Y87.102
G1 F3000 X92.603 Y59.424 E223.52283
G0 F9000 X91.244 Y59.424
G1 F3000 X95.074 Y63.254 E223.56528
G0 F9000 X95.074 Y64.024
G1 F3000 X64.925 Y94.173 E223.89946
G0 F9000 X64.924 Y96.744
G1 F3000 X68.754 Y100.574 E223.94192
G0 F9000 X72.666 Y100.574
G1 F3000 X95.074 Y78.167 E224.19029
G0 F9000 X95.074 Y77.397
G1 F3000 X77.102 Y59.424 E224.38950
G0 F9000 X78.461 Y59.424
G1 F3000 X64.925 Y72.960 E224.53953
G0 F9000 X64.924 Y75.531
G1 F3000 X89.968 Y100.574 E224.81712
G0 F9000 X93.879 Y100.574
G1 F3000 X95.074 Y99.380 E224.83036
G0 F9000 X95.074 Y98.610
G1 F3000 X64.924 Y68.459 E225.16456
G0 F9000 X64.750 Y59.250
;TYPE:WALL-INNER
G1 F3000 X95.250 Y59.250 E225.40361
G1 X95.250 Y100.750 E225.72887
G1 X64.750 Y100.750 E225.96792
G1 X64.750 Y59.250 E226.29319
G0 F9000 X64.250 Y58.750
;TYPE:WALL-OUTER
G1 F3000 X95.750 Y58.750 E226.54008
G1 X95.750 Y101.250 E226.87318
G1 X64.250 Y101.250 E227.12007
G1 X64.250 Y58.750 E227.45317
G0 F9000 X64.600 Y59.010
G0 X65.500 Y60.000
;LAYER:14
G0 X64.924 Y61.388 Z1.700
;TYPE:FILL
G1 F3000 X95.074 Y91.539 E227.78737
G0 F9000 X95.074 Y92.309
G1 F3000 X86.808 Y100.574 E227.87899
G0 F9000 X89.968 Y100.574
G1 F3000 X64.924 Y75.531 E228.15657
G0 F9000 X64.925 Y72.960
G1 F3000 X78.461 Y59.424 E228.30661
G0 F9000 X77.102 Y59.424
G1 F3000 X95.074 Y77.397 E228.50582
G0 F9000 X95.074 Y78.167
G1 F3000 X72.666 Y100.574 E228.75419
G0 F9000 X75.825 Y100.574
G1 F3000 X64.924 Y89.673 E228.87502
G0 F9000 X64.925 Y87.102
G1 F3000 X92.603 Y59.424 E229.18181
G0 F9000 X91.244 Y59.424
G1 F3000 X95.074 Y63.254 E229.22426
G0 F9000 X95.074 Y64.024
G1 F3000 X64.925 Y94.173 E229.55844
G0 F9000 X64.924 Y96.744
G1 F3000 X68.754 Y100.574 E229.60089
G0 F9000 X65.595 Y100.574
G1 F3000 X95.074 Y71.096 E229.92764
G0 F9000 X95.074 Y70.326
G1 F3000 X84.173 Y59.424 E230.04847
G0 F9000 X85.532 Y59.424
G1 F3000 X64.925 Y80.031 E230.27689
G0 F9000 X64.924 Y82.602
G1 F3000 X82.896 Y100.574 E230.47609
G0 F9000 X93.879 Y100.574
G1 F3000 X95.074 Y99.380 E230.48933
G0 F9000 X95.074 Y98.610
G1 F3000 X64.924 Y68.459 E230.82353
G0 F9000 X64.925 Y65.889
G1 F3000 X71.390 Y59.424 E230.89519
G0 F9000 X70.031 Y59.424
G1 F3000 X95.074 Y84.468 E231.17277
G0 F9000 X95.074 Y85.238
G1 F3000 X79.737 Y100.574 E231.34277
G0 F9000 X64.750 Y100.750
;TYPE:WALL-INNER
G1 F3000 X64.750 Y59.250 E231.66803
G1 X95.250 Y59.250 E231.90708
G1 X95.250 Y100.750 E232.23235
G1 X64.750 Y100.750 E232.47140
G0 F9000 X64.250 Y101.250
;TYPE:WALL-OUTER
G1 F3000 X64.250 Y58.750 E232.80450
G1 X95.750 Y58.750 E233.05139
G1 X95.750 Y101.250 E233.38450
G1 X64.250 Y101.250 E233.63139
G0 F9000 X64.510 Y100.900
G0 X65.500 Y100.000
;LAYER:15
G0 X65.595 Y100.574 Z1.800
;TYPE:FILL
G1 F3000 X95.074 Y71.096 E233.95813
G0 F9000 X95.074 Y70.326
G1 F3000 X84.173 Y59.424 E234.07897
G0 F9000 X85.532 Y59.424
G1 F3000 X64.925 Y80.031 E234.30738
G0 F9000 X64.924 Y82.602
G1 F3000 X82.896 Y100.574 E234.50658
G0 F9000 X86.808 Y100.574
G1 F3000 X95.074 Y92.309 E234.59820
G0 F9000 X95.074 Y91.539
G1 F3000 X64.924 Y61.388 E234.93240
G0 F9000 X64.925 Y65.889
G1 F3000 X71.390 Y59.424 E235.00406
G0 F9000 X70.031 Y59.424
G1 F3000 X95.074 Y84.468 E235.28164
G0 F9000 X95.074 Y85.238
G1 F3000 X79.737 Y100.574 E235.45164
G0 F9000 X75.825 Y100.574
G1 F3000 X64.924 Y89.673 E235.57247
G0 F9000 X64.925 Y87.102
G1 F3000 X92.603 Y59.424 E235.87926
G0 F9000 X91.244 Y59.424
G1 F3000 X95.074 Y63.254 E235.92171
G0 F9000 X95.074 Y64.024
G1 F3000 X64.925 Y94.173 E236.25589
G0 F9000 X64.924 Y96.744
G1 F3000 X68.754 Y100.574 E236.29834
G0 F9000 X72.666 Y100.574
G1 F3000 X95.074 Y78.167 E236.54671
G0 F9000 X95.074 Y77.397
G1 F3000 X77.102 Y59.424 E236.74592
G0 F9000 X78.461 Y59.424
G1 F3000 X64.925 Y72.960 E236.89596
G0 F9000 X64.924 Y75.531
G1 F3000 X89.968 Y100.574 E237.17354
G0 F9000 X93.879 Y100.574
G1 F3000 X95.074 Y99.380 E237.18678
G0 F9000 X95.074 Y98.610
G1 F3000 X64.924 Y68.459 E237.52098
G0 F9000 X64.750 Y59.250
;TYPE:WALL-INNER
G1 F3000 X95.250 Y59.250 E237.76003
G1 X95.250 Y100.750 E238.08530
G1 X64.750 Y100.750 E238.32435
G1 X64.750 Y59.250 E238.64961
G0 F9000 X64.250 Y58.750
;TYPE:WALL-OUTER
G1 F3000 X95.750 Y58.750 E238.89650
G1 X95.750 Y101.250 E239.22960
G1 X64.250 Y101.250 E239.47649
G1 X64.250 Y58.750 E239.80960
G0 F9000 X64.600 Y59.010
G0 X65.500 Y60.000
;LAYER:16
G0 X64.924 Y61.388 Z1.900
;TYPE:FILL
G1 F3000 X95.074 Y91.539 E240.14379
G0 F9000 X95.074 Y92.309
G1 F3000 X86.808 Y100.574 E240.23541
G0 F9000 X89.968 Y100.574
G1 F3000 X64.924 Y75.531 E240.51300
G0 F9000 X64.925 Y72.960
G1 F3000 X78.461 Y59.424 E240.66303
G0 F9000 X77.102 Y59.424
G1 F3000 X95.074 Y77.397 E240.86224
G0 F9000 X95.074 Y78.167
G1 F3000 X72.666 Y100.574 E241.11061
G0 F9000 X75.825 Y100.574
G1 F3000 X64.924 Y89.673 E241.23144
G0 F9000 X64.925 Y87.102
G1 F3000 X92.603 Y59.424 E241.53823
G0 F9000 X91.244 Y59.424
G1 F3000 X95.074 Y63.254 E241.58068
G0 F9000 X95.074 Y64.024
G1 F3000 X64.925 Y94.173 E241.91486
G0 F9000 X64.924 Y96.744
G1 F3000 X68.754 Y100.574 E241.95732
G0 F9000 X65.595 Y100.574
G1 F3000 X95.074 Y71.096 E242.28406
G0 F9000 X95.074 Y70.326
G1 F3000 X84.173 Y59.424 E242.40490
G0 F9000 X85.532 Y59.424
G1 F3000 X64.925 Y80.031 E242.63331
G0 F9000 X64.924 Y82.602
G1 F3000 X82.896 Y100.574 E242.83251
G0 F9000 X93.879 Y100.574
G1 F3000 X95.074 Y99.380 E242.84575
G0 F9000 X95.074 Y98.610
G1 F3000 X64.924 Y68.459 E243.17995
G0 F9000 X64.925 Y65.889
G1 F3000 X71.390 Y59.424 E243.25161
G0 F9000 X70.031 Y59.424
G1 F3000 X95.074 Y84.468 E243.52920
G0 F9000 X95.074 Y85.238
G1 F3000 X79.737 Y100.574 E243.69919
G0 F9000 X64.750 Y100.750
;TYPE:WALL-INNER
G1 F3000 X64.750 Y59.250 E244.02446
G1 X95.250 Y59.250 E244.26351
G1 X95.250 Y100.750 E244.58877
G1 X64.750 Y100.750 E244.82782
G0 F9000 X64.250 Y101.250
;TYPE:WALL-OUTER
G1 F3000 X64.250 Y58.750 E245.16093
G1 X95.750 Y58.750 E245.40782
G1 X95.750 Y101.250 E245.74092
G1 X64.250 Y101.250 E245.98781
G0 F9000 X64.510 Y100.900
G0 X65.500 Y100.000
;LAYER:17
G0 X65.595 Y100.574 Z2.000
;TYPE:FILL
G1 F3000 X95.074 Y71.096 E246.31455
G0 F9000 X95.074 Y70.326
G1 F3000 X84.173 Y59.424 E246.43539
G0 F9000 X85.532 Y59.424
G1 F3000 X64.925 Y80.031 E246.66380
G0 F9000 X64.924 Y82.602
G1 F3000 X82.896 Y100.574 E246.86301
G0 F9000 X86.808 Y100.574
G1 F3000 X95.074 Y92.309 E246.95462
G0 F9000 X95.074 Y91.539
G1 F3000 X64.924 Y61.388 E247.28882
G0 F9000 X64.925 Y65.889
G1 F3000 X71.390 Y59.424 E247.36048
G0 F9000 X70.031 Y59.424
G1 F3000 X95.074 Y84.468 E247.63807
G0 F9000 X95.074 Y85.238
G1 F3000 X79.737 Y100.574 E247.80806
G0 F9000 X75.825 Y100.574
G1 F3000 X64.924 Y89.673 E247.92889
G0 F9000 X64.925 Y87.102
G1 F3000 X92.603 Y59.424 E248.23568
G0 F9000 X91.244 Y59.424
G1 F3000 X95.074 Y63.254 E248.27813
G0 F9000 X95.074 Y64.024
G1 F3000 X64.925 Y94.173 E248.61231
G0 F9000 X64.924 Y96.744
G1 F3000 X68.754 Y100.574 E248.65476
G0 F9000 X72.666 Y100.574
G1 F3000 X95.074 Y78.167 E248.90313
G0 F9000 X95.074 Y77.397
G1 F3000 X77.102 Y59.424 E249.10234
G0 F9000 X78.461 Y59.424
G1 F3000 X64.925 Y72.960 E249.25238
G0 F9000 X64.924 Y75.531
G1 F3000 X89.968 Y100.574 E249.52997
G0 F9000 X93.879 Y100.574
G1 F3000 X95.074 Y99.380 E249.54321
G0 F9000 X95.074 Y98.610
G1 F3000 X64.924 Y68.459 E249.87740
G0 F9000 X64.750 Y59.250
;TYPE:WALL-INNER
G1 F3000 X95.250 Y59.250 E250.11645
G1 X95.250 Y100.750 E250.44172
G1 X64.750 Y100.750 E250.68077
G1 X64.750 Y59.250 E251.00604
G0 F9000 X64.250 Y58.750
;TYPE:WALL-OUTER
G1 F3000 X95.750 Y58.750 E251.25292
G1 X95.750 Y101.250 E251.58603
G1 X64.250 Y101.250 E251.83292
G1 X64.250 Y58.750 E252.16602
G0 F9000 X64.600 Y59.010
G0 X65.500 Y60.000
;LAYER:18
G0 X64.924 Y61.388 Z2.100
;TYPE:FILL
G1 F3000 X95.074 Y91.539 E252.50021
G0 F9000 X95.074 Y92.309
G1 F3000 X86.808 Y100.574 E252.59183
G0 F9000 X89.968 Y100.574
G1 F3000 X64.924 Y75.531 E252.86942
G0 F9000 X64.925 Y72.960
G1 F3000 X78.461 Y59.424 E253.01946
G0 F9000 X77.102 Y59.424
G1 F3000 X95.074 Y77.397 E253.21867
G0 F9000 X95.074 Y78.167
G1 F3000 X72.666 Y100.574 E253.46704
G0 F9000 X75.825 Y100.574
G1 F3000 X64.924 Y89.673 E253.58787
G0 F9000 X64.925 Y87.102
G1 F3000 X92.603 Y59.424 E253.89465
G0 F9000 X91.244 Y59.424
G1 F3000 X95.074 Y63.254 E253.93711
G0 F9000 X95.074 Y64.024
G1 F3000 X64.925 Y94.173 E254.27129
G0 F9000 X64.924 Y96.744
G1 F3000 X68.754 Y100.574 E254.31374
G0 F9000 X65.595 Y100.574
G1 F3000 X95.074 Y71.096 E254.64048
G0 F9000 X95.074 Y70.326
G1 F3000 X84.173 Y59.424 E254.76132
G0 F9000 X85.532 Y59.424
G1 F3000 X64.925 Y80.031 E254.98973
G0 F9000 X64.924 Y82.602
G1 F3000 X82.896 Y100.574 E255.18894
G0 F9000 X93.879 Y100.574
G1 F3000 X95.074 Y99.380 E255.20218
G0 F9000 X95.074 Y98.610
G1 F3000 X64.924 Y68.459 E255.53637
G0 F9000 X64.925 Y65.889
G1 F3000 X71.390 Y59.424 E255.60803
G0 F9000 X70.031 Y59.424
G1 F3000 X95.074 Y84.468 E255.88562
G0 F9000 X95.074 Y85.238
G1 F3000 X79.737 Y100.574 E256.05561
G0 F9000 X64.750 Y100.750
;TYPE:WALL-INNER
G1 F3000 X64.750 Y59.250 E256.38088
G1 X95.250 Y59.250 E256.61993
G1 X95.250 Y100.750 E256.94520
G1 X64.750 Y100.750 E257.18425
G0 F9000 X64.250 Y101.250
;TYPE:WALL-OUTER
G1 F3000 X64.250 Y58.750 E257.51735
G1 X95.750 Y58.750 E257.76424
G1 X95.750 Y101.250 E258.09734
G1 X64.250 Y101.250 E258.34423
G0 F9000 X64.510 Y100.900
G0 X65.500 Y100.000
;LAYER:19
G0 X65.595 Y100.574 Z2.200
;TYPE:FILL
G1 F3000 X95.074 Y71.096 E258.67098
G0 F9000 X95.074 Y70.326
G1 F3000 X84.173 Y59.424 E258.79181
G0 F9000 X85.532 Y59.424
G1 F3000 X64.925 Y80.031 E259.02022
G0 F9000 X64.924 Y82.602
G1 F3000 X82.896 Y100.574 E259.21943
G0 F9000 X86.808 Y100.574
G1 F3000 X95.074 Y92.309 E259.31105
G0 F9000 X95.074 Y91.539
G1 F3000 X64.924 Y61.388 E259.64524
G0 F9000 X64.925 Y65.889
G1 F3000 X71.390 Y59.424 E259.71690
G0 F9000 X70.031 Y59.424
G1 F3000 X95.074 Y84.468 E259.99449
G0 F9000 X95.074 Y85.238
G1 F3000 X79.737 Y100.574 E260.16448
G0 F9000 X75.825 Y100.574
G1 F3000 X64.924 Y89.673 E260.28531
G0 F9000 X64.925 Y87.102
G1 F3000 X92.603 Y59.424 E260.59210
G0 F9000 X91.244 Y59.424
G1 F3000 X95.074 Y63.254 E260.63455
G0 F9000 X95.074 Y64.024
G1 F3000 X64.925 Y94.173 E260.96873
G0 F9000 X64.924 Y96.744
G1 F3000 X68.754 Y100.574 E261.01118
G0 F9000 X72.666 Y100.574
G1 F3000 X95.074 Y78.167 E261.25955
G0 F9000 X95.074 Y77.397
G1 F3000 X77.102 Y59.424 E261.45877
G0 F9000 X78.461 Y59.424
G1 F3000 X64.925 Y72.960 E261.60880
G0 F9000 X64.924 Y75.531
G1 F3000 X89.968 Y100.574 E261.88639
G0 F9000 X93.879 Y100.574
G1 F3000 X95.074 Y99.380 E261.89963
G0 F9000 X95.074 Y98.610
G1 F3000 X64.924 Y68.459 E262.23382
G0 F9000 X64.750 Y59.250
;TYPE:WALL-INNER
G1 F3000 X95.250 Y59.250 E262.47288
G1 X95.250 Y100.750 E262.79814
G1 X64.750 Y100.750 E263.03719
G1 X64.750 Y59.250 E263.36246
G0 F9000 X64.250 Y58.750
;TYPE:WALL-OUTER
G1 F3000 X95.750 Y58.750 E263.60935
G1 X95.750 Y101.250 E263.94245
G1 X64.250 Y101.250 E264.18934
G1 X64.250 Y58.750 E264.52244
G0 F9000 X64.600 Y59.010
G0 X65.500 Y60.000
;LAYER:20
G0 X64.924 Y61.388 Z2.300
;TYPE:FILL
G1 F3000 X95.074 Y91.539 E264.85664
G0 F9000 X95.074 Y92.309
G1 F3000 X86.808 Y100.574 E264.94825
G0 F9000 X89.968 Y100.574
G1 F3000 X64.924 Y75.531 E265.22584
G0 F9000 X64.925 Y72.960
G1 F3000 X78.461 Y59.424 E265.37588
G0 F9000 X77.102 Y59.424
G1 F3000 X95.074 Y77.397 E265.57509
G0 F9000 X95.074 Y78.167
G1 F3000 X72.666 Y100.574 E265.82346
G0 F9000 X75.825 Y100.574
G1 F3000 X64.924 Y89.673 E265.94429
G0 F9000 X64.925 Y87.102
G1 F3000 X92.603 Y59.424 E266.25108
G0 F9000 X91.244 Y59.424
G1 F3000 X95.074 Y63.254 E266.29353
G0 F9000 X95.074 Y64.024
G1 F3000 X64.925 Y94.173 E266.62771
G0 F9000 X64.924 Y96.744
G1 F3000 X68.754 Y100.574 E266.67016
G0 F9000 X65.595 Y100.574
G1 F3000 X95.074 Y71.096 E266.99691
G0 F9000 X95.074 Y70.326
G1 F3000 X84.173 Y59.424 E267.11774
G0 F9000 X85.532 Y59.424
G1 F3000 X64.925 Y80.031 E267.34615
G0 F9000 X64.924 Y82.602
G1 F3000 X82.896 Y100.574 E267.54536
G0 F9000 X93.879 Y100.574
G1 F3000 X95.074 Y99.380 E267.55860
G0 F9000 X95.074 Y98.610
G1 F3000 X64.924 Y68.459 E267.89280
G0 F9000 X64.925 Y65.889
G1 F3000 X71.390 Y59.424 E267.96445
G0 F9000 X70.031 Y59.424
G1 F3000 X95.074 Y84.468 E268.24204
G0 F9000 X95.074 Y85.238
G1 F3000 X79.737 Y100.574 E268.41204
G0 F9000 X64.750 Y100.750
;TYPE:WALL-INNER
G1 F3000 X64.750 Y59.250 E268.73730
G1 X95.250 Y59.250 E268.97635
G1 X95.250 Y100.750 E269.30162
G1 X64.750 Y100.750 E269.54067
G0 F9000 X64.250 Y101.250
;TYPE:WALL-OUTER
G1 F3000 X64.250 Y58.750 E269.87377
G1 X95.750 Y58.750 E270.12066
G1 X95.750 Y101.250 E270.45377
G1 X64.250 Y101.250 E270.70065
G0 F9000 X64.510 Y100.900
G0 X65.500 Y100.000
;LAYER:21
G0 X65.595 Y100.574 Z2.400
;TYPE:FILL
G1 F3000 X95.074 Y71.096 E271.02740
G0 F9000 X95.074 Y70.326
G1 F3000 X84.173 Y59.424 E271.14823
G0 F9000 X85.532 Y59.424
G1 F3000 X64.925 Y80.031 E271.37665
G0 F9000 X64.924 Y82.602
G1 F3000 X82.896 Y100.574 E271.57585
G0 F9000 X86.808 Y100.574
G1 F3000 X95.074 Y92.309 E271.66747
G0 F9000 X95.074 Y91.539
G1 F3000 X64.924 Y61.388 E272.00166
G0 F9000 X64.925 Y65.889
G1 F3000 X71.390 Y59.424 E272.07332
G0 F9000 X70.031 Y59.424
G1 F3000 X95.074 Y84.468 E272.35091
G0 F9000 X95.074 Y85.238
G1 F3000 X79.737 Y100.574 E272.52091
G0 F9000 X75.825 Y100.574
G1 F3000 X64.924 Y89.673 E272.64173
G0 F9000 X64.925 Y87.102
G1 F3000 X92.603 Y59.424 E272.94852
G0 F9000 X91.244 Y59.424
G1 F3000 X95.074 Y63.254 E272.99098
G0 F9000 X95.074 Y64.024
G1 F3000 X64.925 Y94.173 E273.32515
G0 F9000 X64.924 Y96.744
G1 F3000 X68.754 Y100.574 E273.36761
G0 F9000 X72.666 Y100.574
G1 F3000 X95.074 Y78.167 E273.61598
G0 F9000 X95.074 Y77.397
G1 F3000 X77.102 Y59.424 E273.81519
G0 F9000 X78.461 Y59.424
G1 F3000 X64.925 Y72.960 E273.96522
G0 F9000 X64.924 Y75.531
G1 F3000 X89.968 Y100.574 E274.24281
G0 F9000 X93.879 Y100.574
G1 F3000 X95.074 Y99.380 E274.25605
G0 F9000 X95.074 Y98.610
G1 F3000 X64.924 Y68.459 E274.59025
G0 F9000 X64.750 Y59.250
;TYPE:WALL-INNER
G1 F3000 X95.250 Y59.250 E274.82930
G1 X95.250 Y100.750 E275.15456
G1 X64.750 Y100.750 E275.39361
G1 X64.750 Y59.250 E275.71888
G0 F9000 X64.250 Y58.750
;TYPE:WALL-OUTER
G1 F3000 X95.750 Y58.750 E275.96577
G1 X95.750 Y101.250 E276.29887
G1 X64.250 Y101.250 E276.54576
G1 X64.250 Y58.750 E276.87887
G0 F9000 X64.600 Y59.010
G0 X65.500 Y60.000
;LAYER:22
G0 X64.924 Y61.388 Z2.500
;TYPE:FILL
G1 F3000 X95.074 Y91.539 E277.21306
G0 F9000 X95.074 Y92.309
G1 F3000 X86.808 Y100.574 E277.30468
G0 F9000 X89.968 Y100.574
G1 F3000 X64.924 Y75.531 E277.58226
G0 F9000 X64.925 Y72.960
G1 F3000 X78.461 Y59.424 E277.73230
G0 F9000 X77.102 Y59.424
G1 F3000 X95.074 Y77.397 E277.93151
G0 F9000 X95.074 Y78.167
G1 F3000 X72.666 Y100.574 E278.17988
G0 F9000 X75.825 Y100.574
G1 F3000 X64.924 Y89.673 E278.30071
G0 F9000 X64.925 Y87.102
G1 F3000 X92.603 Y59.424 E278.60750
G0 F9000 X91.244 Y59.424
G1 F3000 X95.074 Y63.254 E278.64995
G0 F9000 X95.074 Y64.024
G1 F3000 X64.925 Y94.173 E278.98413
G0 F9000 X64.924 Y96.744
G1 F3000 X68.754 Y100.574 E279.02658
G0 F9000 X65.595 Y100.574
G1 F3000 X95.074 Y71.096 E279.35333
G0 F9000 X95.074 Y70.326
G1 F3000 X84.173 Y59.424 E279.47416
G0 F9000 X85.532 Y59.424
G1 F3000 X64.925 Y80.031 E279.70258
G0 F9000 X64.924 Y82.602
G1 F3000 X82.896 Y100.574 E279.90178
G0 F9000 X93.879 Y100.574
G1 F3000 X95.074 Y99.380 E279.91502
G0 F9000 X95.074 Y98.610
G1 F3000 X64.924 Y68.459 E280.24922
G0 F9000 X64.925 Y65.889
G1 F3000 X71.390 Y59.424 E280.32088
G0 F9000 X70.031 Y59.424
G1 F3000 X95.074 Y84.468 E280.59847
G0 F9000 X95.074 Y85.238
G1 F3000 X79.737 Y100.574 E280.76846
G0 F9000 X64.750 Y100.750
;TYPE:WALL-INNER
G1 F3000 X64.750 Y59.250 E281.09372
G1 X95.250 Y59.250 E281.33278
G1 X95.250 Y100.750 E281.65804
G1 X64.750 Y100.750 E281.89709
G0 F9000 X64.250 Y101.250
;TYPE:WALL-OUTER
G1 F3000 X64.250 Y58.750 E282.23020
G1 X95.750 Y58.750 E282.47708
G1 X95.750 Y101.250 E282.81019
G1 X64.250 Y101.250 E283.05708
G0 F9000 X64.510 Y100.900
G0 X65.500 Y100.000
;LAYER:23
G0 X65.595 Y100.574 Z2.600
;TYPE:FILL
G1 F3000 X95.074 Y71.096 E283.38382
G0 F9000 X95.074 Y70.326
G1 F3000 X84.173 Y59.424 E283.50466
G0 F9000 X85.532 Y59.424
G1 F3000 X64.925 Y80.031 E283.73307
G0 F9000 X64.924 Y82.602
G1 F3000 X82.896 Y100.574 E283.93228
G0 F9000 X86.808 Y100.574
G1 F3000 X95.074 Y92.309 E284.02389
G0 F9000 X95.074 Y91.539
G1 F3000 X64.924 Y61.388 E284.35809
G0 F9000 X64.925 Y65.889
G1 F3000 X71.390 Y59.424 E284.42975
G0 F9000 X70.031 Y59.424
G1 F3000 X95.074 Y84.468 E284.70734
G0 F9000 X95.074 Y85.238
G1 F3000 X79.737 Y100.574 E284.87733
G0 F9000 X75.825 Y100.574
G1 F3000 X64.924 Y89.673 E284.99816
G0 F9000 X64.925 Y87.102
G1 F3000 X92.603 Y59.424 E285.30495
G0 F9000 X91.244 Y59.424
G1 F3000 X95.074 Y63.254 E285.34740
G0 F9000 X95.074 Y64.024
G1 F3000 X64.925 Y94.173 E285.68158
G0 F9000 X64.924 Y96.744
G1 F3000 X68.754 Y100.574 E285.72403
G0 F9000 X72.666 Y100.574
G1 F3000 X95.074 Y78.167 E285.97240
G0 F9000 X95.074 Y77.397
G1 F3000 X77.102 Y59.424 E286.17161
G0 F9000 X78.461 Y59.424
G1 F3000 X64.925 Y72.960 E286.32165
G0 F9000 X64.924 Y75.531
G1 F3000 X89.968 Y100.574 E286.59924
G0 F9000 X93.879 Y100.574
G1 F3000 X95.074 Y99.380 E286.61248
G0 F9000 X95.074 Y98.610
G1 F3000 X64.924 Y68.459 E286.94667
G0 F9000 X64.750 Y59.250
;TYPE:WALL-INNER
G1 F3000 X95.250 Y59.250 E287.18572
G1 X95.250 Y100.750 E287.51099
G1 X64.750 Y100.750 E287.75004
G1 X64.750 Y59.250 E288.07530
G0 F9000 X64.250 Y58.750
;TYPE:WALL-OUTER
G1 F3000 X95.750 Y58.750 E288.32219
G1 X95.750 Y101.250 E288.65530
G1 X64.250 Y101.250 E288.90218
G1 X64.250 Y58.750 E289.23529
G0 F9000 X64.600 Y59.010
G0 X65.500 Y60.000
;LAYER:24
G0 X64.924 Y61.388 Z2.700
;TYPE:FILL
G1 F3000 X95.074 Y91.539 E289.56948
G0 F9000 X95.074 Y92.309
G1 F3000 X86.808 Y100.574 E289.66110
G0 F9000 X89.968 Y100.574
G1 F3000 X64.924 Y75.531 E289.93869
G0 F9000 X64.925 Y72.960
G1 F3000 X78.461 Y59.424 E290.08872
G0 F9000 X77.102 Y59.424
G1 F3000 X95.074 Y77.397 E290.28793
G0 F9000 X95.074 Y78.167
G1 F3000 X72.666 Y100.574 E290.53630
G0 F9000 X75.825 Y100.574
G1 F3000 X64.924 Y89.673 E290.65713
G0 F9000 X64.925 Y87.102
G1 F3000 X92.603 Y59.424 E290.96392
G0 F9000 X91.244 Y59.424
G1 F3000 X95.074 Y63.254 E291.00638
G0 F9000 X95.074 Y64.024
G1 F3000 X64.925 Y94.173 E291.34055
G0 F9000 X64.924 Y96.744
G1 F3000 X68.754 Y100.574 E291.38301
G0 F9000 X65.595 Y100.574
G1 F3000 X95.074 Y71.096 E291.70975
G0 F9000 X95.074 Y70.326
G1 F3000 X84.173 Y59.424 E291.83059
G0 F9000 X85.532 Y59.424
G1 F3000 X64.925 Y80.031 E292.05900
G0 F9000 X64.924 Y82.602
G1 F3000 X82.896 Y100.574 E292.25821
G0 F9000 X93.879 Y100.574
G1 F3000 X95.074 Y99.380 E292.27145
G0 F9000 X95.074 Y98.610
G1 F3000 X64.924 Y68.459 E292.60564
G0 F9000 X64.925 Y65.889
G1 F3000 X71.390 Y59.424 E292.67730
G0 F9000 X70.031 Y59.424
G1 F3000 X95.074 Y84.468 E292.95489
G0 F9000 X95.074 Y85.238
G1 F3000 X79.737 Y100.574 E293.12488
G0 F9000 X64.750 Y100.750
;TYPE:WALL-INNER
G1 F3000 X64.750 Y59.250 E293.45015
G1 X95.250 Y59.250 E293.68920
G1 X95.250 Y100.750 E294.01446
G1 X64.750 Y100.750 E294.25352
G0 F9000 X64.250 Y101.250
;TYPE:WALL-OUTER
G1 F3000 X64.250 Y58.750 E294.58662
G1 X95.750 Y58.750 E294.83351
G1 X95.750 Y101.250 E295.16661
G1 X64.250 Y101.250 E295.41350
G0 F9000 X64.510 Y100.900
G0 X65.500 Y100.000
;LAYER:25
G0 X65.595 Y100.574 Z2.800
;TYPE:FILL
G1 F3000 X95.074 Y71.096 E295.74025
G0 F9000 X95.074 Y70.326
G1 F3000 X84.173 Y59.424 E295.86108
G0 F9000 X85.532 Y59.424
G1 F3000 X64.925 Y80.031 E296.08949
G0 F9000 X64.924 Y82.602
G1 F3000 X82.896 Y100.574 E296.28870
G0 F9000 X86.808 Y100.574
G1 F3000 X95.074 Y92.309 E296.38032
G0 F9000 X95.074 Y91.539
G1 F3000 X64.924 Y61.388 E296.71451
G0 F9000 X64.925 Y65.889
G1 F3000 X71.390 Y59.424 E296.78617
G0 F9000 X70.031 Y59.424
G1 F3000 X95.074 Y84.468 E297.06376
G0 F9000 X95.074 Y85.238
G1 F3000 X79.737 Y100.574 E297.23375
G0 F9000 X75.825 Y100.574
G1 F3000 X64.924 Y89.673 E297.35458
G0 F9000 X64.925 Y87.102
G1 F3000 X92.603 Y59.424 E297.66137
G0 F9000 X91.244 Y59.424
G1 F3000 X95.074 Y63.254 E297.70382
G0 F9000 X95.074 Y64.024
G1 F3000 X64.925 Y94.173 E298.03800
G0 F9000 X64.924 Y96.744
G1 F3000 X68.754 Y100.574 E298.08045
G0 F9000 X72.666 Y100.574
G1 F3000 X95.074 Y78.167 E298.32882
G0 F9000 X95.074 Y77.397
G1 F3000 X77.102 Y59.424 E298.52803
G0 F9000 X78.461 Y59.424
G1 F3000 X64.925 Y72.960 E298.67807
G0 F9000 X64.924 Y75.531
G1 F3000 X89.968 Y100.574 E298.95566
G0 F9000 X93.879 Y100.574
G1 F3000 X95.074 Y99.380 E298.96890
G0 F9000 X95.074 Y98.610
G1 F3000 X64.924 Y68.459 E299.30309
G0 F9000 X64.750 Y59.250
;TYPE:WALL-INNER
G1 F3000 X95.250 Y59.250 E299.54214
G1 X95.250 Y100.750 E299.86741
G1 X64.750 Y100.750 E300.10646
G1 X64.750 Y59.250 E300.43173
G0 F9000 X64.250 Y58.750
;TYPE:WALL-OUTER
G1 F3000 X95.750 Y58.750 E300.67862
G1 X95.750 Y101.250 E301.01172
G1 X64.250 Y101.250 E301.25861
G1 X64.250 Y58.750 E301.59171
G0 F9000 X64.600 Y59.010
G0 X65.500 Y60.000
;LAYER:26
G0 X64.924 Y61.388 Z2.900
;TYPE:FILL
G1 F3000 X95.074 Y91.539 E301.92591
G0 F9000 X95.074 Y92.309
G1 F3000 X86.808 Y100.574 E302.01752
G0 F9000 X89.968 Y100.574
G1 F3000 X64.924 Y75.531 E302.29511
G0 F9000 X64.925 Y72.960
G1 F3000 X78.461 Y59.424 E302.44515
G0 F9000 X77.102 Y59.424
G1 F3000 X95.074 Y77.397 E302.64436
G0 F9000 X95.074 Y78.167
G1 F3000 X72.666 Y100.574 E302.89273
G0 F9000 X75.825 Y100.574
G1 F3000 X64.924 Y89.673 E303.01356
G0 F9000 X64.925 Y87.102
G1 F3000 X92.603 Y59.424 E303.32035
G0 F9000 X91.244 Y59.424
G1 F3000 X95.074 Y63.254 E303.36280
G0 F9000 X95.074 Y64.024
G1 F3000 X64.925 Y94.173 E303.69698
G0 F9000 X64.924 Y96.744
G1 F3000 X68.754 Y100.574 E303.73943
G0 F9000 X65.595 Y100.574
G1 F3000 X95.074 Y71.096 E304.06618
G0 F9000 X95.074 Y70.326
G1 F3000 X84.173 Y59.424 E304.18701
G0 F9000 X85.532 Y59.424
G1 F3000 X64.925 Y80.031 E304.41542
G0 F9000 X64.924 Y82.602
G1 F3000 X82.896 Y100.574 E304.61463
G0 F9000 X93.879 Y100.574
G1 F3000 X95.074 Y99.380 E304.62787
G0 F9000 X95.074 Y98.610
G1 F3000 X64.924 Y68.459 E304.96206
G0 F9000 X64.925 Y65.889
G1 F3000 X71.390 Y59.424 E305.03372
G0 F9000 X70.031 Y59.424
G1 F3000 X95.074 Y84.468 E305.31131
G0 F9000 X95.074 Y85.238
G1 F3000 X79.737 Y100.574 E305.48130
G0 F9000 X64.750 Y100.750
;TYPE:WALL-INNER
G1 F3000 X64.750 Y59.250 E305.80657
G1 X95.250 Y59.250 E306.04562
G1 X95.250 Y100.750 E306.37089
G1 X64.750 Y100.750 E306.60994
G0 F9000 X64.250 Y101.250
;TYPE:WALL-OUTER
G1 F3000 X64.250 Y58.750 E306.94304
G1 X95.750 Y58.750 E307.18993
G1 X95.750 Y101.250 E307.52303
G1 X64.250 Y101.250 E307.76992
G0 F9000 X64.510 Y100.900
G0 X65.500 Y100.000
;LAYER:27
G0 X65.595 Y100.574 Z3.000
;TYPE:FILL
G1 F3000 X95.074 Y71.096 E308.09667
G0 F9000 X95.074 Y70.326
G1 F3000 X84.173 Y59.424 E308.21750
G0 F9000 X85.532 Y59.424
G1 F3000 X64.925 Y80.031 E308.44592
G0 F9000 X64.924 Y82.602
G1 F3000 X82.896 Y100.574 E308.64512
G0 F9000 X86.808 Y100.574
G1 F3000 X95.074 Y92.309 E308.73674
G0 F9000 X95.074 Y91.539
G1 F3000 X64.924 Y61.388 E309.07093
G0 F9000 X64.925 Y65.889
G1 F3000 X71.390 Y59.424 E309.14259
G0 F9000 X70.031 Y59.424
G1 F3000 X95.074 Y84.468 E309.42018
G0 F9000 X95.074 Y85.238
G1 F3000 X79.737 Y100.574 E309.59017
G0 F9000 X75.825 Y100.574
G1 F3000 X64.924 Y89.673 E309.71100
G0 F9000 X64.925 Y87.102
G1 F3000 X92.603 Y59.424 E310.01779
G0 F9000 X91.244 Y59.424
G1 F3000 X95.074 Y63.254 E310.06024
G0 F9000 X95.074 Y64.024
G1 F3000 X64.925 Y94.173 E310.39442
G0 F9000 X64.924 Y96.744
G1 F3000 X68.754 Y100.574 E310.43688
G0 F9000 X72.666 Y100.574
G1 F3000 X95.074 Y78.167 E310.68525
G0 F9000 X95.074 Y77.397
G1 F3000 X77.102 Y59.424 E310.88446
G0 F9000 X78.461 Y59.424
G1 F3000 X64.925 Y72.960 E311.03449
G0 F9000 X64.924 Y75.531
G1 F3000 X89.968 Y100.574 E311.31208
G0 F9000 X93.879 Y100.574
G1 F3000 X95.074 Y99.380 E311.32532
G0 F9000 X95.074 Y98.610
G1 F3000 X64.924 Y68.459 E311.65952
G0 F9000 X64.750 Y59.250
;TYPE:WALL-INNER
G1 F3000 X95.250 Y59.250 E311.89857
G1 X95.250 Y100.750 E312.22383
G1 X64.750 Y100.750 E312.46288
G1 X64.750 Y59.250 E312.78815
G0 F9000 X64.250 Y58.750
;TYPE:WALL-OUTER
G1 F3000 X95.750 Y58.750 E313.03504
G1 X95.750 Y101.250 E313.36814
G1 X64.250 Y101.250 E313.61503
G1 X64.250 Y58.750 E313.94813
G0 F9000 X64.600 Y59.010
G0 X65.500 Y60.000
;LAYER:28
G0 X64.924 Y61.388 Z3.100
;TYPE:FILL
G1 F3000 X95.074 Y91.539 E314.28233
G0 F9000 X95.074 Y92.309
G1 F3000 X86.808 Y100.574 E314.37395
G0 F9000 X89.968 Y100.574
G1 F3000 X64.924 Y75.531 E314.65153
G0 F9000 X64.925 Y72.960
G1 F3000 X78.461 Y59.424 E314.80157
G0 F9000 X77.102 Y59.424
G1 F3000 X95.074 Y77.397 E315.00078
G0 F9000 X95.074 Y78.167
G1 F3000 X72.666 Y100.574 E315.24915
G0 F9000 X75.825 Y100.574
G1 F3000 X64.924 Y89.673 E315.36998
G0 F9000 X64.925 Y87.102
G1 F3000 X92.603 Y59.424 E315.67677
G0 F9000 X91.244 Y59.424
G1 F3000 X95.074 Y63.254 E315.71922
G0 F9000 X95.074 Y64.024
G1 F3000 X64.925 Y94.173 E316.05340
G0 F9000 X64.924 Y96.744
G1 F3000 X68.754 Y100.574 E316.09585
G0 F9000 X65.595 Y100.574
G1 F3000 X95.074 Y71.096 E316.42260
G0 F9000 X95.074 Y70.326
G1 F3000 X84.173 Y59.424 E316.54343
G0 F9000 X85.532 Y59.424
G1 F3000 X64.925 Y80.031 E316.77185
G0 F9000 X64.924 Y82.602
G1 F3000 X82.896 Y100.574 E316.97105
G0 F9000 X93.879 Y100.574
G1 F3000 X95.074 Y99.380 E316.98429
G0 F9000 X95.074 Y98.610
G1 F3000 X64.924 Y68.459 E317.31849
G0 F9000 X64.925 Y65.889
G1 F3000 X71.390 Y59.424 E317.39015
G0 F9000 X70.031 Y59.424
G1 F3000 X95.074 Y84.468 E317.66773
G0 F9000 X95.074 Y85.238
G1 F3000 X79.737 Y100.574 E317.83773
G0 F9000 X64.750 Y100.750
;TYPE:WALL-INNER
G1 F3000 X64.750 Y59.250 E318.16299
G1 X95.250 Y59.250 E318.40204
G1 X95.250 Y100.750 E318.72731
G1 X64.750 Y100.750 E318.96636
G0 F9000 X64.250 Y101.250
;TYPE:WALL-OUTER
G1 F3000 X64.250 Y58.750 E319.29946
G1 X95.750 Y58.750 E319.54635
G1 X95.750 Y101.250 E319.87946
G1 X64.250 Y101.250 E320.12635
G0 F9000 X64.510 Y100.900
G0 X65.500 Y100.000
;LAYER:29
G0 X65.595 Y100.574 Z3.200
;TYPE:FILL
G1 F3000 X95.074 Y71.096 E320.45309
G0 F9000 X95.074 Y70.326
G1 F3000 X84.173 Y59.424 E320.57393
G0 F9000 X85.532 Y59.424
G1 F3000 X64.925 Y80.031 E320.80234
G0 F9000 X64.924 Y82.602
G1 F3000 X82.896 Y100.574 E321.00154
G0 F9000 X86.808 Y100.574
G1 F3000 X95.074 Y92.309 E321.09316
G0 F9000 X95.074 Y91.539
G1 F3000 X64.924 Y61.388 E321.42736
G0 F9000 X64.925 Y65.889
G1 F3000 X71.390 Y59.424 E321.49902
G0 F9000 X70.031 Y59.424
G1 F3000 X95.074 Y84.468 E321.77660
G0 F9000 X95.074 Y85.238
G1 F3000 X79.737 Y100.574 E321.94660
G0 F9000 X75.825 Y100.574
G1 F3000 X64.924 Y89.673 E322.06743
G0 F9000 X64.925 Y87.102
G1 F3000 X92.603 Y59.424 E322.37422
G0 F9000 X91.244 Y59.424
G1 F3000 X95.074 Y63.254 E322.41667
G0 F9000 X95.074 Y64.024
G1 F3000 X64.925 Y94.173 E322.75085
G0 F9000 X64.924 Y96.744
G1 F3000 X68.754 Y100.574 E322.79330
G0 F9000 X72.666 Y100.574
G1 F3000 X95.074 Y78.167 E323.04167
G0 F9000 X95.074 Y77.397
G1 F3000 X77.102 Y59.424 E323.24088
G0 F9000 X78.461 Y59.424
G1 F3000 X64.925 Y72.960 E323.39092
G0 F9000 X64.924 Y75.531
G1 F3000 X89.968 Y100.574 E323.66850
G0 F9000 X93.879 Y100.574
G1 F3000 X95.074 Y99.380 E323.68174
G0 F9000 X95.074 Y98.610
G1 F3000 X64.924 Y68.459 E324.01594
G0 F9000 X64.750 Y59.250
;TYPE:WALL-INNER
G1 F3000 X95.250 Y59.250 E324.25499
G1 X95.250 Y100.750 E324.58026
G1 X64.750 Y100.750 E324.81931
G1 X64.750 Y59.250 E325.14457
G0 F9000 X64.250 Y58.750
;TYPE:WALL-OUTER
G1 F3000 X95.750 Y58.750 E325.39146
G1 X95.750 Y101.250 E325.72456
G1 X64.250 Y101.250 E325.97145
G1 X64.250 Y58.750 E326.30456
G0 F9000 X64.600 Y59.010
G0 X65.500 Y60.000
;LAYER:30
G0 X64.924 Y61.388 Z3.300
;TYPE:FILL
G1 F3000 X95.074 Y91.539 E326.63875
G0 F9000 X95.074 Y92.309
G1 F3000 X86.808 Y100.574 E326.73037
G0 F9000 X89.968 Y100.574
G1 F3000 X64.924 Y75.531 E327.00796
G0 F9000 X64.925 Y72.960
G1 F3000 X78.461 Y59.424 E327.15799
G0 F9000 X77.102 Y59.424
G1 F3000 X95.074 Y77.397 E327.35720
G0 F9000 X95.074 Y78.167
G1 F3000 X72.666 Y100.574 E327.60557
G0 F9000 X75.825 Y100.574
G1 F3000 X64.924 Y89.673 E327.72640
G0 F9000 X64.925 Y87.102
G1 F3000 X92.603 Y59.424 E328.03319
G0 F9000 X91.244 Y59.424
G1 F3000 X95.074 Y63.254 E328.07564
G0 F9000 X95.074 Y64.024
G1 F3000 X64.925 Y94.173 E328.40982
G0 F9000 X64.924 Y96.744
G1 F3000 X68.754 Y100.574 E328.45228
G0 F9000 X65.595 Y100.574
G1 F3000 X95.074 Y71.096 E328.77902
G0 F9000 X95.074 Y70.326
G1 F3000 X84.173 Y59.424 E328.89986
G0 F9000 X85.532 Y59.424
G1 F3000 X64.925 Y80.031 E329.12827
G0 F9000 X64.924 Y82.602
G1 F3000 X82.896 Y100.574 E329.32747
G0 F9000 X93.879 Y100.574
G1 F3000 X95.074 Y99.380 E329.34071
G0 F9000 X95.074 Y98.610
G1 F3000 X64.924 Y68.459 E329.67491
G0 F9000 X64.925 Y65.889
G1 F3000 X71.390 Y59.424 E329.74657
G0 F9000 X70.031 Y59.424
G1 F3000 X95.074 Y84.468 E330.02416
G0 F9000 X95.074 Y85.238
G1 F3000 X79.737 Y100.574 E330.19415
G0 F9000 X64.750 Y100.750
;TYPE:WALL-INNER
G1 F3000 X64.750 Y59.250 E330.51942
G1 X95.250 Y59.250 E330.75847
G1 X95.250 Y100.750 E331.08373
G1 X64.750 Y100.750 E331.32278
G0 F9000 X64.250 Y101.250
;TYPE:WALL-OUTER
G1 F3000 X64.250 Y58.750 E331.65589
G1 X95.750 Y58.750 E331.90278
G1 X95.750 Y101.250 E332.23588
G1 X64.250 Y101.250 E332.48277
G0 F9000 X64.510 Y100.900
G0 X65.500 Y100.000
;LAYER:31
G0 X65.595 Y100.574 Z3.400
;TYPE:FILL
G1 F3000 X95.074 Y71.096 E332.80951
G0 F9000 X95.074 Y70.326
G1 F3000 X84.173 Y59.424 E332.93035
G0 F9000 X85.532 Y59.424
G1 F3000 X64.925 Y80.031 E333.15876
G0 F9000 X64.924 Y82.602
G1 F3000 X82.896 Y100.574 E333.35797
G0 F9000 X86.808 Y100.574
G1 F3000 X95.074 Y92.309 E333.44958
G0 F9000 X95.074 Y91.539
G1 F3000 X64.924 Y61.388 E333.78378
G0 F9000 X64.925 Y65.889
G1 F3000 X71.390 Y59.424 E333.85544
G0 F9000 X70.031 Y59.424
G1 F3000 X95.074 Y84.468 E334.13303
G0 F9000 X95.074 Y85.238
G1 F3000 X79.737 Y100.574 E334.30302
G0 F9000 X75.825 Y100.574
G1 F3000 X64.924 Y89.673 E334.42385
G0 F9000 X64.925 Y87.102
G1 F3000 X92.603 Y59.424 E334.73064
G0 F9000 X91.244 Y59.424
G1 F3000 X95.074 Y63.254 E334.77309
G0 F9000 X95.074 Y64.024
G1 F3000 X64.925 Y94.173 E335.10727
G0 F9000 X64.924 Y96.744
G1 F3000 X68.754 Y100.574 E335.14972
G0 F9000 X72.666 Y100.574
G1 F3000 X95.074 Y78.167 E335.39809
G0 F9000 X95.074 Y77.397
G1 F3000 X77.102 Y59.424 E335.59730
G0 F9000 X78.461 Y59.424
G1 F3000 X64.925 Y72.960 E335.74734
G0 F9000 X64.924 Y75.531
G1 F3000 X89.968 Y100.574 E336.02493
G0 F9000 X93.879 Y100.574
G1 F3000 X95.074 Y99.380 E336.03817
G0 F9000 X95.074 Y98.610
G1 F3000 X64.924 Y68.459 E336.37236
G0 F9000 X64.750 Y59.250
;TYPE:WALL-INNER
G1 F3000 X95.250 Y59.250 E336.61141
G1 X95.250 Y100.750 E336.93668
G1 X64.750 Y100.750 E337.17573
G1 X64.750 Y59.250 E337.50100
G0 F9000 X64.250 Y58.750
;TYPE:WALL-OUTER
G1 F3000 X95.750 Y58.750 E337.74788
G1 X95.750 Y101.250 E338.08099
G1 X64.250 Y101.250 E338.32788
G1 X64.250 Y58.750 E338.66098
G0 F9000 X64.600 Y59.010
G0 X65.500 Y60.000
;LAYER:32
G0 X64.924 Y61.388 Z3.500
;TYPE:FILL
G1 F3000 X95.074 Y91.539 E338.99517
G0 F9000 X95.074 Y92.309
G1 F3000 X86.808 Y100.574 E339.08679
G0 F9000 X89.968 Y100.574
G1 F3000 X64.924 Y75.531 E339.36438
G0 F9000 X64.925 Y72.960
G1 F3000 X78.461 Y59.424 E339.51441
G0 F9000 X77.102 Y59.424
G1 F3000 X95.074 Y77.397 E339.71363
G0 F9000 X95.074 Y78.167
G1 F3000 X72.666 Y100.574 E339.96200
G0 F9000 X75.825 Y100.574
G1 F3000 X64.924 Y89.673 E340.08283
G0 F9000 X64.925 Y87.102
G1 F3000 X92.603 Y59.424 E340.38961
G0 F9000 X91.244 Y59.424
G1 F3000 X95.074 Y63.254 E340.43207
G0 F9000 X95.074 Y64.024
G1 F3000 X64.925 Y94.173 E340.76625
G0 F9000 X64.924 Y96.744
G1 F3000 X68.754 Y100.574 E340.80870
G0 F9000 X65.595 Y100.574
G1 F3000 X95.074 Y71.096 E341.13544
G0 F9000 X95.074 Y70.326
G1 F3000 X84.173 Y59.424 E341.25628
G0 F9000 X85.532 Y59.424
G1 F3000 X64.925 Y80.031 E341.48469
G0 F9000 X64.924 Y82.602
G1 F3000 X82.896 Y100.574 E341.68390
G0 F9000 X93.879 Y100.574
G1 F3000 X95.074 Y99.380 E341.69714
G0 F9000 X95.074 Y98.610
G1 F3000 X64.924 Y68.459 E342.03133
G0 F9000 X64.925 Y65.889
G1 F3000 X71.390 Y59.424 E342.10299
G0 F9000 X70.031 Y59.424
G1 F3000 X95.074 Y84.468 E342.38058
G0 F9000 X95.074 Y85.238
G1 F3000 X79.737 Y100.574 E342.55057
G0 F9000 X64.750 Y100.750
;TYPE:WALL-INNER
G1 F3000 X64.750 Y59.250 E342.87584
G1 X95.250 Y59.250 E343.11489
G1 X95.250 Y100.750 E343.44016
G1 X64.750 Y100.750 E343.67921
G0 F9000 X64.250 Y101.250
;TYPE:WALL-OUTER
G1 F3000 X64.250 Y58.750 E344.01231
G1 X95.750 Y58.750 E344.25920
G1 X95.750 Y101.250 E344.59230
G1 X64.250 Y101.250 E344.83919
G0 F9000 X64.510 Y100.900
G0 X65.500 Y100.000
;LAYER:33
G0 X65.595 Y100.574 Z3.600
;TYPE:FILL
G1 F3000 X95.074 Y71.096 E345.16594
G0 F9000 X95.074 Y70.326
G1 F3000 X84.173 Y59.424 E345.28677
G0 F9000 X85.532 Y59.424
G1 F3000 X64.925 Y80.031 E345.51518
G0 F9000 X64.924 Y82.602
G1 F3000 X82.896 Y100.574 E345.71439
G0 F9000 X86.808 Y100.574
G1 F3000 X95.074 Y92.309 E345.80601
G0 F9000 X95.074 Y91.539
G1 F3000 X64.924 Y61.388 E346.14020
G0 F9000 X64.925 Y65.889
G1 F3000 X71.390 Y59.424 E346.21186
G0 F9000 X70.031 Y59.424
G1 F3000 X95.074 Y84.468 E346.48945
G0 F9000 X95.074 Y85.238
G1 F3000 X79.737 Y100.574 E346.65944
G0 F9000 X75.825 Y100.574
G1 F3000 X64.924 Y89.673 E346.78027
G0 F9000 X64.925 Y87.102
G1 F3000 X92.603 Y59.424 E347.08706
G0 F9000 X91.244 Y59.424
G1 F3000 X95.074 Y63.254 E347.12951
G0 F9000 X95.074 Y64.024
G1 F3000 X64.925 Y94.173 E347.46369
G0 F9000 X64.924 Y96.744
G1 F3000 X68.754 Y100.574 E347.50614
G0 F9000 X72.666 Y100.574
G1 F3000 X95.074 Y78.167 E347.75451
G0 F9000 X95.074 Y77.397
G1 F3000 X77.102 Y59.424 E347.95373
G0 F9000 X78.461 Y59.424
G1 F3000 X64.925 Y72.960 E348.10376
G0 F9000 X64.924 Y75.531
G1 F3000 X89.968 Y100.574 E348.38135
G0 F9000 X93.879 Y100.574
G1 F3000 X95.074 Y99.380 E348.39459
G0 F9000 X95.074 Y98.610
G1 F3000 X64.924 Y68.459 E348.72878
G0 F9000 X64.750 Y59.250
;TYPE:WALL-INNER
G1 F3000 X95.250 Y59.250 E348.96784
G1 X95.250 Y100.750 E349.29310
G1 X64.750 Y100.750 E349.53215
G1 X64.750 Y59.250 E349.85742
G0 F9000 X64.250 Y58.750
;TYPE:WALL-OUTER
G1 F3000 X95.750 Y58.750 E350.10431
G1 X95.750 Y101.250 E350.43741
G1 X64.250 Y101.250 E350.68430
G1 X64.250 Y58.750 E351.01740
G0 F9000 X64.600 Y59.010
G0 X65.500 Y60.000
;LAYER:34
G0 X64.924 Y61.388 Z3.700
;TYPE:FILL
G1 F3000 X95.074 Y91.539 E351.35160
G0 F9000 X95.074 Y92.309
G1 F3000 X86.808 Y100.574 E351.44321
G0 F9000 X89.968 Y100.574
G1 F3000 X64.924 Y75.531 E351.72080
G0 F9000 X64.925 Y72.960
G1 F3000 X78.461 Y59.424 E351.87084
G0 F9000 X77.102 Y59.424
G1 F3000 X95.074 Y77.397 E352.07005
G0 F9000 X95.074 Y78.167
G1 F3000 X72.666 Y100.574 E352.31842
G0 F9000 X75.825 Y100.574
G1 F3000 X64.924 Y89.673 E352.43925
G0 F9000 X64.925 Y87.102
G1 F3000 X92.603 Y59.424 E352.74604
G0 F9000 X91.244 Y59.424
G1 F3000 X95.074 Y63.254 E352.78849
G0 F9000 X95.074 Y64.024
G1 F3000 X64.925 Y94.173 E353.12267
G0 F9000 X64.924 Y96.744
G1 F3000 X68.754 Y100.574 E353.16512
G0 F9000 X65.595 Y100.574
G1 F3000 X95.074 Y71.096 E353.49187
G0 F9000 X95.074 Y70.326
G1 F3000 X84.173 Y59.424 E353.61270
G0 F9000 X85.532 Y59.424
G1 F3000 X64.925 Y80.031 E353.84111
G0 F9000 X64.924 Y82.602
G1 F3000 X82.896 Y100.574 E354.04032
G0 F9000 X93.879 Y100.574
G1 F3000 X95.074 Y99.380 E354.05356
G0 F9000 X95.074 Y98.610
G1 F3000 X64.924 Y68.459 E354.38776
G0 F9000 X64.925 Y65.889
G1 F3000 X71.390 Y59.424 E354.45941
G0 F9000 X70.031 Y59.424
G1 F3000 X95.074 Y84.468 E354.73700
G0 F9000 X95.074 Y85.238
G1 F3000 X79.737 Y100.574 E354.90700
G0 F9000 X64.750 Y100.750
;TYPE:WALL-INNER
G1 F3000 X64.750 Y59.250 E355.23226
G1 X95.250 Y59.250 E355.47131
G1 X95.250 Y100.750 E355.79658
G1 X64.750 Y100.750 E356.03563
G0 F9000 X64.250 Y101.250
;TYPE:WALL-OUTER
G1 F3000 X64.250 Y58.750 E356.36873
G1 X95.750 Y58.750 E356.61562
G1 X95.750 Y101.250 E356.94873
G1 X64.250 Y101.250 E357.19561
G0 F9000 X64.510 Y100.900
G0 X65.500 Y100.000
;LAYER:35
G0 X65.595 Y100.574 Z3.800
;TYPE:FILL
G1 F3000 X95.074 Y71.096 E357.52236
G0 F9000 X95.074 Y70.326
G1 F3000 X84.173 Y59.424 E357.64319
G0 F9000 X85.532 Y59.424
G1 F3000 X64.925 Y80.031 E357.87161
G0 F9000 X64.924 Y82.602
G1 F3000 X82.896 Y100.574 E358.07081
G0 F9000 X86.808 Y100.574
G1 F3000 X95.074 Y92.309 E358.16243
G0 F9000 X95.074 Y91.539
G1 F3000 X64.924 Y61.388 E358.49662
G0 F9000 X64.925 Y65.889
G1 F3000 X71.390 Y59.424 E358.56828
G0 F9000 X70.031 Y59.424
G1 F3000 X95.074 Y84.468 E358.84587
G0 F9000 X95.074 Y85.238
G1 F3000 X79.737 Y100.574 E359.01587
G0 F9000 X75.825 Y100.574
G1 F3000 X64.924 Y89.673 E359.13669
G0 F9000 X64.925 Y87.102
G1 F3000 X92.603 Y59.424 E359.44348
G0 F9000 X91.244 Y59.424
G1 F3000 X95.074 Y63.254 E359.48594
G0 F9000 X95.074 Y64.024
G1 F3000 X64.925 Y94.173 E359.82011
G0 F9000 X64.924 Y96.744
G1 F3000 X68.754 Y100.574 E359.86257
G0 F9000 X72.666 Y100.574
G1 F3000 X95.074 Y78.167 E360.11094
G0 F9000 X95.074 Y77.397
G1 F3000 X77.102 Y59.424 E360.31015
G0 F9000 X78.461 Y59.424
G1 F3000 X64.925 Y72.960 E360.46018
G0 F9000 X64.924 Y75.531
G1 F3000 X89.968 Y100.574 E360.73777
G0 F9000 X93.879 Y100.574
G1 F3000 X95.074 Y99.380 E360.75101
G0 F9000 X95.074 Y98.610
G1 F3000 X64.924 Y68.459 E361.08521
G0 F9000 X64.750 Y59.250
;TYPE:WALL-INNER
G1 F3000 X95.250 Y59.250 E361.32426
G1 X95.250 Y100.750 E361.64952
G1 X64.750 Y100.750 E361.88857
G1 X64.750 Y59.250 E362.21384
G0 F9000 X64.250 Y58.750
;TYPE:WALL-OUTER
G1 F3000 X95.750 Y58.750 E362.46073
G1 X95.750 Y101.250 E362.79383
G1 X64.250 Y101.250 E363.04072
G1 X64.250 Y58.750 E363.37383
G0 F9000 X64.600 Y59.010
G0 X65.500 Y60.000
;LAYER:36
G0 X64.924 Y61.388 Z3.900
;TYPE:FILL
G1 F3000 X95.074 Y91.539 E363.70802
G0 F9000 X95.074 Y92.309
G1 F3000 X86.808 Y100.574 E363.79964
G0 F9000 X89.968 Y100.574
G1 F3000 X64.924 Y75.531 E364.07722
G0 F9000 X64.925 Y72.960
G1 F3000 X78.461 Y59.424 E364.22726
G0 F9000 X77.102 Y59.424
G1 F3000 X95.074 Y77.397 E364.42647
G0 F9000 X95.074 Y78.167
G1 F3000 X72.666 Y100.574 E364.67484
G0 F9000 X75.825 Y100.574
G1 F3000 X64.924 Y89.673 E364.79567
G0 F9000 X64.925 Y87.102
G1 F3000 X92.603 Y59.424 E365.10246
G0 F9000 X91.244 Y59.424
G1 F3000 X95.074 Y63.254 E365.14491
G0 F9000 X95.074 Y64.024
G1 F3000 X64.925 Y94.173 E365.47909
G0 F9000 X64.924 Y96.744
G1 F3000 X68.754 Y100.574 E365.52154
G0 F9000 X65.595 Y100.574
G1 F3000 X95.074 Y71.096 E365.84829
G0 F9000 X95.074 Y70.326
G1 F3000 X84.173 Y59.424 E365.96912
G0 F9000 X85.532 Y59.424
G1 F3000 X64.925 Y80.031 E366.19754
G0 F9000 X64.924 Y82.602
G1 F3000 X82.896 Y100.574 E366.39674
G0 F9000 X93.879 Y100.574
G1 F3000 X95.074 Y99.380 E366.40998
G0 F9000 X95.074 Y98.610
G1 F3000 X64.924 Y68.459 E366.74418
G0 F9000 X64.925 Y65.889
G1 F3000 X71.390 Y59.424 E366.81584
G0 F9000 X70.031 Y59.424
G1 F3000 X95.074 Y84.468 E367.09343
G0 F9000 X95.074 Y85.238
G1 F3000 X79.737 Y100.574 E367.26342
G0 F9000 X64.750 Y100.750
;TYPE:WALL-INNER
G1 F3000 X64.750 Y59.250 E367.58868
G1 X95.250 Y59.250 E367.82774
G1 X95.250 Y100.750 E368.15300
G1 X64.750 Y100.750 E368.39205
G0 F9000 X64.250 Y101.250
;TYPE:WALL-OUTER
G1 F3000 X64.250 Y58.750 E368.72516
G1 X95.750 Y58.750 E368.97204
G1 X95.750 Y101.250 E369.30515
G1 X64.250 Y101.250 E369.55204
G0 F9000 X64.510 Y100.900
G0 X65.500 Y100.000
;LAYER:37
G0 X65.595 Y100.574 Z4.000
;TYPE:FILL
G1 F3000 X95.074 Y71.096 E369.87878
G0 F9000 X95.074 Y70.326
G1 F3000 X84.173 Y59.424 E369.99962
G0 F9000 X85.532 Y59.424
G1 F3000 X64.925 Y80.031 E370.22803
G0 F9000 X64.924 Y82.602
G1 F3000 X82.896 Y100.574 E370.42724
G0 F9000 X86.808 Y100.574
G1 F3000 X95.074 Y92.309 E370.51885
G0 F9000 X95.074 Y91.539
G1 F3000 X64.924 Y61.388 E370.85305
G0 F9000 X64.925 Y65.889
G1 F3000 X71.390 Y59.424 E370.92471
G0 F9000 X70.031 Y59.424
G1 F3000 X95.074 Y84.468 E371.20229
G0 F9000 X95.074 Y85.238
G1 F3000 X79.737 Y100.574 E371.37229
G0 F9000 X75.825 Y100.574
G1 F3000 X64.924 Y89.673 E371.49312
G0 F9000 X64.925 Y87.102
G1 F3000 X92.603 Y59.424 E371.79991
G0 F9000 X91.244 Y59.424
G1 F3000 X95.074 Y63.254 E371.84236
G0 F9000 X95.074 Y64.024
G1 F3000 X64.925 Y94.173 E372.17654
G0 F9000 X64.924 Y96.744
G1 F3000 X68.754 Y100.574 E372.21899
G0 F9000 X72.666 Y100.574
G1 F3000 X95.074 Y78.167 E372.46736
G0 F9000 X95.074 Y77.397
G1 F3000 X77.102 Y59.424 E372.66657
G0 F9000 X78.461 Y59.424
G1 F3000 X64.925 Y72.960 E372.81661
G0 F9000 X64.924 Y75.531
G1 F3000 X89.968 Y100.574 E373.09420
G0 F9000 X93.879 Y100.574
G1 F3000 X95.074 Y99.380 E373.10744
G0 F9000 X95.074 Y98.610
G1 F3000 X64.924 Y68.459 E373.44163
G0 F9000 X64.750 Y59.250
;TYPE:WALL-INNER
G1 F3000 X95.250 Y59.250 E373.68068
G1 X95.250 Y100.750 E374.00595
G1 X64.750 Y100.750 E374.24500
G1 X64.750 Y59.250 E374.57026
G0 F9000 X64.250 Y58.750
;TYPE:WALL-OUTER
G1 F3000 X95.750 Y58.750 E374.81715
G1 X95.750 Y101.250 E375.15026
G1 X64.250 Y101.250 E375.39714
G1 X64.250 Y58.750 E375.73025
G0 F9000 X64.600 Y59.010
G0 X65.500 Y60.000
;LAYER:38
G0 X64.924 Y61.388 Z4.100
;TYPE:FILL
G1 F3000 X95.074 Y91.539 E376.06444
G0 F9000 X95.074 Y92.309
G1 F3000 X86.808 Y100.574 E376.15606
G0 F9000 X89.968 Y100.574
G1 F3000 X64.924 Y75.531 E376.43365
G0 F9000 X64.925 Y72.960
G1 F3000 X78.461 Y59.424 E376.58368
G0 F9000 X77.102 Y59.424
G1 F3000 X95.074 Y77.397 E376.78289
G0 F9000 X95.074 Y78.167
G1 F3000 X72.666 Y100.574 E377.03126
G0 F9000 X75.825 Y100.574
G1 F3000 X64.924 Y89.673 E377.15209
G0 F9000 X64.925 Y87.102
G1 F3000 X92.603 Y59.424 E377.45888
G0 F9000 X91.244 Y59.424
G1 F3000 X95.074 Y63.254 E377.50134
G0 F9000 X95.074 Y64.024
G1 F3000 X64.925 Y94.173 E377.83551
G0 F9000 X64.924 Y96.744
G1 F3000 X68.754 Y100.574 E377.87797
G0 F9000 X65.595 Y100.574
G1 F3000 X95.074 Y71.096 E378.20471
G0 F9000 X95.074 Y70.326
G1 F3000 X84.173 Y59.424 E378.32555
G0 F9000 X85.532 Y59.424
G1 F3000 X64.925 Y80.031 E378.55396
G0 F9000 X64.924 Y82.602
G1 F3000 X82.896 Y100.574 E378.75317
G0 F9000 X93.879 Y100.574
G1 F3000 X95.074 Y99.380 E378.76641
G0 F9000 X95.074 Y98.610
G1 F3000 X64.924 Y68.459 E379.10060
G0 F9000 X64.925 Y65.889
G1 F3000 X71.390 Y59.424 E379.17226
G0 F9000 X70.031 Y59.424
G1 F3000 X95.074 Y84.468 E379.44985
G0 F9000 X95.074 Y85.238
G1 F3000 X79.737 Y100.574 E379.61984
G0 F9000 X64.750 Y100.750
;TYPE:WALL-INNER
G1 F3000 X64.750 Y59.250 E379.94511
G1 X95.250 Y59.250 E380.18416
G1 X95.250 Y100.750 E380.50942
G1 X64.750 Y100.750 E380.74848
G0 F9000 X64.250 Y101.250
;TYPE:WALL-OUTER
G1 F3000 X64.250 Y58.750 E381.08158
G1 X95.750 Y58.750 E381.32847
G1 X95.750 Y101.250 E381.66157
G1 X64.250 Y101.250 E381.90846
G0 F9000 X64.510 Y100.900
G0 X65.500 Y100.000
;LAYER:39
G0 X65.595 Y100.574 Z4.200
;TYPE:FILL
G1 F3000 X95.074 Y71.096 E382.23521
G0 F9000 X95.074 Y70.326
G1 F3000 X84.173 Y59.424 E382.35604
G0 F9000 X85.532 Y59.424
G1 F3000 X64.925 Y80.031 E382.58445
G0 F9000 X64.924 Y82.602
G1 F3000 X82.896 Y100.574 E382.78366
G0 F9000 X86.808 Y100.574
G1 F3000 X95.074 Y92.309 E382.87528
G0 F9000 X95.074 Y91.539
G1 F3000 X64.924 Y61.388 E383.20947
G0 F9000 X64.925 Y65.889
G1 F3000 X71.390 Y59.424 E383.28113
G0 F9000 X70.031 Y59.424
G1 F3000 X95.074 Y84.468 E383.55872
